;FLAVOR:UltiGCode
;TIME:640
;MATERIAL:555
;MATERIAL2:0
;NOZZLE_DIAMETER:0.400000
;NOZZLE_DIAMETER2:0.400000

;Layer count: 87
;LAYER:0
M107
G0 F9000 X105.410 Y103.405 Z0.300
;TYPE:SKIRT
G1 F1200 X124.591 Y103.405 E2.30172
G1 X124.591 Y121.596 E4.48464
G1 X105.410 Y121.596 E6.78636
G1 X105.410 Y103.405 E8.96928
G0 F9000 X105.810 Y103.805
G1 F1200 X124.191 Y103.805 E11.17500
G1 X124.191 Y121.196 E13.26192
G1 X105.810 Y121.196 E15.46764
G1 X105.810 Y103.805 E17.55456
G0 F9000 X106.210 Y104.205
G1 F1200 X123.791 Y104.205 E19.66428
G1 X123.791 Y120.796 E21.65520
G1 X106.210 Y120.796 E23.76492
G1 X106.210 Y104.205 E25.75584
G10
G0 F9000 X110.010 Y108.005
;TYPE:WALL-INNER
G11
G1 F1200 X119.991 Y108.005 E26.95356
G1 X119.991 Y116.996 E28.03248
G1 X110.010 Y116.996 E29.23020
G1 X110.010 Y108.005 E30.30912
G0 F9000 X109.610 Y107.605
;TYPE:WALL-OUTER
G1 F1200 X120.391 Y107.605 E31.60284
G1 X120.391 Y117.396 E32.77776
G1 X109.610 Y117.396 E34.07148
G1 X109.610 Y107.605 E35.24640
G0 F9000 X110.148 Y108.168
;TYPE:SKIN
G1 F900 X118.835 Y116.855 E36.72063
G0 F9000 X118.269 Y116.855
G1 F900 X110.148 Y108.734 E38.09881
G0 F9000 X110.148 Y109.300
G1 F900 X117.704 Y116.855 E39.38102
G0 F9000 X117.138 Y116.855
G1 F900 X110.148 Y109.866 E40.56718
G0 F9000 X110.148 Y110.431
G1 F900 X116.572 Y116.855 E41.65737
G0 F9000 X116.007 Y116.855
G1 F900 X110.148 Y110.997 E42.65159
G0 F9000 X110.148 Y111.563
G1 F900 X115.441 Y116.855 E43.54976
G0 F9000 X114.875 Y116.855
G1 F900 X110.148 Y112.128 E44.35196
G0 F9000 X110.149 Y112.695
G1 F900 X114.309 Y116.855 E45.05793
G0 F9000 X113.743 Y116.855
G1 F900 X110.149 Y113.260 E45.66794
G0 F9000 X110.149 Y113.826
G1 F900 X113.178 Y116.855 E46.18198
G0 F9000 X112.612 Y116.855
G1 F900 X110.149 Y114.392 E46.59996
G0 F9000 X110.149 Y114.957
G1 F900 X112.046 Y116.855 E46.92198
G0 F9000 X111.481 Y116.855
G1 F900 X110.149 Y115.523 E47.14803
G0 F9000 X110.149 Y116.089
G1 F900 X110.915 Y116.855 E47.27802
G0 F9000 X110.349 Y116.855
G1 F900 X110.149 Y116.654 E47.31205
G0 F9000 X110.690 Y108.144
G1 F900 X119.401 Y116.855 E48.79035
G0 F9000 X119.850 Y116.739
G1 F900 X111.256 Y108.144 E50.24889
G0 F9000 X111.821 Y108.144
G1 F900 X119.850 Y116.173 E51.61145
G0 F9000 X119.850 Y115.607
G1 F900 X112.387 Y108.144 E52.87797
G0 F9000 X112.953 Y108.144
G1 F900 X119.850 Y115.042 E54.04851
G0 F9000 X119.850 Y114.476
G1 F900 X113.518 Y108.144 E55.12309
G0 F9000 X114.084 Y108.144
G1 F900 X119.850 Y113.910 E56.10161
G0 F9000 X119.850 Y113.344
G1 F900 X114.650 Y108.144 E56.98408
G0 F9000 X115.215 Y108.144
G1 F900 X119.850 Y112.779 E57.77066
G0 F9000 X119.850 Y112.213
G1 F900 X115.781 Y108.144 E58.46120
G0 F9000 X116.347 Y108.144
G1 F900 X119.850 Y111.647 E59.05568
G0 F9000 X119.850 Y111.082
G1 F900 X116.913 Y108.144 E59.55419
G0 F9000 X117.478 Y108.144
G1 F900 X119.850 Y110.516 E59.95673
G0 F9000 X119.850 Y109.950
G1 F900 X118.044 Y108.144 E60.26322
G0 F9000 X118.610 Y108.144
G1 F900 X119.850 Y109.385 E60.47374
G0 F9000 X119.850 Y108.819
G1 F900 X119.175 Y108.144 E60.58829
G0 F9000 X119.741 Y108.144
G1 F900 X119.850 Y108.253 E60.60678
;LAYER:1
M106 S127
G0 F9000 X119.991 Y108.005 Z0.400
;TYPE:WALL-INNER
G1 F1800 X119.991 Y116.996 E60.96642
G1 X110.010 Y116.996 E61.36566
G1 X110.010 Y108.005 E61.72530
G1 X119.991 Y108.005 E62.12454
G0 F9000 X120.391 Y107.605
;TYPE:WALL-OUTER
G1 F1320 X120.391 Y117.396 E62.51618
G1 X109.610 Y117.396 E62.94742
G1 X109.610 Y107.605 E63.33906
G1 X120.391 Y107.605 E63.77030
G0 F9000 X119.850 Y108.403
;TYPE:SKIN
G1 F900 X111.398 Y116.855 E64.24842
G0 F9000 X111.963 Y116.855
G1 F900 X119.850 Y108.969 E64.69455
G0 F9000 X119.850 Y109.535
G1 F900 X112.529 Y116.855 E65.10866
G0 F9000 X113.095 Y116.855
G1 F900 X119.850 Y110.100 E65.49078
G0 F9000 X119.850 Y110.666
G1 F900 X113.661 Y116.855 E65.84088
G0 F9000 X114.226 Y116.855
G1 F900 X119.850 Y111.232 E66.15900
G0 F9000 X119.850 Y111.797
G1 F900 X114.792 Y116.855 E66.44512
G0 F9000 X115.357 Y116.856
G1 F900 X119.850 Y112.363 E66.69928
G0 F9000 X119.850 Y112.929
G1 F900 X115.923 Y116.856 E66.92143
G0 F9000 X116.488 Y116.856
G1 F900 X119.850 Y113.494 E67.11161
G0 F9000 X119.850 Y114.060
G1 F900 X117.054 Y116.856 E67.26978
G0 F9000 X117.620 Y116.856
G1 F900 X119.850 Y114.626 E67.39592
G0 F9000 X119.850 Y115.191
G1 F900 X118.185 Y116.856 E67.49011
G0 F9000 X118.751 Y116.856
G1 F900 X119.850 Y115.757 E67.55228
G0 F9000 X119.850 Y116.323
G1 F900 X119.317 Y116.856 E67.58243
G0 F9000 X110.832 Y116.855
G1 F900 X119.543 Y108.144 E68.07520
G0 F9000 X118.977 Y108.144
G1 F900 X110.266 Y116.855 E68.56797
G0 F9000 X110.150 Y116.406
G1 F900 X118.412 Y108.144 E69.03534
G0 F9000 X117.846 Y108.144
G1 F900 X110.150 Y115.841 E69.47072
G0 F9000 X110.150 Y115.275
G1 F900 X117.280 Y108.144 E69.87408
G0 F9000 X116.715 Y108.144
G1 F900 X110.150 Y114.709 E70.24545
G0 F9000 X110.150 Y114.144
G1 F900 X116.149 Y108.144 E70.58483
G0 F9000 X115.583 Y108.144
G1 F900 X110.150 Y113.578 E70.89220
G0 F9000 X110.150 Y113.012
G1 F900 X115.017 Y108.144 E71.16755
G0 F9000 X114.452 Y108.144
G1 F900 X110.149 Y112.447 E71.41096
G0 F9000 X110.149 Y111.881
G1 F900 X113.886 Y108.144 E71.62236
G0 F9000 X113.320 Y108.144
G1 F900 X110.149 Y111.316 E71.80177
G0 F9000 X110.149 Y110.750
G1 F900 X112.755 Y108.144 E71.94918
G0 F9000 X112.189 Y108.144
G1 F900 X110.149 Y110.184 E72.06458
G0 F9000 X110.149 Y109.619
G1 F900 X111.623 Y108.144 E72.14799
G0 F9000 X111.058 Y108.144
G1 F900 X110.149 Y109.053 E72.19941
G0 F9000 X110.149 Y108.487
G1 F900 X110.492 Y108.144 E72.21882
;LAYER:2
M106 S255
G0 F9000 X110.010 Y108.005 Z0.500
;TYPE:WALL-INNER
G1 F2400 X119.991 Y108.005 E72.61806
G1 X119.991 Y116.996 E72.97770
G1 X110.010 Y116.996 E73.37694
G1 X110.010 Y108.005 E73.73658
G0 F9000 X109.610 Y107.605
;TYPE:WALL-OUTER
G1 F1500 X120.391 Y107.605 E74.16782
G1 X120.391 Y117.396 E74.55946
G1 X109.610 Y117.396 E74.99070
G1 X109.610 Y107.605 E75.38234
G0 F9000 X110.148 Y108.168
;TYPE:SKIN
G1 F900 X118.835 Y116.855 E75.87375
G0 F9000 X118.269 Y116.855
G1 F900 X110.148 Y108.734 E76.33314
G0 F9000 X110.148 Y109.300
G1 F900 X117.704 Y116.855 E76.76054
G0 F9000 X117.138 Y116.855
G1 F900 X110.148 Y109.866 E77.15593
G0 F9000 X110.148 Y110.431
G1 F900 X116.572 Y116.855 E77.51933
G0 F9000 X116.007 Y116.855
G1 F900 X110.148 Y110.997 E77.85073
G0 F9000 X110.148 Y111.563
G1 F900 X115.441 Y116.855 E78.15012
G0 F9000 X114.875 Y116.855
G1 F900 X110.148 Y112.128 E78.41752
G0 F9000 X110.149 Y112.695
G1 F900 X114.309 Y116.855 E78.65285
G0 F9000 X113.743 Y116.855
G1 F900 X110.149 Y113.260 E78.85618
G0 F9000 X110.149 Y113.826
G1 F900 X113.178 Y116.855 E79.02753
G0 F9000 X112.612 Y116.855
G1 F900 X110.149 Y114.392 E79.16686
G0 F9000 X110.149 Y114.957
G1 F900 X112.046 Y116.855 E79.27420
G0 F9000 X111.481 Y116.855
G1 F900 X110.149 Y115.523 E79.34955
G0 F9000 X110.149 Y116.089
G1 F900 X110.915 Y116.855 E79.39288
G0 F9000 X110.349 Y116.855
G1 F900 X110.149 Y116.654 E79.40422
G0 F9000 X110.690 Y108.144
G1 F900 X119.401 Y116.855 E79.89699
G0 F9000 X119.850 Y116.739
G1 F900 X111.256 Y108.144 E80.38317
G0 F9000 X111.821 Y108.144
G1 F900 X119.850 Y116.173 E80.83735
G0 F9000 X119.850 Y115.607
G1 F900 X112.387 Y108.144 E81.25953
G0 F9000 X112.953 Y108.144
G1 F900 X119.850 Y115.042 E81.64971
G0 F9000 X119.850 Y114.476
G1 F900 X113.518 Y108.144 E82.00790
G0 F9000 X114.084 Y108.144
G1 F900 X119.850 Y113.910 E82.33407
G0 F9000 X119.850 Y113.344
G1 F900 X114.650 Y108.144 E82.62823
G0 F9000 X115.215 Y108.144
G1 F900 X119.850 Y112.779 E82.89042
G0 F9000 X119.850 Y112.213
G1 F900 X115.781 Y108.144 E83.12060
G0 F9000 X116.347 Y108.144
G1 F900 X119.850 Y111.647 E83.31876
G0 F9000 X119.850 Y111.082
G1 F900 X116.913 Y108.144 E83.48493
G0 F9000 X117.478 Y108.144
G1 F900 X119.850 Y110.516 E83.61911
G0 F9000 X119.850 Y109.950
G1 F900 X118.044 Y108.144 E83.72128
G0 F9000 X118.610 Y108.144
G1 F900 X119.850 Y109.385 E83.79145
G0 F9000 X119.850 Y108.819
G1 F900 X119.175 Y108.144 E83.82963
G0 F9000 X119.741 Y108.144
G1 F900 X119.850 Y108.253 E83.83580
;LAYER:3
G0 F9000 X119.991 Y108.005 Z0.600
;TYPE:WALL-INNER
G1 F3000 X119.991 Y116.996 E84.19544
G1 X110.010 Y116.996 E84.59468
G1 X110.010 Y108.005 E84.95432
G1 X119.991 Y108.005 E85.35356
G0 F9000 X120.391 Y107.605
;TYPE:WALL-OUTER
G1 F1620 X120.391 Y117.396 E85.74520
G1 X109.610 Y117.396 E86.17644
G1 X109.610 Y107.605 E86.56808
G1 X120.391 Y107.605 E86.99932
G0 F9000 X119.850 Y108.403
;TYPE:SKIN
G1 F900 X111.398 Y116.855 E87.47744
G0 F9000 X111.963 Y116.855
G1 F900 X119.850 Y108.969 E87.92356
G0 F9000 X119.850 Y109.535
G1 F900 X112.529 Y116.855 E88.33767
G0 F9000 X113.095 Y116.855
G1 F900 X119.850 Y110.100 E88.71979
G0 F9000 X119.850 Y110.666
G1 F900 X113.661 Y116.855 E89.06990
G0 F9000 X114.226 Y116.855
G1 F900 X119.850 Y111.232 E89.38801
G0 F9000 X119.850 Y111.797
G1 F900 X114.792 Y116.855 E89.67413
G0 F9000 X115.357 Y116.856
G1 F900 X119.850 Y112.363 E89.92830
G0 F9000 X119.850 Y112.929
G1 F900 X115.923 Y116.856 E90.15044
G0 F9000 X116.488 Y116.856
G1 F900 X119.850 Y113.494 E90.34062
G0 F9000 X119.850 Y114.060
G1 F900 X117.054 Y116.856 E90.49879
G0 F9000 X117.620 Y116.856
G1 F900 X119.850 Y114.626 E90.62494
G0 F9000 X119.850 Y115.191
G1 F900 X118.185 Y116.856 E90.71912
G0 F9000 X118.751 Y116.856
G1 F900 X119.850 Y115.757 E90.78129
G0 F9000 X119.850 Y116.323
G1 F900 X119.317 Y116.856 E90.81144
G0 F9000 X110.832 Y116.855
G1 F900 X119.543 Y108.144 E91.30421
G0 F9000 X118.977 Y108.144
G1 F900 X110.266 Y116.855 E91.79698
G0 F9000 X110.150 Y116.406
G1 F900 X118.412 Y108.144 E92.26435
G0 F9000 X117.846 Y108.144
G1 F900 X110.150 Y115.841 E92.69973
G0 F9000 X110.150 Y115.275
G1 F900 X117.280 Y108.144 E93.10309
G0 F9000 X116.715 Y108.144
G1 F900 X110.150 Y114.709 E93.47446
G0 F9000 X110.150 Y114.144
G1 F900 X116.149 Y108.144 E93.81385
G0 F9000 X115.583 Y108.144
G1 F900 X110.150 Y113.578 E94.12121
G0 F9000 X110.150 Y113.012
G1 F900 X115.017 Y108.144 E94.39656
G0 F9000 X114.452 Y108.144
G1 F900 X110.149 Y112.447 E94.63997
G0 F9000 X110.149 Y111.881
G1 F900 X113.886 Y108.144 E94.85137
G0 F9000 X113.320 Y108.144
G1 F900 X110.149 Y111.316 E95.03078
G0 F9000 X110.149 Y110.750
G1 F900 X112.755 Y108.144 E95.17820
G0 F9000 X112.189 Y108.144
G1 F900 X110.149 Y110.184 E95.29360
G0 F9000 X110.149 Y109.619
G1 F900 X111.623 Y108.144 E95.37701
G0 F9000 X111.058 Y108.144
G1 F900 X110.149 Y109.053 E95.42843
G0 F9000 X110.149 Y108.487
G1 F900 X110.492 Y108.144 E95.44783
;LAYER:4
G0 F9000 X110.010 Y108.005 Z0.700
;TYPE:WALL-INNER
G1 F3600 X119.991 Y108.005 E95.84707
G1 X119.991 Y116.996 E96.20671
G1 X110.010 Y116.996 E96.60595
G1 X110.010 Y108.005 E96.96559
G0 F9000 X109.610 Y107.605
;TYPE:WALL-OUTER
G1 F1800 X120.391 Y107.605 E97.39683
G1 X120.391 Y117.396 E97.78847
G1 X109.610 Y117.396 E98.21971
G1 X109.610 Y107.605 E98.61135
G0 F9000 X110.148 Y108.168
;TYPE:SKIN
G1 F900 X118.835 Y116.855 E99.10276
G0 F9000 X118.269 Y116.855
G1 F900 X110.148 Y108.734 E99.56215
G0 F9000 X110.148 Y109.300
G1 F900 X117.704 Y116.855 E99.98956
G0 F9000 X117.138 Y116.855
G1 F900 X110.148 Y109.866 E100.38494
G0 F9000 X110.148 Y110.431
G1 F900 X116.572 Y116.855 E100.74834
G0 F9000 X116.007 Y116.855
G1 F900 X110.148 Y110.997 E101.07975
G0 F9000 X110.148 Y111.563
G1 F900 X115.441 Y116.855 E101.37914
G0 F9000 X114.875 Y116.855
G1 F900 X110.148 Y112.128 E101.64654
G0 F9000 X110.149 Y112.695
G1 F900 X114.309 Y116.855 E101.88186
G0 F9000 X113.743 Y116.855
G1 F900 X110.149 Y113.260 E102.08520
G0 F9000 X110.149 Y113.826
G1 F900 X113.178 Y116.855 E102.25654
G0 F9000 X112.612 Y116.855
G1 F900 X110.149 Y114.392 E102.39587
G0 F9000 X110.149 Y114.957
G1 F900 X112.046 Y116.855 E102.50321
G0 F9000 X111.481 Y116.855
G1 F900 X110.149 Y115.523 E102.57856
G0 F9000 X110.149 Y116.089
G1 F900 X110.915 Y116.855 E102.62189
G0 F9000 X110.349 Y116.855
G1 F900 X110.149 Y116.654 E102.63323
G0 F9000 X110.690 Y108.144
G1 F900 X119.401 Y116.855 E103.12600
G0 F9000 X119.850 Y116.739
G1 F900 X111.256 Y108.144 E103.61218
G0 F9000 X111.821 Y108.144
G1 F900 X119.850 Y116.173 E104.06637
G0 F9000 X119.850 Y115.607
G1 F900 X112.387 Y108.144 E104.48854
G0 F9000 X112.953 Y108.144
G1 F900 X119.850 Y115.042 E104.87872
G0 F9000 X119.850 Y114.476
G1 F900 X113.518 Y108.144 E105.23691
G0 F9000 X114.084 Y108.144
G1 F900 X119.850 Y113.910 E105.56309
G0 F9000 X119.850 Y113.344
G1 F900 X114.650 Y108.144 E105.85724
G0 F9000 X115.215 Y108.144
G1 F900 X119.850 Y112.779 E106.11944
G0 F9000 X119.850 Y112.213
G1 F900 X115.781 Y108.144 E106.34962
G0 F9000 X116.347 Y108.144
G1 F900 X119.850 Y111.647 E106.54778
G0 F9000 X119.850 Y111.082
G1 F900 X116.913 Y108.144 E106.71395
G0 F9000 X117.478 Y108.144
G1 F900 X119.850 Y110.516 E106.84813
G0 F9000 X119.850 Y109.950
G1 F900 X118.044 Y108.144 E106.95029
G0 F9000 X118.610 Y108.144
G1 F900 X119.850 Y109.385 E107.02046
G0 F9000 X119.850 Y108.819
G1 F900 X119.175 Y108.144 E107.05865
G0 F9000 X119.741 Y108.144
G1 F900 X119.850 Y108.253 E107.06481
;LAYER:5
G0 F9000 X119.991 Y108.005 Z0.800
;TYPE:WALL-INNER
G1 F3600 X119.991 Y116.996 E107.42445
G1 X110.010 Y116.996 E107.82369
G1 X110.010 Y108.005 E108.18333
G1 X119.991 Y108.005 E108.58257
G0 F9000 X120.391 Y107.605
;TYPE:WALL-OUTER
G1 F1800 X120.391 Y117.396 E108.97421
G1 X109.610 Y117.396 E109.40545
G1 X109.610 Y107.605 E109.79709
G1 X120.391 Y107.605 E110.22833
G0 F9000 X119.850 Y108.403
;TYPE:SKIN
G1 F900 X111.398 Y116.855 E110.70645
G0 F9000 X111.963 Y116.855
G1 F900 X119.850 Y108.969 E111.15258
G0 F9000 X119.850 Y109.535
G1 F900 X112.529 Y116.855 E111.56669
G0 F9000 X113.095 Y116.855
G1 F900 X119.850 Y110.100 E111.94881
G0 F9000 X119.850 Y110.666
G1 F900 X113.661 Y116.855 E112.29891
G0 F9000 X114.226 Y116.855
G1 F900 X119.850 Y111.232 E112.61702
G0 F9000 X119.850 Y111.797
G1 F900 X114.792 Y116.855 E112.90315
G0 F9000 X115.357 Y116.856
G1 F900 X119.850 Y112.363 E113.15731
G0 F9000 X119.850 Y112.929
G1 F900 X115.923 Y116.856 E113.37945
G0 F9000 X116.488 Y116.856
G1 F900 X119.850 Y113.494 E113.56964
G0 F9000 X119.850 Y114.060
G1 F900 X117.054 Y116.856 E113.72780
G0 F9000 X117.620 Y116.856
G1 F900 X119.850 Y114.626 E113.85395
G0 F9000 X119.850 Y115.191
G1 F900 X118.185 Y116.856 E113.94814
G0 F9000 X118.751 Y116.856
G1 F900 X119.850 Y115.757 E114.01031
G0 F9000 X119.850 Y116.323
G1 F900 X119.317 Y116.856 E114.04046
G0 F9000 X110.832 Y116.855
G1 F900 X119.543 Y108.144 E114.53323
G0 F9000 X118.977 Y108.144
G1 F900 X110.266 Y116.855 E115.02599
G0 F9000 X110.150 Y116.406
G1 F900 X118.412 Y108.144 E115.49336
G0 F9000 X117.846 Y108.144
G1 F900 X110.150 Y115.841 E115.92874
G0 F9000 X110.150 Y115.275
G1 F900 X117.280 Y108.144 E116.33211
G0 F9000 X116.715 Y108.144
G1 F900 X110.150 Y114.709 E116.70348
G0 F9000 X110.150 Y114.144
G1 F900 X116.149 Y108.144 E117.04286
G0 F9000 X115.583 Y108.144
G1 F900 X110.150 Y113.578 E117.35023
G0 F9000 X110.150 Y113.012
G1 F900 X115.017 Y108.144 E117.62557
G0 F9000 X114.452 Y108.144
G1 F900 X110.149 Y112.447 E117.86899
G0 F9000 X110.149 Y111.881
G1 F900 X113.886 Y108.144 E118.08038
G0 F9000 X113.320 Y108.144
G1 F900 X110.149 Y111.316 E118.25979
G0 F9000 X110.149 Y110.750
G1 F900 X112.755 Y108.144 E118.40721
G0 F9000 X112.189 Y108.144
G1 F900 X110.149 Y110.184 E118.52261
G0 F9000 X110.149 Y109.619
G1 F900 X111.623 Y108.144 E118.60602
G0 F9000 X111.058 Y108.144
G1 F900 X110.149 Y109.053 E118.65744
G0 F9000 X110.149 Y108.487
G1 F900 X110.492 Y108.144 E118.67684
;LAYER:6
G0 F9000 X110.973 Y108.144 Z0.900
;TYPE:FILL
G1 F2400 X119.684 Y116.855 E119.16961
G0 F9000 X117.902 Y116.856
G1 F2400 X119.850 Y114.909 E119.27978
G0 F9000 X119.850 Y111.365
G1 F2400 X116.630 Y108.144 E119.46196
G0 F9000 X115.300 Y108.144
G1 F2400 X110.150 Y113.295 E119.75331
G0 F9000 X110.149 Y112.977
G1 F2400 X114.026 Y116.855 E119.97266
G0 F9000 X112.246 Y116.855
G1 F2400 X119.850 Y109.252 E120.40278
G0 F9000 X119.991 Y108.005
;TYPE:WALL-INNER
G1 F1800 X119.991 Y116.996 E120.76242
G1 X110.010 Y116.996 E121.16166
G1 X110.010 Y108.005 E121.52130
G1 X119.991 Y108.005 E121.92054
G0 F9000 X120.391 Y107.605
;TYPE:WALL-OUTER
G1 F900 X120.391 Y117.396 E122.31218
G1 X109.610 Y117.396 E122.74342
G1 X109.610 Y107.605 E123.13506
