;FLAVOR:RepRap
;TIME:575
;Filament used: 0.112069m
;Layer height: 0.1
;MINX:-13.391
;MINY:-12.896
;MINZ:0.3
;MAXX:13.391
;MAXY:12.896
;MAXZ:8.8
;Generated with Cura_SteamEngine 4.7.1
T0
M190 S60
M104 S200
M109 S200
M82 ;absolute extrusion mode
G28 ;Home
G1 Z15.0 F6000 ;Move the platform down 15mm
;Prime the extruder
G92 E0
G1 F200 E3
G92 E0
M141 S28
M83 ;relative extrusion mode
G1 F1500 E-6.5
;LAYER_COUNT:86
;LAYER:0
M107
G1 F600 Z1.3
G0 F3600 X5.474 Y12.896 Z1.3
;TYPE:SKIRT
G1 F600 Z0.3
G1 F1500 E6.5
G1 F1800 X-5.474 Y12.896 E0.20594
G1 X-6.263 Y12.856 E0.01486
G1 X-7.043 Y12.737 E0.01484
G1 X-7.808 Y12.539 E0.01486
G1 X-8.548 Y12.265 E0.01484
G1 X-9.257 Y11.917 E0.01486
G1 X-9.928 Y11.499 E0.01487
G1 X-10.552 Y11.016 E0.01484
G1 X-10.989 Y10.611 E0.01121
G1 X-11.106 Y10.494 E0.00311
G1 X-11.636 Y9.908 E0.01486
G1 X-12.103 Y9.272 E0.01484
G1 X-12.504 Y8.592 E0.01485
G1 X-12.834 Y7.874 E0.01486
G1 X-13.089 Y7.127 E0.01485
G1 X-13.268 Y6.358 E0.01485
G1 X-13.368 Y5.574 E0.01487
G1 X-13.391 Y4.979 E0.0112
G1 X-13.391 Y-4.979 E0.18732
G1 X-13.351 Y-5.768 E0.01486
G1 X-13.232 Y-6.548 E0.01484
G1 X-13.034 Y-7.313 E0.01486
G1 X-12.76 Y-8.053 E0.01484
G1 X-12.412 Y-8.762 E0.01486
G1 X-11.994 Y-9.433 E0.01487
G1 X-11.511 Y-10.057 E0.01484
G1 X-11.106 Y-10.494 E0.01121
G1 X-10.989 Y-10.611 E0.00311
G1 X-10.403 Y-11.141 E0.01486
G1 X-9.767 Y-11.608 E0.01484
G1 X-9.087 Y-12.009 E0.01485
G1 X-8.369 Y-12.339 E0.01486
G1 X-7.622 Y-12.594 E0.01485
G1 X-6.853 Y-12.773 E0.01485
G1 X-6.069 Y-12.873 E0.01487
G1 X-5.474 Y-12.896 E0.0112
G1 X5.474 Y-12.896 E0.20594
G1 X6.263 Y-12.856 E0.01486
G1 X7.043 Y-12.737 E0.01484
G1 X7.808 Y-12.539 E0.01486
G1 X8.548 Y-12.265 E0.01484
G1 X9.257 Y-11.917 E0.01486
G1 X9.928 Y-11.499 E0.01487
G1 X10.552 Y-11.016 E0.01484
G1 X10.989 Y-10.611 E0.01121
G1 X11.106 Y-10.494 E0.00311
G1 X11.636 Y-9.908 E0.01486
G1 X12.103 Y-9.272 E0.01484
G1 X12.504 Y-8.592 E0.01485
G1 X12.834 Y-7.874 E0.01486
G1 X13.089 Y-7.127 E0.01485
G1 X13.268 Y-6.358 E0.01485
G1 X13.368 Y-5.574 E0.01487
G1 X13.391 Y-4.979 E0.0112
G1 X13.391 Y4.979 E0.18732
G1 X13.351 Y5.768 E0.01486
G1 X13.232 Y6.548 E0.01484
G1 X13.034 Y7.313 E0.01486
G1 X12.76 Y8.053 E0.01484
G1 X12.412 Y8.762 E0.01486
G1 X11.994 Y9.433 E0.01487
G1 X11.511 Y10.057 E0.01484
G1 X11.106 Y10.494 E0.01121
G1 X10.989 Y10.611 E0.00311
G1 X10.403 Y11.141 E0.01486
G1 X9.767 Y11.608 E0.01484
G1 X9.087 Y12.009 E0.01485
G1 X8.369 Y12.339 E0.01486
G1 X7.622 Y12.594 E0.01485
G1 X6.853 Y12.773 E0.01485
G1 X6.069 Y12.873 E0.01487
G1 X5.474 Y12.896 E0.0112
G0 F3600 X5.474 Y12.496
G1 F1800 X-5.474 Y12.496 E0.20594
G1 X-6.242 Y12.456 E0.01447
G1 X-7.002 Y12.337 E0.01447
G1 X-7.745 Y12.139 E0.01446
G1 X-8.464 Y11.865 E0.01447
G1 X-9.15 Y11.518 E0.01446
G1 X-9.797 Y11.102 E0.01447
G1 X-10.397 Y10.621 E0.01447
G1 X-10.824 Y10.212 E0.01112
G1 X-11.338 Y9.64 E0.01447
G1 X-11.791 Y9.018 E0.01447
G1 X-12.177 Y8.353 E0.01446
G1 X-12.492 Y7.651 E0.01447
G1 X-12.732 Y6.92 E0.01447
G1 X-12.895 Y6.169 E0.01446
G1 X-12.979 Y5.404 E0.01448
G1 X-12.991 Y4.979 E0.008
G1 X-12.991 Y-4.979 E0.18732
G1 X-12.951 Y-5.747 E0.01447
G1 X-12.832 Y-6.507 E0.01447
G1 X-12.634 Y-7.25 E0.01446
G1 X-12.36 Y-7.969 E0.01447
G1 X-12.013 Y-8.655 E0.01446
G1 X-11.597 Y-9.302 E0.01447
G1 X-11.116 Y-9.902 E0.01447
G1 X-10.707 Y-10.329 E0.01112
G1 X-10.135 Y-10.843 E0.01447
G1 X-9.513 Y-11.296 E0.01447
G1 X-8.848 Y-11.682 E0.01446
G1 X-8.146 Y-11.997 E0.01447
G1 X-7.415 Y-12.237 E0.01447
G1 X-6.664 Y-12.4 E0.01446
G1 X-5.899 Y-12.484 E0.01448
G1 X-5.474 Y-12.496 E0.008
G1 X5.474 Y-12.496 E0.20594
G1 X6.242 Y-12.456 E0.01447
G1 X7.002 Y-12.337 E0.01447
G1 X7.745 Y-12.139 E0.01446
G1 X8.464 Y-11.865 E0.01447
G1 X9.15 Y-11.518 E0.01446
G1 X9.797 Y-11.102 E0.01447
G1 X10.397 Y-10.621 E0.01447
G1 X10.824 Y-10.212 E0.01112
G1 X11.338 Y-9.64 E0.01447
G1 X11.791 Y-9.018 E0.01447
G1 X12.177 Y-8.353 E0.01446
G1 X12.492 Y-7.651 E0.01447
G1 X12.732 Y-6.92 E0.01447
G1 X12.895 Y-6.169 E0.01446
G1 X12.979 Y-5.404 E0.01448
G1 X12.991 Y-4.979 E0.008
G1 X12.991 Y4.979 E0.18732
G1 X12.951 Y5.747 E0.01447
G1 X12.832 Y6.507 E0.01447
G1 X12.634 Y7.25 E0.01446
G1 X12.36 Y7.969 E0.01447
G1 X12.013 Y8.655 E0.01446
G1 X11.597 Y9.302 E0.01447
G1 X11.116 Y9.902 E0.01447
G1 X10.707 Y10.329 E0.01112
G1 X10.135 Y10.843 E0.01447
G1 X9.513 Y11.296 E0.01447
G1 X8.848 Y11.682 E0.01446
G1 X8.146 Y11.997 E0.01447
G1 X7.415 Y12.237 E0.01447
G1 X6.664 Y12.4 E0.01446
G1 X5.899 Y12.484 E0.01448
G1 X5.474 Y12.496 E0.008
G0 F3600 X5.474 Y12.096
G1 F1800 X-5.474 Y12.096 E0.20594
G1 X-6.221 Y12.056 E0.01407
G1 X-6.959 Y11.937 E0.01406
G1 X-7.681 Y11.739 E0.01408
G1 X-8.377 Y11.466 E0.01406
G1 X-9.04 Y11.119 E0.01408
G1 X-9.663 Y10.704 E0.01408
G1 X-10.424 Y10.046 E0.01892
G1 X-10.541 Y9.929 E0.00311
G1 X-11.041 Y9.372 E0.01408
G1 X-11.478 Y8.766 E0.01405
G1 X-11.849 Y8.116 E0.01408
G1 X-12.148 Y7.43 E0.01408
G1 X-12.372 Y6.716 E0.01408
G1 X-12.519 Y5.983 E0.01406
G1 X-12.591 Y4.979 E0.01893
G1 X-12.591 Y-4.979 E0.18732
G1 X-12.551 Y-5.726 E0.01407
G1 X-12.432 Y-6.464 E0.01406
G1 X-12.234 Y-7.186 E0.01408
G1 X-11.961 Y-7.882 E0.01406
G1 X-11.614 Y-8.545 E0.01408
G1 X-11.199 Y-9.168 E0.01408
G1 X-10.541 Y-9.929 E0.01892
G1 X-10.424 Y-10.046 E0.00311
G1 X-9.867 Y-10.546 E0.01408
G1 X-9.261 Y-10.983 E0.01405
G1 X-8.611 Y-11.354 E0.01408
G1 X-7.925 Y-11.653 E0.01408
G1 X-7.211 Y-11.877 E0.01408
G1 X-6.478 Y-12.024 E0.01406
G1 X-5.474 Y-12.096 E0.01893
G1 X5.474 Y-12.096 E0.20594
G1 X6.221 Y-12.056 E0.01407
G1 X6.959 Y-11.937 E0.01406
G1 X7.681 Y-11.739 E0.01408
G1 X8.377 Y-11.466 E0.01406
G1 X9.04 Y-11.119 E0.01408
G1 X9.663 Y-10.704 E0.01408
G1 X10.424 Y-10.046 E0.01892
G1 X10.541 Y-9.929 E0.00311
G1 X11.041 Y-9.372 E0.01408
G1 X11.478 Y-8.766 E0.01405
G1 X11.849 Y-8.116 E0.01408
G1 X12.148 Y-7.43 E0.01408
G1 X12.372 Y-6.716 E0.01408
G1 X12.519 Y-5.983 E0.01406
G1 X12.591 Y-4.979 E0.01893
G1 X12.591 Y4.979 E0.18732
G1 X12.551 Y5.726 E0.01407
G1 X12.432 Y6.464 E0.01406
G1 X12.234 Y7.186 E0.01408
G1 X11.961 Y7.882 E0.01406
G1 X11.614 Y8.545 E0.01408
G1 X11.199 Y9.168 E0.01408
G1 X10.541 Y9.929 E0.01892
G1 X10.424 Y10.046 E0.00311
G1 X9.867 Y10.546 E0.01408
G1 X9.261 Y10.983 E0.01405
G1 X8.611 Y11.354 E0.01408
G1 X7.925 Y11.653 E0.01408
G1 X7.211 Y11.877 E0.01408
G1 X6.478 Y12.024 E0.01406
G1 X5.474 Y12.096 E0.01893
G0 F3600 X5.474 Y11.696
G1 F1800 X-5.474 Y11.696 E0.20594
G1 X-6.199 Y11.656 E0.01366
G1 X-6.916 Y11.537 E0.01367
G1 X-7.615 Y11.339 E0.01367
G1 X-8.288 Y11.066 E0.01366
G1 X-8.927 Y10.721 E0.01366
G1 X-9.524 Y10.307 E0.01367
G1 X-10.141 Y9.763 E0.01547
G1 X-10.258 Y9.646 E0.00311
G1 X-10.742 Y9.105 E0.01365
G1 X-11.165 Y8.514 E0.01367
G1 X-11.519 Y7.88 E0.01366
G1 X-11.802 Y7.211 E0.01366
G1 X-12.01 Y6.515 E0.01366
G1 X-12.14 Y5.8 E0.01367
G1 X-12.191 Y4.979 E0.01547
G1 X-12.191 Y-4.979 E0.18732
G1 X-12.151 Y-5.704 E0.01366
G1 X-12.032 Y-6.421 E0.01367
G1 X-11.834 Y-7.12 E0.01367
G1 X-11.561 Y-7.793 E0.01366
G1 X-11.216 Y-8.432 E0.01366
G1 X-10.802 Y-9.029 E0.01367
G1 X-10.258 Y-9.646 E0.01547
G1 X-10.141 Y-9.763 E0.00311
G1 X-9.6 Y-10.247 E0.01365
G1 X-9.009 Y-10.67 E0.01367
G1 X-8.375 Y-11.024 E0.01366
G1 X-7.706 Y-11.307 E0.01366
G1 X-7.01 Y-11.515 E0.01366
G1 X-6.295 Y-11.645 E0.01367
G1 X-5.474 Y-11.696 E0.01547
G1 X5.474 Y-11.696 E0.20594
G1 X6.199 Y-11.656 E0.01366
G1 X6.916 Y-11.537 E0.01367
G1 X7.615 Y-11.339 E0.01367
G1 X8.288 Y-11.066 E0.01366
G1 X8.927 Y-10.721 E0.01366
G1 X9.524 Y-10.307 E0.01367
G1 X10.141 Y-9.763 E0.01547
G1 X10.258 Y-9.646 E0.00311
G1 X10.742 Y-9.105 E0.01365
G1 X11.165 Y-8.514 E0.01367
G1 X11.519 Y-7.88 E0.01366
G1 X11.802 Y-7.211 E0.01366
G1 X12.01 Y-6.515 E0.01366
G1 X12.14 Y-5.8 E0.01367
G1 X12.191 Y-4.979 E0.01547
G1 X12.191 Y4.979 E0.18732
G1 X12.151 Y5.704 E0.01366
G1 X12.032 Y6.421 E0.01367
G1 X11.834 Y7.12 E0.01367
G1 X11.561 Y7.793 E0.01366
G1 X11.216 Y8.432 E0.01366
G1 X10.802 Y9.029 E0.01367
G1 X10.258 Y9.646 E0.01547
G1 X10.141 Y9.763 E0.00311
G1 X9.6 Y10.247 E0.01365
G1 X9.009 Y10.67 E0.01367
G1 X8.375 Y11.024 E0.01366
G1 X7.706 Y11.307 E0.01366
G1 X7.01 Y11.515 E0.01366
G1 X6.295 Y11.645 E0.01367
G1 X5.474 Y11.696 E0.01547
G0 F3600 X5.474 Y11.296
G1 F1800 X-5.474 Y11.296 E0.20594
G1 X-6.177 Y11.256 E0.01325
G1 X-6.871 Y11.137 E0.01325
G1 X-7.546 Y10.939 E0.01323
G1 X-8.195 Y10.667 E0.01324
G1 X-8.809 Y10.322 E0.01325
G1 X-9.38 Y9.911 E0.01323
G1 X-9.858 Y9.48 E0.01211
G1 X-9.975 Y9.363 E0.00311
G1 X-10.444 Y8.838 E0.01324
G1 X-10.85 Y8.263 E0.01324
G1 X-11.188 Y7.645 E0.01325
G1 X-11.455 Y6.994 E0.01324
G1 X-11.645 Y6.316 E0.01324
G1 X-11.758 Y5.621 E0.01325
G1 X-11.791 Y4.979 E0.01209
G1 X-11.791 Y-4.979 E0.18732
G1 X-11.751 Y-5.682 E0.01325
G1 X-11.632 Y-6.376 E0.01325
G1 X-11.434 Y-7.051 E0.01323
G1 X-11.162 Y-7.7 E0.01324
G1 X-10.817 Y-8.314 E0.01325
G1 X-10.406 Y-8.885 E0.01323
G1 X-9.975 Y-9.363 E0.01211
G1 X-9.858 Y-9.48 E0.00311
G1 X-9.333 Y-9.949 E0.01324
G1 X-8.758 Y-10.355 E0.01324
G1 X-8.14 Y-10.693 E0.01325
G1 X-7.489 Y-10.96 E0.01324
G1 X-6.811 Y-11.15 E0.01324
G1 X-6.116 Y-11.263 E0.01325
G1 X-5.474 Y-11.296 E0.01209
G1 X5.474 Y-11.296 E0.20594
G1 X6.177 Y-11.256 E0.01325
G1 X6.871 Y-11.137 E0.01325
G1 X7.546 Y-10.939 E0.01323
G1 X8.195 Y-10.667 E0.01324
G1 X8.809 Y-10.322 E0.01325
G1 X9.38 Y-9.911 E0.01323
G1 X9.858 Y-9.48 E0.01211
G1 X9.975 Y-9.363 E0.00311
G1 X10.444 Y-8.838 E0.01324
G1 X10.85 Y-8.263 E0.01324
G1 X11.188 Y-7.645 E0.01325
G1 X11.455 Y-6.994 E0.01324
G1 X11.645 Y-6.316 E0.01324
G1 X11.758 Y-5.621 E0.01325
G1 X11.791 Y-4.979 E0.01209
G1 X11.791 Y4.979 E0.18732
G1 X11.751 Y5.682 E0.01325
G1 X11.632 Y6.376 E0.01325
G1 X11.434 Y7.051 E0.01323
G1 X11.162 Y7.7 E0.01324
G1 X10.817 Y8.314 E0.01325
G1 X10.406 Y8.885 E0.01323
G1 X9.975 Y9.363 E0.01211
G1 X9.858 Y9.48 E0.00311
G1 X9.333 Y9.949 E0.01324
G1 X8.758 Y10.355 E0.01324
G1 X8.14 Y10.693 E0.01325
G1 X7.489 Y10.96 E0.01324
G1 X6.811 Y11.15 E0.01324
G1 X6.116 Y11.263 E0.01325
G1 X5.474 Y11.296 E0.01209
G0 F3600 X5.474 Y10.896
G1 F1800 X-5.474 Y10.896 E0.20594
G1 X-6.154 Y10.856 E0.01281
G1 X-6.824 Y10.737 E0.0128
G1 X-7.476 Y10.54 E0.01281
G1 X-8.1 Y10.268 E0.0128
G1 X-8.688 Y9.924 E0.01281
G1 X-9.232 Y9.514 E0.01281
G1 X-9.692 Y9.08 E0.0119
G1 X-10.145 Y8.571 E0.01282
G1 X-10.534 Y8.013 E0.0128
G1 X-10.856 Y7.413 E0.01281
G1 X-11.105 Y6.779 E0.01281
G1 X-11.278 Y6.12 E0.01282
G1 X-11.372 Y5.446 E0.0128
G1 X-11.391 Y4.979 E0.00879
G1 X-11.391 Y-4.979 E0.18732
G1 X-11.351 Y-5.659 E0.01281
G1 X-11.232 Y-6.329 E0.0128
G1 X-11.035 Y-6.981 E0.01281
G1 X-10.763 Y-7.605 E0.0128
G1 X-10.419 Y-8.193 E0.01281
G1 X-10.009 Y-8.737 E0.01281
G1 X-9.575 Y-9.197 E0.0119
G1 X-9.066 Y-9.65 E0.01282
G1 X-8.508 Y-10.039 E0.0128
G1 X-7.908 Y-10.361 E0.01281
G1 X-7.274 Y-10.61 E0.01281
G1 X-6.615 Y-10.783 E0.01282
G1 X-5.941 Y-10.877 E0.0128
G1 X-5.474 Y-10.896 E0.00879
G1 X5.474 Y-10.896 E0.20594
G1 X6.154 Y-10.856 E0.01281
G1 X6.824 Y-10.737 E0.0128
G1 X7.476 Y-10.54 E0.01281
G1 X8.1 Y-10.268 E0.0128
G1 X8.688 Y-9.924 E0.01281
G1 X9.232 Y-9.514 E0.01281
G1 X9.692 Y-9.08 E0.0119
G1 X10.145 Y-8.571 E0.01282
G1 X10.534 Y-8.013 E0.0128
G1 X10.856 Y-7.413 E0.01281
G1 X11.105 Y-6.779 E0.01281
G1 X11.278 Y-6.12 E0.01282
G1 X11.372 Y-5.446 E0.0128
G1 X11.391 Y-4.979 E0.00879
G1 X11.391 Y4.979 E0.18732
G1 X11.351 Y5.659 E0.01281
G1 X11.232 Y6.329 E0.0128
G1 X11.035 Y6.981 E0.01281
G1 X10.763 Y7.605 E0.0128
G1 X10.419 Y8.193 E0.01281
G1 X10.009 Y8.737 E0.01281
G1 X9.575 Y9.197 E0.0119
G1 X9.066 Y9.65 E0.01282
G1 X8.508 Y10.039 E0.0128
G1 X7.908 Y10.361 E0.01281
G1 X7.274 Y10.61 E0.01281
G1 X6.615 Y10.783 E0.01282
G1 X5.941 Y10.877 E0.0128
G1 X5.474 Y10.896 E0.00879
G0 F3600 X5.474 Y10.496
G1 F1800 X-5.474 Y10.496 E0.20594
G1 X-6.13 Y10.456 E0.01236
G1 X-6.776 Y10.337 E0.01236
G1 X-7.403 Y10.14 E0.01236
G1 X-8.001 Y9.868 E0.01236
G1 X-8.562 Y9.526 E0.01236
G1 X-9.292 Y8.914 E0.01792
G1 X-9.409 Y8.797 E0.00311
G1 X-9.845 Y8.305 E0.01237
G1 X-10.217 Y7.764 E0.01235
G1 X-10.521 Y7.182 E0.01235
G1 X-10.752 Y6.567 E0.01236
G1 X-10.907 Y5.928 E0.01237
G1 X-10.991 Y4.979 E0.01792
G1 X-10.991 Y-4.979 E0.18732
G1 X-10.951 Y-5.635 E0.01236
G1 X-10.832 Y-6.281 E0.01236
G1 X-10.635 Y-6.908 E0.01236
G1 X-10.363 Y-7.506 E0.01236
G1 X-10.021 Y-8.067 E0.01236
G1 X-9.409 Y-8.797 E0.01792
G1 X-9.292 Y-8.914 E0.00311
G1 X-8.8 Y-9.35 E0.01237
G1 X-8.259 Y-9.722 E0.01235
G1 X-7.677 Y-10.026 E0.01235
G1 X-7.062 Y-10.257 E0.01236
G1 X-6.423 Y-10.412 E0.01237
G1 X-5.474 Y-10.496 E0.01792
G1 X5.474 Y-10.496 E0.20594
G1 X6.13 Y-10.456 E0.01236
G1 X6.776 Y-10.337 E0.01236
G1 X7.403 Y-10.14 E0.01236
G1 X8.001 Y-9.868 E0.01236
G1 X8.562 Y-9.526 E0.01236
G1 X9.292 Y-8.914 E0.01792
G1 X9.409 Y-8.797 E0.00311
G1 X9.845 Y-8.305 E0.01237
G1 X10.217 Y-7.764 E0.01235
G1 X10.521 Y-7.182 E0.01235
G1 X10.752 Y-6.567 E0.01236
G1 X10.907 Y-5.928 E0.01237
G1 X10.991 Y-4.979 E0.01792
G1 X10.991 Y4.979 E0.18732
G1 X10.951 Y5.635 E0.01236
G1 X10.832 Y6.281 E0.01236
G1 X10.635 Y6.908 E0.01236
G1 X10.363 Y7.506 E0.01236
G1 X10.021 Y8.067 E0.01236
G1 X9.409 Y8.797 E0.01792
G1 X9.292 Y8.914 E0.00311
G1 X8.8 Y9.35 E0.01237
G1 X8.259 Y9.722 E0.01235
G1 X7.677 Y10.026 E0.01235
G1 X7.062 Y10.257 E0.01236
G1 X6.423 Y10.412 E0.01237
G1 X5.474 Y10.496 E0.01792
G0 F3600 X5.474 Y10.096
G1 F1800 X-5.474 Y10.096 E0.20594
G1 X-6.105 Y10.056 E0.01189
G1 X-6.726 Y9.937 E0.01189
G1 X-7.326 Y9.74 E0.01188
G1 X-7.898 Y9.469 E0.01191
G1 X-8.43 Y9.129 E0.01188
G1 X-9.01 Y8.632 E0.01437
G1 X-9.127 Y8.515 E0.00311
G1 X-9.544 Y8.04 E0.01189
G1 X-9.899 Y7.517 E0.01189
G1 X-10.185 Y6.953 E0.0119
G1 X-10.397 Y6.358 E0.01188
G1 X-10.533 Y5.74 E0.0119
G1 X-10.591 Y4.979 E0.01436
G1 X-10.591 Y-4.979 E0.18732
G1 X-10.551 Y-5.61 E0.01189
G1 X-10.432 Y-6.231 E0.01189
G1 X-10.235 Y-6.831 E0.01188
G1 X-9.964 Y-7.403 E0.01191
G1 X-9.624 Y-7.935 E0.01188
G1 X-9.127 Y-8.515 E0.01437
G1 X-9.01 Y-8.632 E0.00311
G1 X-8.535 Y-9.049 E0.01189
G1 X-8.012 Y-9.404 E0.01189
G1 X-7.448 Y-9.69 E0.0119
G1 X-6.853 Y-9.902 E0.01188
G1 X-6.235 Y-10.038 E0.0119
G1 X-5.474 Y-10.096 E0.01436
G1 X5.474 Y-10.096 E0.20594
G1 X6.105 Y-10.056 E0.01189
G1 X6.726 Y-9.937 E0.01189
G1 X7.326 Y-9.74 E0.01188
G1 X7.898 Y-9.469 E0.01191
G1 X8.43 Y-9.129 E0.01188
G1 X9.01 Y-8.632 E0.01437
G1 X9.127 Y-8.515 E0.00311
G1 X9.544 Y-8.04 E0.01189
G1 X9.899 Y-7.517 E0.01189
G1 X10.185 Y-6.953 E0.0119
G1 X10.397 Y-6.358 E0.01188
G1 X10.533 Y-5.74 E0.0119
G1 X10.591 Y-4.979 E0.01436
G1 X10.591 Y4.979 E0.18732
G1 X10.551 Y5.61 E0.01189
G1 X10.432 Y6.231 E0.01189
G1 X10.235 Y6.831 E0.01188
G1 X9.964 Y7.403 E0.01191
G1 X9.624 Y7.935 E0.01188
G1 X9.127 Y8.515 E0.01437
G1 X9.01 Y8.632 E0.00311
G1 X8.535 Y9.049 E0.01189
G1 X8.012 Y9.404 E0.01189
G1 X7.448 Y9.69 E0.0119
G1 X6.853 Y9.902 E0.01188
G1 X6.235 Y10.038 E0.0119
G1 X5.474 Y10.096 E0.01436
G0 F3600 X5.474 Y9.696
G1 F1800 X-5.474 Y9.696 E0.20594
G1 X-6.079 Y9.656 E0.01141
G1 X-6.673 Y9.537 E0.0114
G1 X-7.247 Y9.341 E0.01141
G1 X-7.79 Y9.07 E0.01142
G1 X-8.293 Y8.731 E0.01141
G1 X-8.727 Y8.349 E0.01088
G1 X-8.844 Y8.232 E0.00311
G1 X-9.243 Y7.776 E0.0114
G1 X-9.579 Y7.271 E0.01141
G1 X-9.846 Y6.727 E0.0114
G1 X-10.039 Y6.152 E0.01141
G1 X-10.155 Y5.557 E0.0114
G1 X-10.191 Y4.979 E0.01089
G1 X-10.191 Y-4.979 E0.18732
G1 X-10.151 Y-5.584 E0.01141
G1 X-10.032 Y-6.178 E0.0114
G1 X-9.836 Y-6.752 E0.01141
G1 X-9.565 Y-7.295 E0.01142
G1 X-9.226 Y-7.798 E0.01141
G1 X-8.844 Y-8.232 E0.01088
G1 X-8.727 Y-8.349 E0.00311
G1 X-8.271 Y-8.748 E0.0114
G1 X-7.766 Y-9.084 E0.01141
G1 X-7.222 Y-9.351 E0.0114
G1 X-6.647 Y-9.544 E0.01141
G1 X-6.052 Y-9.66 E0.0114
G1 X-5.474 Y-9.696 E0.01089
G1 X5.474 Y-9.696 E0.20594
G1 X6.079 Y-9.656 E0.01141
G1 X6.673 Y-9.537 E0.0114
G1 X7.247 Y-9.341 E0.01141
G1 X7.79 Y-9.07 E0.01142
G1 X8.293 Y-8.731 E0.01141
G1 X8.727 Y-8.349 E0.01088
G1 X8.844 Y-8.232 E0.00311
G1 X9.243 Y-7.776 E0.0114
G1 X9.579 Y-7.271 E0.01141
G1 X9.846 Y-6.727 E0.0114
G1 X10.039 Y-6.152 E0.01141
G1 X10.155 Y-5.557 E0.0114
G1 X10.191 Y-4.979 E0.01089
G1 X10.191 Y4.979 E0.18732
G1 X10.151 Y5.584 E0.01141
G1 X10.032 Y6.178 E0.0114
G1 X9.836 Y6.752 E0.01141
G1 X9.565 Y7.295 E0.01142
G1 X9.226 Y7.798 E0.01141
