;FLAVOR:UltiGCode
;TIME:2082
;MATERIAL:1642
;MATERIAL2:0
;NOZZLE_DIAMETER:0.4
;MINX:-35.533
;MINY:-19.148
;MINZ:0.3
;MAXX:35.521
;MAXY:19.148
;MAXZ:5.5
;Generated with Cura_SteamEngine 4.7.1
M82 ;absolute extrusion mode
G28 ;Home
G1 Z15.0 F6000 ;Move the platform down 15mm
;Prime the extruder
G92 E0
G1 F200 E3
G92 E0
G92 E0
G92 E0
G10
;LAYER_COUNT:43
;LAYER:0
M107
G1 F600 Z1.3
G0 F3600 X-2.153 Y13.289 Z1.3
;TYPE:SKIRT
G1 F600 Z0.3
G11
G1 F1800 X-2.295 Y13.361 E0.01911
G1 X-2.43 Y13.698 E0.06267
G1 X-2.846 Y14.479 E0.16886
G1 X-3.084 Y14.871 E0.22389
G1 X-3.527 Y15.524 E0.31858
G1 X-4.034 Y16.13 E0.41339
G1 X-4.642 Y16.717 E0.51481
G1 X-4.995 Y17.023 E0.57087
G1 X-5.617 Y17.509 E0.66559
G1 X-6.285 Y17.93 E0.76034
G1 X-7.102 Y18.328 E0.86939
G1 X-7.524 Y18.504 E0.92426
G1 X-8.267 Y18.771 E1.019
G1 X-9.033 Y18.961 E1.11371
G1 X-9.767 Y19.068 E1.20272
G1 X-10.207 Y19.111 E1.25577
G1 X-10.969 Y19.148 E1.34732
G1 X-13.761 Y19.147 E1.68236
G1 X-14.549 Y19.107 E1.77704
G1 X-15.097 Y19.031 E1.84343
G1 X-15.556 Y18.951 E1.89934
G1 X-16.326 Y18.776 E1.9941
G1 X-17.075 Y18.525 E2.08889
G1 X-17.854 Y18.167 E2.19177
G1 X-18.12 Y18.027 E2.22784
G1 X-18.474 Y18.224 E2.27646
G1 X-19.198 Y18.537 E2.37111
G1 X-20.017 Y18.793 E2.47408
G1 X-20.456 Y18.904 E2.52841
G1 X-21.23 Y19.059 E2.62314
G1 X-22.165 Y19.139 E2.73575
G1 X-22.602 Y19.148 E2.7882
G1 X-25.388 Y19.147 E3.12252
G1 X-26.176 Y19.107 E3.2172
G1 X-26.721 Y19.032 E3.28322
G1 X-27.181 Y18.952 E3.33925
G1 X-27.952 Y18.777 E3.43412
G1 X-28.7 Y18.526 E3.5288
G1 X-29.475 Y18.171 E3.63109
G1 X-29.882 Y17.957 E3.68627
G1 X-30.561 Y17.554 E3.78102
G1 X-31.197 Y17.085 E3.87585
G1 X-31.836 Y16.499 E3.97989
G1 X-32.152 Y16.175 E4.0342
G1 X-32.674 Y15.583 E4.12891
G1 X-33.133 Y14.94 E4.22371
G1 X-33.558 Y14.19 E4.32716
G1 X-33.761 Y13.78 E4.38206
G1 X-34.075 Y13.055 E4.47687
G1 X-34.314 Y12.303 E4.57156
G1 X-34.486 Y11.467 E4.67398
G1 X-34.554 Y11.01 E4.72942
G1 X-34.631 Y10.224 E4.82419
G1 X-34.627 Y9.434 E4.919
G1 X-34.529 Y8.555 E5.02513
G1 X-34.452 Y8.102 E5.08027
G1 X-34.28 Y7.331 E5.17506
G1 X-34.032 Y6.582 E5.26974
G1 X-33.7 Y5.828 E5.3686
G1 X-33.261 Y5.009 E5.48011
G1 X-30.581 Y0.654 E6.09374
G1 X-34.112 Y-4.935 E6.88706
G1 X-34.5 Y-5.623 E6.98184
G1 X-34.713 Y-6.089 E7.04332
G1 X-34.893 Y-6.519 E7.09926
G1 X-35.161 Y-7.262 E7.19405
G1 X-35.352 Y-8.028 E7.28878
G1 X-35.473 Y-8.907 E7.39525
G1 X-35.51 Y-9.368 E7.45075
G1 X-35.533 Y-10.157 E7.54547
G1 X-35.477 Y-10.945 E7.64027
G1 X-35.326 Y-11.787 E7.74292
G1 X-35.221 Y-12.231 E7.79767
G1 X-35 Y-12.989 E7.89242
G1 X-34.704 Y-13.722 E7.98728
G1 X-34.278 Y-14.516 E8.09541
G1 X-34.038 Y-14.907 E8.15046
G1 X-33.591 Y-15.559 E8.24532
G1 X-33.081 Y-16.161 E8.34
G1 X-32.463 Y-16.752 E8.44262
G1 X-32.108 Y-17.056 E8.4987
G1 X-31.483 Y-17.538 E8.59341
G1 X-30.813 Y-17.955 E8.68811
G1 X-30.035 Y-18.331 E8.7918
G1 X-29.615 Y-18.506 E8.8464
G1 X-28.872 Y-18.772 E8.94111
G1 X-28.105 Y-18.962 E9.03593
G1 X-27.363 Y-19.07 E9.12591
G1 X-26.927 Y-19.112 E9.17847
G1 X-26.179 Y-19.148 E9.26833
G1 X-23.391 Y-19.148 E9.60289
G1 X-22.63 Y-19.111 E9.69432
G1 X-21.724 Y-18.97 E9.80435
G1 X-21.159 Y-18.848 E9.87371
G1 X-20.396 Y-18.643 E9.96852
G1 X-19.658 Y-18.361 E10.06332
G1 X-18.953 Y-18.006 E10.15804
G1 X-18.356 Y-17.636 E10.24233
G1 X-18.101 Y-17.799 E10.27864
G1 X-17.415 Y-18.19 E10.3734
G1 X-16.693 Y-18.509 E10.46812
G1 X-15.886 Y-18.769 E10.56986
G1 X-15.452 Y-18.883 E10.62371
G1 X-14.679 Y-19.045 E10.71848
G1 X-13.754 Y-19.134 E10.82999
G1 X-13.22 Y-19.148 E10.8941
G1 X-10.434 Y-19.147 E11.22842
G1 X-9.646 Y-19.107 E11.3231
G1 X-9.101 Y-19.032 E11.38911
G1 X-8.641 Y-18.952 E11.44514
G1 X-7.87 Y-18.777 E11.54002
G1 X-7.122 Y-18.526 E11.63469
G1 X-6.584 Y-18.572 E11.69949
G1 X-5.959 Y-18.597 E11.77455
G1 X-4.507 Y-18.596 E11.94879
G1 X-3.718 Y-18.555 E12.0436
G1 X-3.124 Y-18.471 E12.11559
G1 X-2.386 Y-18.319 E12.20601
G1 X-2.336 Y-18.334 E12.21227
G1 X-1.562 Y-18.489 E12.30699
G1 X-.793 Y-18.569 E12.39977
G1 X-.132 Y-18.597 E12.47916
G1 X1.7 Y-18.596 E12.699
G1 X2.48 Y-18.556 E12.79273
G1 X3.189 Y-18.597 E12.87795
G1 X5.164 Y-18.596 E13.11495
G1 X5.953 Y-18.556 E13.20975
G1 X6.548 Y-18.471 E13.28187
G1 X6.924 Y-18.403 E13.32773
G1 X7.693 Y-18.224 E13.42247
G1 X8.44 Y-17.967 E13.51727
G1 X9.138 Y-17.645 E13.60951
G1 X9.246 Y-17.703 E13.62422
G1 X10.01 Y-18.017 E13.72335
G1 X10.365 Y-18.141 E13.76847
G1 X11.123 Y-18.363 E13.86325
G1 X11.899 Y-18.508 E13.95798
G1 X12.605 Y-18.574 E14.04307
G1 X13.203 Y-18.597 E14.11488
G1 X14.998 Y-18.596 E14.33028
G1 X15.787 Y-18.556 E14.42509
G1 X16.15 Y-18.504 E14.46909
G1 X16.547 Y-18.576 E14.51751
G1 X17.073 Y-18.652 E14.58128
G1 X17.514 Y-18.703 E14.63456
G1 X18.067 Y-18.751 E14.70117
G1 X18.425 Y-18.774 E14.74421
G1 X18.993 Y-18.797 E14.81243
G1 X19.612 Y-18.804 E14.88671
G1 X19.859 Y-18.801 E14.91636
G1 X20.454 Y-18.784 E14.98779
G1 X20.933 Y-18.755 E15.04537
G1 X21.575 Y-18.697 E15.12273
G1 X22.09 Y-18.634 E15.18499
G1 X22.262 Y-18.607 E15.20588
G1 X22.783 Y-18.52 E15.26926
G1 X23.492 Y-18.375 E15.35611
G1 X23.987 Y-18.252 E15.41731
G1 X24.526 Y-18.097 E15.48461
G1 X25.096 Y-17.911 E15.55656
G1 X25.763 Y-17.659 E15.64212
G1 X26.313 Y-17.422 E15.71399
G1 X26.977 Y-17.098 E15.80265
G1 X27.502 Y-16.81 E15.87451
G1 X28.106 Y-16.442 E15.95938
G1 X28.586 Y-16.119 E16.02881
G1 X29.284 Y-15.59 E16.13391
G1 X29.732 Y-15.209 E16.20448
G1 X30.391 Y-14.579 E16.31388
G1 X30.803 Y-14.136 E16.38648
G1 X31.43 Y-13.369 E16.50536
G1 X31.777 Y-12.885 E16.57682
G1 X32.309 Y-12.031 E16.69756
G1 X32.598 Y-11.493 E16.77085
G1 X32.99 Y-10.646 E16.88284
G1 X33.214 Y-10.074 E16.95656
G1 X33.495 Y-9.211 E17.06547
G1 X33.651 Y-8.617 E17.13917
G1 X33.82 Y-7.8 E17.23928
G1 X33.916 Y-7.164 E17.31647
G1 X33.976 Y-6.656 E17.37785
G1 X34.008 Y-6.205 E17.43211
G1 X34.03 Y-5.678 E17.4954
G1 X34.032 Y-5.062 E17.56932
G1 X34.008 Y-4.42 E17.64642
G1 X33.922 Y-3.524 E17.75443
G1 X33.831 Y-2.933 E17.82619
G1 X33.622 Y-1.977 E17.94362
G1 X33.519 Y-1.615 E17.98878
G1 X33.76 Y-1.225 E18.04379
G1 X34.046 Y-.649 E18.12097
G1 X34.753 Y0.932 E18.32879
G1 X35.039 Y1.668 E18.42355
G1 X35.181 Y2.15 E18.48384
G1 X35.28 Y2.53 E18.53097
G1 X35.44 Y3.303 E18.62569
G1 X35.521 Y4.088 E18.72039
G1 X35.516 Y4.992 E18.82887
G1 X35.492 Y5.369 E18.8742
G1 X35.402 Y6.153 E18.9689
G1 X35.233 Y6.925 E19.06374
G1 X34.952 Y7.766 E19.17014
G1 X34.813 Y8.114 E19.21511
G1 X34.483 Y8.832 E19.30993
G1 X34.082 Y9.512 E19.40466
G1 X33.561 Y10.214 E19.50957
G1 X33.316 Y10.508 E19.55549
G1 X32.781 Y11.089 E19.65027
G1 X32.189 Y11.612 E19.74506
G1 X31.371 Y12.183 E19.86477
G1 X30.936 Y12.447 E19.92583
G1 X30.122 Y12.877 E20.0363
G1 X29.639 Y13.097 E20.09999
G1 X29.247 Y13.263 E20.15108
G1 X28.774 Y13.448 E20.21202
G1 X28.319 Y13.61 E20.26998
G1 X27.821 Y13.77 E20.33275
G1 X27.367 Y13.901 E20.38945
G1 X26.843 Y14.035 E20.45436
G1 X26.315 Y14.151 E20.51923
G1 X25.752 Y14.254 E20.58791
G1 X25.228 Y14.331 E20.65146
G1 X24.638 Y14.398 E20.72272
G1 X24.171 Y14.437 E20.77895
G1 X23.548 Y14.47 E20.85382
G1 X23.101 Y14.481 E20.90748
G1 X22.414 Y14.478 E20.98992
G1 X21.721 Y14.444 E21.07318
G1 X20.973 Y14.374 E21.16333
G1 X20.151 Y14.253 E21.26303
G1 X19.406 Y14.102 E21.35425
G1 X18.614 Y13.897 E21.45242
G1 X17.899 Y13.672 E21.54237
G1 X17.077 Y13.361 E21.64783
G1 X16.897 Y13.456 E21.67226
G1 X16.165 Y13.753 E21.76705
G1 X15.429 Y13.97 E21.85913
G1 X15.073 Y14.056 E21.90308
G1 X14.297 Y14.202 E21.99783
G1 X13.437 Y14.272 E22.10138
G1 X13.078 Y14.278 E22.14446
G1 X11.172 Y14.277 E22.37318
G1 X10.383 Y14.237 E22.46798
G1 X9.788 Y14.152 E22.54011
G1 X9.412 Y14.084 E22.58596
G1 X8.643 Y13.905 E22.68071
G1 X7.968 Y13.673 E22.76636
G1 X7.631 Y13.794 E22.80933
G1 X6.875 Y14.024 E22.90415
G1 X6.1 Y14.176 E22.99892
G1 X5.573 Y14.233 E23.06253
G1 X5.266 Y14.256 E23.09947
G1 X4.68 Y14.278 E23.16984
G1 X1.897 Y14.277 E23.5038
G1 X1.109 Y14.237 E23.59849
G1 X0.512 Y14.152 E23.67085
G1 X0.136 Y14.084 E23.7167
G1 X-.633 Y13.905 E23.81145
G1 X-1.38 Y13.648 E23.90624
G1 X-2.097 Y13.318 E24.00096
G1 X-2.153 Y13.289 E24.00853
G0 F3600 X-1.911 Y12.963
G1 F1800 X-2.153 Y12.836 E24.04132
G1 X-2.607 Y13.065 E24.10234
G1 X-2.81 Y13.567 E24.16732
G1 X-3.188 Y14.271 E24.26321
G1 X-3.426 Y14.663 E24.31824
G1 X-3.858 Y15.299 E24.4105
G1 X-4.355 Y15.887 E24.50289
G1 X-4.904 Y16.415 E24.59429
G1 X-5.257 Y16.721 E24.65035
G1 X-5.863 Y17.193 E24.74253
G1 X-6.516 Y17.601 E24.83493
G1 X-7.256 Y17.959 E24.93357
G1 X-7.678 Y18.135 E24.98844
G1 X-8.402 Y18.394 E25.08071
G1 X-9.149 Y18.576 E25.17297
G1 X-9.806 Y18.67 E25.25262
G1 X-10.246 Y18.713 E25.30567
G1 X-10.969 Y18.748 E25.39253
G1 X-13.761 Y18.747 E25.72757
G1 X-14.529 Y18.707 E25.81985
G1 X-15.029 Y18.637 E25.88044
G1 X-15.488 Y18.557 E25.93635
G1 X-16.237 Y18.386 E26.02854
G1 X-16.965 Y18.138 E26.12083
G1 X-17.668 Y17.813 E26.21377
G1 X-18.123 Y17.57 E26.27567
G1 X-18.669 Y17.874 E26.35066
G1 X-19.376 Y18.177 E26.44296
G1 X-20.115 Y18.405 E26.53577
G1 X-20.554 Y18.516 E26.59011
G1 X-21.308 Y18.666 E26.68236
G1 X-22.176 Y18.74 E26.7869
G1 X-22.602 Y18.748 E26.83803
G1 X-25.388 Y18.747 E27.17235
G1 X-26.156 Y18.707 E27.26463
G1 X-26.653 Y18.638 E27.32484
G1 X-27.113 Y18.558 E27.38087
G1 X-27.863 Y18.387 E27.47318
G1 X-28.591 Y18.139 E27.56547
G1 X-29.289 Y17.817 E27.65772
G1 X-29.696 Y17.603 E27.71289
G1 X-30.357 Y17.21 E27.80518
G1 X-30.974 Y16.751 E27.89746
G1 X-31.55 Y16.22 E27.99147
G1 X-31.866 Y15.896 E28.04578
G1 X-32.373 Y15.318 E28.13804
G1 X-32.818 Y14.691 E28.2303
G1 X-33.2 Y14.012 E28.32379
G1 X-33.403 Y13.602 E28.37869
G1 X-33.708 Y12.896 E28.47098
G1 X-33.938 Y12.162 E28.56328
G1 X-34.09 Y11.408 E28.65558
G1 X-34.158 Y10.951 E28.71103
G1 X-34.232 Y10.185 E28.80337
G1 X-34.226 Y9.416 E28.89566
G1 X-34.134 Y8.622 E28.99157
G1 X-34.057 Y8.169 E29.04671
G1 X-33.889 Y7.418 E29.13906
G1 X-33.644 Y6.689 E29.23135
G1 X-33.337 Y5.996 E29.3223
G1 X-32.92 Y5.218 E29.42823
G1 X-30.11 Y0.652 E30.0716
G1 X-33.774 Y-5.149 E30.89494
G1 X-34.151 Y-5.82 E30.9873
G1 X-34.524 Y-6.674 E31.09913
G1 X-34.784 Y-7.398 E31.19144
G1 X-34.967 Y-8.145 E31.28373
G1 X-35.074 Y-8.939 E31.37988
G1 X-35.111 Y-9.4 E31.43537
G1 X-35.133 Y-10.169 E31.52769
G1 X-35.075 Y-10.936 E31.61999
G1 X-34.936 Y-11.695 E31.71259
G1 X-34.831 Y-12.139 E31.76734
G1 X-34.616 Y-12.877 E31.85958
G1 X-34.325 Y-13.589 E31.95188
G1 X-33.937 Y-14.307 E32.04982
G1 X-33.697 Y-14.698 E32.10487
G1 X-33.261 Y-15.332 E32.1972
G1 X-32.761 Y-15.917 E32.28955
G1 X-32.203 Y-16.448 E32.38198
G1 X-31.848 Y-16.752 E32.43807
G1 X-31.239 Y-17.221 E32.53031
G1 X-30.584 Y-17.624 E32.62259
G1 X-29.881 Y-17.962 E32.7162
G1 X-29.461 Y-18.137 E32.7708
G1 X-28.737 Y-18.395 E32.86303
G1 X-27.989 Y-18.577 E32.95541
G1 X-27.325 Y-18.672 E33.0359
G1 X-26.889 Y-18.714 E33.08846
G1 X-26.179 Y-18.748 E33.17376
G1 X-23.391 Y-18.748 E33.50832
G1 X-22.668 Y-18.713 E33.59518
G1 X-21.808 Y-18.579 E33.69963
G1 X-21.243 Y-18.457 E33.76899
G1 X-20.501 Y-18.256 E33.86124
G1 X-19.783 Y-17.979 E33.95359
G1 X-18.795 Y-17.443 E34.08847
G1 X-18.355 Y-17.157 E34.15145
G1 X-17.886 Y-17.462 E34.21858
G1 X-17.217 Y-17.842 E34.31091
G1 X-16.513 Y-18.15 E34.40312
G1 X-15.784 Y-18.382 E34.49492
G1 X-15.35 Y-18.496 E34.54877
G1 X-14.597 Y-18.653 E34.64107
G1 X-13.739 Y-18.734 E34.74449
G1 X-13.22 Y-18.748 E34.80679
G1 X-10.434 Y-18.747 E35.14111
G1 X-9.666 Y-18.707 E35.2334
G1 X-9.169 Y-18.638 E35.29361
G1 X-8.709 Y-18.558 E35.34964
G1 X-7.959 Y-18.387 E35.44195
G1 X-7.231 Y-18.139 E35.53424
G1 X-7.147 Y-18.1 E35.54535
G1 X-6.552 Y-18.174 E35.6173
G1 X-5.959 Y-18.197 E35.68851
G1 X-4.507 Y-18.196 E35.86275
G1 X-3.739 Y-18.155 E35.95504
G1 X-3.195 Y-18.078 E36.02098
G1 X-2.37 Y-17.905 E36.12213
G1 X-2.218 Y-17.951 E36.14119
G1 X-1.463 Y-18.099 E36.23351
G1 X-.759 Y-18.171 E36.31843
G1 X-.132 Y-18.197 E36.39374
G1 X1.7 Y-18.196 E36.61358
G1 X2.467 Y-18.156 E36.70574
G1 X3.189 Y-18.197 E36.79252
G1 X5.164 Y-18.196 E37.02952
G1 X5.932 Y-18.156 E37.1218
G1 X6.477 Y-18.078 E37.18787
G1 X6.853 Y-18.01 E37.23372
G1 X7.602 Y-17.834 E37.32605
G1 X8.328 Y-17.581 E37.41831
G1 X8.978 Y-17.279 E37.50432
G1 X9.141 Y-17.193 E37.52643
G1 X9.453 Y-17.359 E37.56884
G1 X10.142 Y-17.639 E37.65809
G1 X10.497 Y-17.763 E37.70321
G1 X11.235 Y-17.979 E37.79549
G1 X12.374 Y-18.156 E37.93381
G1 X12.636 Y-18.176 E37.96534
G1 X13.203 Y-18.197 E38.03343
G1 X14.998 Y-18.196 E38.24883
G1 X15.766 Y-18.156 E38.34111
G1 X16.159 Y-18.1 E38.38875
G1 X16.604 Y-18.18 E38.443
G1 X17.13 Y-18.256 E38.50678
G1 X17.548 Y-18.304 E38.55727
G1 X18.101 Y-18.352 E38.62388
G1 X18.442 Y-18.374 E38.66488
G1 X19.01 Y-18.397 E38.7331
G1 X19.613 Y-18.404 E38.80546
G1 X19.847 Y-18.401 E38.83355
G1 X20.442 Y-18.384 E38.90498
G1 X20.897 Y-18.357 E38.95967
G1 X21.539 Y-18.299 E39.03703
G1 X22.196 Y-18.213 E39.11654
G1 X22.717 Y-18.126 E39.17992
G1 X23.396 Y-17.987 E39.26309
G1 X23.891 Y-17.864 E39.3243
G1 X24.402 Y-17.717 E39.38811
G1 X24.972 Y-17.531 E39.46006
G1 X25.604 Y-17.292 E39.54114
G1 X26.154 Y-17.055 E39.61301
G1 X26.785 Y-16.747 E39.69726
G1 X27.31 Y-16.459 E39.76912
G1 X27.882 Y-16.11 E39.84953
G1 X28.362 Y-15.787 E39.91896
G1 X29.025 Y-15.285 E40.01875
G1 X29.473 Y-14.904 E40.08932
G1 X30.098 Y-14.307 E40.19304
G1 X30.51 Y-13.864 E40.26563
G1 X31.105 Y-13.136 E40.37846
G1 X31.452 Y-12.652 E40.44993
G1 X31.957 Y-11.842 E40.56447
G1 X32.246 Y-11.304 E40.63775
G1 X32.617 Y-10.5 E40.74401
G1 X32.841 Y-9.928 E40.81773
G1 X33.108 Y-9.11 E40.92098
G1 X33.264 Y-8.516 E40.99468
G1 X33.424 Y-7.74 E41.08976
G1 X33.52 Y-7.104 E41.16694
G1 X33.609 Y-6.189 E41.27726
G1 X33.631 Y-5.662 E41.34056
G1 X33.632 Y-5.077 E41.41076
G1 X33.608 Y-4.435 E41.48785
G1 X33.527 Y-3.585 E41.59031
G1 X33.436 Y-2.994 E41.66207
G1 X33.237 Y-2.087 E41.7735
G1 X33.085 Y-1.556 E41.83978
G1 X33.419 Y-1.015 E41.91607
G1 X33.681 Y-.486 E41.98691
G1 X34.388 Y1.095 E42.19474
G1 X34.665 Y1.813 E42.28709
G1 X34.893 Y2.63 E42.38887
G1 X35.048 Y3.384 E42.48124
G1 X35.124 Y4.149 E42.5735
G1 X35.117 Y4.966 E42.67154
G1 X35.093 Y5.343 E42.71687
G1 X35.004 Y6.107 E42.80917
G1 X34.837 Y6.858 E42.90149
G1 X34.58 Y7.618 E42.99777
G1 X34.441 Y7.966 E43.04273
G1 X34.119 Y8.664 E43.13498
G1 X33.726 Y9.326 E43.22736
G1 X33.254 Y9.958 E43.32202
G1 X33.009 Y10.252 E43.36794
G1 X32.486 Y10.817 E43.46033
G1 X31.908 Y11.324 E43.55259
G1 X31.163 Y11.841 E43.66141
G1 X30.728 Y12.105 E43.72247
G1 X29.956 Y12.513 E43.82725
G1 X29.473 Y12.733 E43.89094
G1 X29.101 Y12.891 E43.93944
G1 X28.628 Y13.076 E44.00039
G1 X28.197 Y13.229 E44.05527
G1 X27.699 Y13.389 E44.11804
G1 X27.268 Y13.513 E44.17186
G1 X26.744 Y13.647 E44.23676
G1 X26.243 Y13.757 E44.29831
G1 X25.68 Y13.86 E44.36699
G1 X25.183 Y13.934 E44.42729
G1 X24.593 Y14.001 E44.49855
G1 X24.149 Y14.038 E44.55201
G1 X23.526 Y14.071 E44.62688
G1 X23.103 Y14.081 E44.67765
G1 X22.416 Y14.078 E44.76009
G1 X21.758 Y14.046 E44.83914
G1 X21.01 Y13.976 E44.9293
G1 X20.23 Y13.861 E45.02391
G1 X19.485 Y13.71 E45.11513
G1 X18.734 Y13.516 E45.2082
G1 X18.019 Y13.291 E45.29815
G1 X17.22 Y12.988 E45.4007
G1 X17.06 Y12.917 E45.4217
G1 X16.71 Y13.102 E45.46921
G1 X15.996 Y13.388 E45.56151
G1 X15.335 Y13.581 E45.64414
G1 X14.979 Y13.667 E45.68809
G1 X14.223 Y13.809 E45.78039
G1 X13.427 Y13.872 E45.87621
G1 X13.078 Y13.878 E45.9181
G1 X11.172 Y13.877 E46.14682
G1 X10.404 Y13.837 E46.2391
G1 X9.859 Y13.759 E46.30517
G1 X9.483 Y13.691 E46.35102
G1 X8.734 Y13.515 E46.44335
G1 X8.008 Y13.262 E46.53561
G1 X7.965 Y13.242 E46.5413
G1 X7.495 Y13.418 E46.60152
G1 X6.759 Y13.64 E46.69377
G1 X6.003 Y13.785 E46.78615
G1 X5.236 Y13.857 E46.87859
G1 X4.68 Y13.878 E46.94536
G1 X1.897 Y13.877 E47.27932
G1 X1.129 Y13.837 E47.3716
G1 X0.583 Y13.759 E47.43779
G1 X0.207 Y13.691 E47.48364
G1 X-.542 Y13.515 E47.57597
G1 X-1.268 Y13.262 E47.66823
G1 X-1.911 Y12.963 E47.75332
G0 F3600 X-1.725 Y12.609
G1 F1800 X-2.147 Y12.381 E47.81088
G1 X-2.905 Y12.764 E47.91279
G1 X-2.917 Y12.769 E47.91435
G1 X-3.19 Y13.434 E48.00062
G1 X-3.529 Y14.064 E48.08647
G1 X-3.767 Y14.456 E48.1415
G1 X-4.189 Y15.074 E48.2313
G1 X-4.675 Y15.643 E48.32109
G1 X-5.166 Y16.112 E48.40257
G1 X-5.519 Y16.418 E48.45863
G1 X-6.11 Y16.877 E48.54843
G1 X-6.746 Y17.271 E48.63821
