;FLAVOR:RepRap
;TIME:2071
;Filament used: 0.673168m
;Layer height: 0.1
;MINX:64.462
;MINY:80.852
;MINZ:0.3
;MAXX:135.523
;MAXY:119.148
;MAXZ:4.5
;Generated with Cura_SteamEngine 4.7.1
T0
M190 S60
M104 S200
M109 S200
M82 ;absolute extrusion mode
G21 ;metric values
G90 ;absolute positioning
M82 ;set extruder to absolute mode
M107 ;start with the fan off
G28 X0 Y0 ;move X/Y to min endstops
G28 Z0 ;move Z to min endstops
G1 Z15.0 F9000 ;move the platform down 15mm
G92 E0 ;zero the extruded length
G1 F200 E3 ;extrude 3mm of feed stock
G92 E0 ;zero the extruded length again
G1 F9000
;Put printing message on LCD screen
M117 Printing...
M83 ;relative extrusion mode
G1 F1500 E-6.5
;LAYER_COUNT:43
;LAYER:0
M107
G0 F3600 X67.822 Y82.997 Z0.3
;TYPE:SKIRT
G1 F1500 E6.5
G1 F1800 X68.443 Y82.508 E0.03943
G1 X69.11 Y82.086 E0.03938
G1 X69.888 Y81.701 E0.04331
G1 X70.31 Y81.521 E0.02289
G1 X71.051 Y81.249 E0.03938
G1 X71.816 Y81.052 E0.03941
G1 X72.621 Y80.932 E0.04061
G1 X73.077 Y80.888 E0.02286
G1 X73.826 Y80.852 E0.03741
G1 X76.616 Y80.852 E0.13919
G1 X77.405 Y80.892 E0.03941
G1 X78.258 Y81.027 E0.04309
G1 X78.857 Y81.156 E0.03057
G1 X79.62 Y81.361 E0.03942
G1 X80.358 Y81.642 E0.0394
G1 X81.063 Y81.996 E0.03936
G1 X81.647 Y82.36 E0.03433
G1 X81.816 Y82.249 E0.01009
G1 X82.498 Y81.851 E0.0394
G1 X83.217 Y81.524 E0.03941
G1 X84.039 Y81.252 E0.0432
G1 X84.478 Y81.133 E0.02269
G1 X85.25 Y80.965 E0.03942
G1 X86.245 Y80.866 E0.04989
G1 X86.775 Y80.852 E0.02645
G1 X89.553 Y80.852 E0.13859
G1 X90.342 Y80.892 E0.03941
G1 X91.258 Y81.027 E0.04619
G1 X92.031 Y81.193 E0.03944
G1 X92.782 Y81.436 E0.03938
G1 X92.879 Y81.479 E0.00529
G1 X93.454 Y81.425 E0.02881
G1 X94.046 Y81.403 E0.02956
G1 X95.478 Y81.403 E0.07144
G1 X96.267 Y81.443 E0.03941
G1 X97.112 Y81.567 E0.04261
G1 X97.62 Y81.677 E0.02593
G1 X98.336 Y81.525 E0.03652
G1 X98.933 Y81.454 E0.02999
G1 X99.241 Y81.429 E0.01542
G1 X99.872 Y81.403 E0.03151
G1 X101.686 Y81.403 E0.0905
G1 X102.485 Y81.444 E0.03991
G1 X103.175 Y81.403 E0.03448
G1 X105.151 Y81.403 E0.09858
G1 X105.94 Y81.443 E0.03941
G1 X106.787 Y81.567 E0.04271
G1 X107.559 Y81.735 E0.03942
G1 X108.31 Y81.979 E0.0394
G1 X109.085 Y82.325 E0.04234
G1 X109.134 Y82.349 E0.00272
G1 X109.916 Y82.017 E0.04238
G1 X110.27 Y81.889 E0.01878
G1 X111.025 Y81.658 E0.03939
G1 X111.8 Y81.505 E0.03941
G1 X112.353 Y81.445 E0.02775
G1 X112.64 Y81.424 E0.01436
G1 X113.209 Y81.403 E0.02841
G1 X114.984 Y81.403 E0.08856
G1 X115.773 Y81.443 E0.03941
G1 X116.156 Y81.494 E0.01928
G1 X116.554 Y81.423 E0.02017
G1 X117.068 Y81.349 E0.02591
G1 X117.504 Y81.298 E0.0219
G1 X118.068 Y81.249 E0.02824
G1 X118.423 Y81.227 E0.01774
G1 X118.984 Y81.204 E0.02801
G1 X119.614 Y81.196 E0.03143
G1 X119.863 Y81.199 E0.01242
G1 X120.45 Y81.216 E0.0293
G1 X121.029 Y81.253 E0.02895
G1 X121.585 Y81.304 E0.02786
G1 X122.26 Y81.392 E0.03396
G1 X122.786 Y81.48 E0.02661
G1 X123.485 Y81.624 E0.03561
G1 X123.984 Y81.748 E0.02565
G1 X124.511 Y81.899 E0.02735
G1 X125.084 Y82.085 E0.03006
G1 X125.761 Y82.34 E0.03609
G1 X126.309 Y82.576 E0.02977
G1 X126.957 Y82.891 E0.03595
G1 X127.478 Y83.175 E0.0296
G1 X128.117 Y83.565 E0.03735
G1 X128.606 Y83.896 E0.02946
G1 X129.283 Y84.41 E0.04241
G1 X129.734 Y84.793 E0.02952
G1 X130.402 Y85.432 E0.04612
G1 X130.802 Y85.863 E0.02934
G1 X131.423 Y86.623 E0.04896
G1 X131.773 Y87.111 E0.02996
G1 X132.298 Y87.951 E0.04942
G1 X132.588 Y88.488 E0.03045
G1 X132.983 Y89.337 E0.04672
G1 X133.207 Y89.906 E0.03051
G1 X133.493 Y90.78 E0.04588
G1 X133.651 Y91.381 E0.031
G1 X133.82 Y92.199 E0.04167
G1 X133.915 Y92.828 E0.03174
G1 X133.976 Y93.347 E0.02607
G1 X134.008 Y93.794 E0.02236
G1 X134.03 Y94.315 E0.02602
G1 X134.032 Y94.924 E0.03038
G1 X134.009 Y95.565 E0.032
G1 X133.924 Y96.465 E0.0451
G1 X133.834 Y97.053 E0.02968
G1 X133.625 Y98.01 E0.04887
G1 X133.518 Y98.385 E0.01946
G1 X133.752 Y98.762 E0.02214
G1 X134.045 Y99.348 E0.03269
G1 X134.754 Y100.931 E0.08654
G1 X135.04 Y101.667 E0.03939
G1 X135.263 Y102.449 E0.04057
G1 X135.43 Y103.221 E0.03941
G1 X135.518 Y104.006 E0.03941
G1 X135.523 Y104.876 E0.04341
G1 X135.504 Y105.252 E0.01878
G1 X135.424 Y106.037 E0.03937
G1 X135.266 Y106.811 E0.03941
G1 X135.005 Y107.629 E0.04284
G1 X134.872 Y107.979 E0.01868
G1 X134.555 Y108.702 E0.03939
G1 X134.166 Y109.389 E0.03939
G1 X133.636 Y110.125 E0.04525
G1 X133.394 Y110.423 E0.01915
G1 X132.866 Y111.01 E0.03939
G1 X132.281 Y111.541 E0.03942
G1 X131.391 Y112.171 E0.0544
G1 X130.937 Y112.447 E0.02651
G1 X130.112 Y112.883 E0.04655
G1 X129.641 Y113.097 E0.02581
G1 X129.241 Y113.266 E0.02166
G1 X128.755 Y113.455 E0.02602
G1 X128.323 Y113.608 E0.02286
G1 X127.827 Y113.768 E0.026
G1 X127.375 Y113.899 E0.02348
G1 X126.858 Y114.032 E0.02663
G1 X126.314 Y114.152 E0.02779
G1 X125.749 Y114.255 E0.02865
G1 X125.232 Y114.331 E0.02607
G1 X124.643 Y114.398 E0.02957
G1 X124.177 Y114.437 E0.02333
G1 X123.559 Y114.47 E0.03088
G1 X123.109 Y114.481 E0.02246
G1 X122.419 Y114.478 E0.03442
G1 X121.725 Y114.444 E0.03467
G1 X120.968 Y114.373 E0.03793
G1 X120.154 Y114.253 E0.04105
G1 X119.415 Y114.104 E0.03761
G1 X118.623 Y113.901 E0.04079
G1 X117.912 Y113.678 E0.03718
G1 X117.085 Y113.365 E0.04412
G1 X117.024 Y113.398 E0.00346
G1 X116.298 Y113.707 E0.03936
G1 X115.544 Y113.941 E0.03939
G1 X114.972 Y114.065 E0.0292
G1 X114.441 Y114.159 E0.0269
G1 X113.657 Y114.257 E0.03942
G1 X113.081 Y114.278 E0.02876
G1 X111.186 Y114.278 E0.09454
G1 X110.397 Y114.238 E0.03941
G1 X109.552 Y114.114 E0.04261
G1 X108.78 Y113.947 E0.03941
G1 X108.029 Y113.703 E0.0394
G1 X107.965 Y113.674 E0.00351
G1 X107.73 Y113.762 E0.01252
G1 X106.977 Y114.001 E0.03941
G1 X106.204 Y114.161 E0.03938
G1 X105.566 Y114.234 E0.03204
G1 X105.233 Y114.258 E0.01666
G1 X104.672 Y114.278 E0.02801
G1 X101.91 Y114.278 E0.1378
G1 X101.121 Y114.238 E0.03941
G1 X100.276 Y114.114 E0.04261
G1 X99.504 Y113.947 E0.03941
G1 X98.753 Y113.703 E0.0394
G1 X97.975 Y113.356 E0.0425
G1 X97.852 Y113.293 E0.00689
G1 X97.706 Y113.363 E0.00808
G1 X97.607 Y113.618 E0.01365
G1 X97.214 Y114.378 E0.04269
G1 X96.982 Y114.772 E0.02281
G1 X96.548 Y115.431 E0.03937
G1 X96.049 Y116.043 E0.0394
G1 X95.422 Y116.662 E0.04396
G1 X95.073 Y116.97 E0.02322
G1 X94.455 Y117.462 E0.03941
G1 X93.791 Y117.889 E0.03939
G1 X92.987 Y118.29 E0.04482
G1 X92.565 Y118.471 E0.02291
G1 X91.824 Y118.746 E0.03943
G1 X91.06 Y118.943 E0.03936
G1 X90.248 Y119.066 E0.04097
G1 X89.787 Y119.111 E0.02311
G1 X89.029 Y119.148 E0.03786
G1 X86.252 Y119.148 E0.13855
G1 X85.463 Y119.108 E0.03941
G1 X84.545 Y118.973 E0.04629
G1 X83.773 Y118.807 E0.0394
G1 X83.022 Y118.564 E0.03938
G1 X82.234 Y118.213 E0.04304
G1 X81.88 Y118.031 E0.01986
G1 X81.617 Y118.182 E0.01513
G1 X80.896 Y118.503 E0.03937
G1 X80.037 Y118.779 E0.04501
G1 X79.596 Y118.893 E0.02272
G1 X78.823 Y119.051 E0.03936
G1 X77.87 Y119.138 E0.04774
G1 X77.403 Y119.148 E0.0233
G1 X74.625 Y119.148 E0.13859
G1 X73.836 Y119.108 E0.03941
G1 X72.92 Y118.973 E0.04619
G1 X72.147 Y118.807 E0.03944
G1 X71.396 Y118.564 E0.03938
G1 X70.613 Y118.216 E0.04275
G1 X70.203 Y118.006 E0.02298
G1 X69.519 Y117.611 E0.03941
G1 X68.879 Y117.149 E0.03938
G1 X68.226 Y116.562 E0.04381
G1 X67.907 Y116.241 E0.02258
G1 X67.38 Y115.654 E0.03936
G1 X66.914 Y115.016 E0.03942
G1 X66.491 Y114.285 E0.04214
G1 X66.282 Y113.875 E0.02296
G1 X65.959 Y113.155 E0.03937
G1 X65.711 Y112.405 E0.03941
G1 X65.529 Y111.569 E0.04269
G1 X65.456 Y111.114 E0.02299
G1 X65.371 Y110.329 E0.03939
G1 X65.365 Y109.539 E0.03941
G1 X65.456 Y108.648 E0.04468
G1 X65.529 Y108.191 E0.02309
G1 X65.693 Y107.418 E0.03942
G1 X65.934 Y106.666 E0.0394
G1 X66.149 Y106.152 E0.0278
G1 X66.293 Y105.84 E0.01714
G1 X66.732 Y105.021 E0.04636
G1 X69.419 Y100.655 E0.25577
G1 X65.891 Y95.072 E0.32949
G1 X65.504 Y94.383 E0.03943
G1 X65.141 Y93.572 E0.04433
G1 X64.865 Y92.832 E0.0394
G1 X64.666 Y92.068 E0.03939
G1 X64.537 Y91.197 E0.04393
G1 X64.495 Y90.739 E0.02295
G1 X64.462 Y89.95 E0.0394
G1 X64.51 Y89.162 E0.03939
G1 X64.655 Y88.303 E0.04346
G1 X64.757 Y87.853 E0.02302
G1 X64.97 Y87.092 E0.03943
G1 X65.259 Y86.358 E0.03936
G1 X65.646 Y85.614 E0.04184
G1 X65.879 Y85.219 E0.02288
G1 X66.314 Y84.56 E0.03939
G1 X66.813 Y83.948 E0.0394
G1 X67.471 Y83.303 E0.04597
G1 X67.822 Y82.997 E0.02323
G0 F3600 X68.085 Y83.298
G1 F1800 X68.69 Y82.823 E0.03837
G1 X69.342 Y82.414 E0.0384
G1 X70.045 Y82.069 E0.03907
G1 X70.467 Y81.889 E0.02289
G1 X71.189 Y81.625 E0.03835
G1 X71.935 Y81.437 E0.03838
G1 X72.659 Y81.33 E0.03651
G1 X73.115 Y81.286 E0.02286
G1 X73.826 Y81.252 E0.03551
G1 X76.616 Y81.252 E0.13919
G1 X77.384 Y81.292 E0.03837
G1 X78.174 Y81.418 E0.03991
G1 X78.773 Y81.547 E0.03057
G1 X79.515 Y81.748 E0.03835
G1 X80.233 Y82.024 E0.03838
G1 X80.918 Y82.374 E0.03838
G1 X81.638 Y82.831 E0.04255
G1 X82.035 Y82.584 E0.02333
G1 X82.7 Y82.197 E0.03839
G1 X83.401 Y81.882 E0.03834
G1 X84.144 Y81.638 E0.03902
G1 X84.583 Y81.519 E0.02269
G1 X85.335 Y81.356 E0.03839
G1 X86.259 Y81.266 E0.04632
G1 X86.775 Y81.252 E0.02575
G1 X89.553 Y81.252 E0.13859
G1 X90.321 Y81.292 E0.03837
G1 X91.194 Y81.422 E0.04403
G1 X91.946 Y81.584 E0.03838
G1 X92.677 Y81.824 E0.03839
G1 X92.818 Y81.887 E0.0077
G1 X93.485 Y81.824 E0.03342
G1 X94.046 Y81.803 E0.02801
G1 X95.478 Y81.803 E0.07144
G1 X96.246 Y81.843 E0.03837
G1 X97.047 Y81.962 E0.0404
G1 X97.629 Y82.088 E0.02971
G1 X97.685 Y82.07 E0.00293
G1 X98.439 Y81.914 E0.03841
G1 X98.965 Y81.852 E0.02642
G1 X99.273 Y81.827 E0.01542
G1 X99.872 Y81.803 E0.02991
G1 X101.686 Y81.803 E0.0905
G1 X102.454 Y81.843 E0.03837
G1 X102.47 Y81.845 E0.0008
G1 X103.175 Y81.803 E0.03523
G1 X105.151 Y81.803 E0.09858
G1 X105.919 Y81.843 E0.03837
G1 X106.723 Y81.962 E0.04055
G1 X107.474 Y82.126 E0.03835
G1 X108.204 Y82.367 E0.03835
G1 X108.902 Y82.681 E0.03818
G1 X109.14 Y82.803 E0.01334
G1 X109.346 Y82.69 E0.01172
G1 X110.052 Y82.393 E0.03821
G1 X110.406 Y82.265 E0.01878
G1 X111.142 Y82.041 E0.03838
G1 X111.897 Y81.895 E0.03836
G1 X112.669 Y81.823 E0.03868
G1 X113.209 Y81.803 E0.02696
G1 X114.984 Y81.803 E0.08856
G1 X115.752 Y81.843 E0.03837
G1 X116.164 Y81.899 E0.02074
G1 X116.611 Y81.819 E0.02266
G1 X117.125 Y81.745 E0.02591
G1 X117.539 Y81.697 E0.02079
G1 X118.103 Y81.648 E0.02824
G1 X118.44 Y81.626 E0.01685
G1 X119.001 Y81.603 E0.02801
G1 X119.615 Y81.596 E0.03063
G1 X119.851 Y81.599 E0.01178
G1 X120.438 Y81.616 E0.0293
G1 X120.993 Y81.651 E0.02774
G1 X121.549 Y81.702 E0.02786
G1 X122.194 Y81.786 E0.03245
G1 X122.72 Y81.874 E0.02661
G1 X123.389 Y82.012 E0.03408
G1 X123.888 Y82.136 E0.02565
G1 X124.388 Y82.28 E0.02596
G1 X124.961 Y82.466 E0.03006
G1 X125.603 Y82.707 E0.03421
G1 X126.151 Y82.943 E0.02977
G1 X126.766 Y83.243 E0.03414
G1 X127.287 Y83.527 E0.0296
G1 X127.893 Y83.896 E0.0354
G1 X128.382 Y84.227 E0.02946
G1 X129.024 Y84.714 E0.0402
G1 X129.475 Y85.097 E0.02952
G1 X130.109 Y85.704 E0.04379
G1 X130.509 Y86.135 E0.02934
G1 X131.098 Y86.856 E0.04645
G1 X131.448 Y87.344 E0.02996
G1 X131.946 Y88.141 E0.04689
G1 X132.236 Y88.678 E0.03045
G1 X132.611 Y89.483 E0.04431
G1 X132.835 Y90.052 E0.03051
G1 X133.106 Y90.882 E0.04356
G1 X133.264 Y91.483 E0.031
G1 X133.424 Y92.259 E0.03953
G1 X133.519 Y92.888 E0.03174
G1 X133.578 Y93.387 E0.02507
G1 X133.608 Y93.811 E0.02121
G1 X133.63 Y94.332 E0.02602
G1 X133.632 Y94.909 E0.02879
G1 X133.609 Y95.55 E0.032
G1 X133.529 Y96.405 E0.04284
G1 X133.439 Y96.993 E0.02968
G1 X133.241 Y97.901 E0.04636
G1 X133.086 Y98.446 E0.02827
G1 X133.412 Y98.973 E0.03092
G1 X133.68 Y99.511 E0.02999
G1 X134.389 Y101.094 E0.08654
G1 X134.666 Y101.812 E0.03839
G1 X134.877 Y102.553 E0.03844
G1 X135.039 Y103.305 E0.03838
G1 X135.122 Y104.07 E0.03839
G1 X135.124 Y104.855 E0.03916
G1 X135.105 Y105.231 E0.01878
G1 X135.026 Y105.997 E0.03842
G1 X134.868 Y106.749 E0.03834
G1 X134.631 Y107.487 E0.03867
G1 X134.498 Y107.837 E0.01868
G1 X134.188 Y108.54 E0.03833
G1 X133.807 Y109.208 E0.03837
G1 X133.325 Y109.873 E0.04098
G1 X133.083 Y110.171 E0.01915
G1 X132.568 Y110.742 E0.03836
G1 X131.996 Y111.257 E0.0384
G1 X131.183 Y111.829 E0.04959
G1 X130.729 Y112.105 E0.02651
G1 X129.946 Y112.519 E0.04419
G1 X129.475 Y112.733 E0.02581
G1 X129.096 Y112.893 E0.02052
G1 X128.61 Y113.082 E0.02602
G1 X128.2 Y113.228 E0.02171
G1 X127.704 Y113.388 E0.026
G1 X127.276 Y113.512 E0.02223
G1 X126.759 Y113.645 E0.02663
G1 X126.242 Y113.758 E0.0264
G1 X125.677 Y113.861 E0.02865
G1 X125.186 Y113.934 E0.02477
G1 X124.597 Y114.001 E0.02957
G1 X124.156 Y114.037 E0.02207
G1 X123.538 Y114.07 E0.03088
G1 X123.111 Y114.081 E0.02131
G1 X122.421 Y114.078 E0.03442
G1 X121.762 Y114.046 E0.03292
G1 X121.005 Y113.975 E0.03793
G1 X120.233 Y113.861 E0.03893
G1 X119.494 Y113.712 E0.03761
G1 X118.742 Y113.519 E0.03873
G1 X118.031 Y113.296 E0.03718
G1 X117.238 Y112.996 E0.0423
G1 X117.065 Y112.919 E0.00945
G1 X116.831 Y113.047 E0.01331
G1 X116.122 Y113.345 E0.03837
G1 X115.386 Y113.568 E0.03837
G1 X114.902 Y113.671 E0.02469
G1 X114.371 Y113.765 E0.0269
G1 X113.608 Y113.859 E0.03835
G1 X113.081 Y113.878 E0.02631
G1 X111.186 Y113.878 E0.09454
G1 X110.418 Y113.838 E0.03837
G1 X109.617 Y113.719 E0.0404
G1 X108.865 Y113.556 E0.03839
G1 X108.135 Y113.315 E0.03835
G1 X107.944 Y113.256 E0.00997
G1 X107.59 Y113.388 E0.01885
G1 X106.857 Y113.619 E0.03834
G1 X106.103 Y113.772 E0.03838
G1 X105.537 Y113.835 E0.02841
G1 X105.204 Y113.859 E0.01666
G1 X104.672 Y113.878 E0.02656
G1 X101.91 Y113.878 E0.1378
G1 X101.142 Y113.838 E0.03837
G1 X100.341 Y113.719 E0.0404
G1 X99.589 Y113.556 E0.03839
G1 X98.859 Y113.315 E0.03835
G1 X98.158 Y113 E0.03834
G1 X97.847 Y112.84 E0.01745
G1 X97.391 Y113.072 E0.02553
G1 X97.226 Y113.49 E0.02242
G1 X96.87 Y114.175 E0.03851
G1 X96.638 Y114.569 E0.02281
G1 X96.213 Y115.21 E0.03837
G1 X95.725 Y115.805 E0.03839
G1 X95.158 Y116.362 E0.03965
G1 X94.809 Y116.67 E0.02322
G1 X94.206 Y117.149 E0.03842
G1 X93.557 Y117.562 E0.03838
G1 X92.829 Y117.923 E0.04054
G1 X92.407 Y118.104 E0.02291
G1 X91.685 Y118.37 E0.03839
G1 X90.94 Y118.56 E0.03836
G1 X90.209 Y118.668 E0.03687
G1 X89.748 Y118.713 E0.02311
G1 X89.029 Y118.748 E0.03591
G1 X86.252 Y118.748 E0.13855
G1 X85.484 Y118.708 E0.03837
G1 X84.609 Y118.578 E0.04413
G1 X83.857 Y118.415 E0.03839
G1 X83.127 Y118.175 E0.03834
G1 X82.417 Y117.857 E0.03881
G1 X81.877 Y117.571 E0.03049
G1 X81.418 Y117.834 E0.02639
G1 X80.714 Y118.144 E0.03838
G1 X79.937 Y118.391 E0.04068
G1 X79.496 Y118.505 E0.02272
G1 X78.742 Y118.659 E0.03839
G1 X77.859 Y118.738 E0.04423
G1 X77.403 Y118.748 E0.02276
G1 X74.625 Y118.748 E0.13859
G1 X73.857 Y118.708 E0.03837
G1 X72.984 Y118.578 E0.04403
G1 X72.232 Y118.416 E0.03838
G1 X71.501 Y118.176 E0.03839
G1 X70.796 Y117.86 E0.03854
G1 X70.386 Y117.65 E0.02298
G1 X69.72 Y117.265 E0.03838
G1 X69.098 Y116.812 E0.03839
G1 X68.51 Y116.28 E0.03956
G1 X68.191 Y115.959 E0.02258
G1 X67.678 Y115.386 E0.03837
G1 X67.227 Y114.763 E0.03837
G1 X66.847 Y114.104 E0.03795
G1 X66.638 Y113.694 E0.02296
G1 X66.325 Y112.991 E0.03839
G1 X66.086 Y112.26 E0.03837
G1 X65.924 Y111.505 E0.03852
G1 X65.851 Y111.05 E0.02299
G1 X65.769 Y110.286 E0.03834
G1 X65.767 Y109.516 E0.03842
G1 X65.851 Y108.711 E0.04038
G1 X65.924 Y108.254 E0.02309
G1 X66.084 Y107.502 E0.03836
G1 X66.322 Y106.77 E0.0384
G1 X66.656 Y106.008 E0.04151
G1 X67.073 Y105.231 E0.04399
G1 X69.89 Y100.652 E0.26822
G1 X66.229 Y94.858 E0.34193
G1 X65.853 Y94.187 E0.03837
G1 X65.508 Y93.414 E0.04223
G1 X65.241 Y92.692 E0.0384
G1 X65.05 Y91.947 E0.03837
G1 X64.935 Y91.161 E0.03963
G1 X64.893 Y90.703 E0.02295
G1 X64.863 Y89.934 E0.03839
G1 X64.912 Y89.167 E0.03834
G1 X65.045 Y88.391 E0.03928
G1 X65.147 Y87.941 E0.02302
G1 X65.356 Y87.201 E0.03836
G1 X65.64 Y86.486 E0.03838
G1 X65.99 Y85.817 E0.03767
G1 X66.223 Y85.422 E0.02288
G1 X66.648 Y84.781 E0.03837
G1 X67.137 Y84.187 E0.03838
G1 X67.734 Y83.604 E0.04163
G1 X68.085 Y83.298 E0.02323
G0 F3600 X68.348 Y83.6
G1 F1800 X68.937 Y83.139 E0.03732
G1 X69.573 Y82.744 E0.03735
G1 X70.202 Y82.437 E0.03492
G1 X70.624 Y82.257 E0.02289
G1 X71.326 Y82.001 E0.03728
G1 X72.053 Y81.821 E0.03737
G1 X72.698 Y81.728 E0.03251
G1 X73.154 Y81.684 E0.02286
G1 X73.826 Y81.652 E0.03356
G1 X76.616 Y81.652 E0.13919
G1 X77.363 Y81.692 E0.03732
G1 X78.09 Y81.809 E0.03674
G1 X78.689 Y81.938 E0.03057
G1 X79.411 Y82.134 E0.03732
