;FLAVOR:RepRap
;TIME:1127
;Filament used: 0.504393m
;Layer height: 0.1
;MINX:-13.068
;MINY:-16.878
;MINZ:0.3
;MAXX:13.069
;MAXY:17.622
;MAXZ:14.7
;Generated with Cura_SteamEngine 4.7.1
T0
M104 S200
M109 S200
M82 ;absolute extrusion mode
G21 ;metric values
G90 ;absolute positioning
M82 ;set extruder to absolute mode
M107 ;start with the fan off
G28 X0 Y0 ;move X/Y to min endstops
G28 Z0 ;move Z to min endstops
G1 Z15.0 F9000 ;move the platform down 15mm
G92 E0 ;zero the extruded length
G1 F200 E3 ;extrude 3mm of feed stock
G92 E0 ;zero the extruded length again
G1 F9000
;Put printing message on LCD screen
M117 Printing...
M83 ;relative extrusion mode
G1 F1500 E-6.5
;LAYER_COUNT:145
;LAYER:0
M107
G1 F3600 X13.069 Y-6.751 Z0.3
;TYPE:SKIRT
G1 F1500 E6.5
G1 F1800 X13.068 Y9.241 E0.79784
G1 X13.057 Y9.653 E0.02056
G1 X13.03 Y10.164 E0.02553
G1 X12.949 Y10.949 E0.03937
G1 X12.788 Y11.722 E0.03939
G1 X12.55 Y12.475 E0.0394
G1 X12.059 Y13.54 E0.05851
G1 X12.019 Y13.612 E0.00411
G1 X11.601 Y14.282 E0.0394
G1 X11.118 Y14.906 E0.03937
G1 X10.574 Y15.479 E0.03942
G1 X9.974 Y15.993 E0.03942
G1 X9.326 Y16.444 E0.03939
G1 X8.636 Y16.827 E0.03937
G1 X7.91 Y17.138 E0.0394
G1 X7.157 Y17.375 E0.03938
G1 X6.383 Y17.534 E0.03942
G1 X5.597 Y17.614 E0.03942
G1 X5.005 Y17.622 E0.02954
G1 X4.607 Y17.612 E0.01986
G1 X3.82 Y17.552 E0.03938
G1 X3.042 Y17.413 E0.03943
G1 X2.283 Y17.196 E0.03938
G1 X1.55 Y16.903 E0.03938
G1 X0.849 Y16.538 E0.03943
G1 X0.19 Y16.104 E0.03937
G1 X0.002 Y15.951 E0.01209
G1 X-0.083 Y16.023 E0.00556
G1 X-.734 Y16.47 E0.0394
G1 X-1.426 Y16.849 E0.03936
G1 X-2.154 Y17.156 E0.03942
G1 X-2.909 Y17.388 E0.03941
G1 X-3.683 Y17.542 E0.03937
G1 X-4.469 Y17.617 E0.03939
G1 X-5.307 Y17.619 E0.04181
G1 X-6.095 Y17.569 E0.03939
G1 X-6.874 Y17.44 E0.03939
G1 X-7.636 Y17.232 E0.03941
G1 X-8.373 Y16.948 E0.0394
G1 X-9.078 Y16.592 E0.0394
G1 X-9.743 Y16.166 E0.0394
G1 X-10.361 Y15.675 E0.03938
G1 X-10.927 Y15.123 E0.03944
G1 X-11.433 Y14.518 E0.03935
G1 X-11.877 Y13.864 E0.03944
G1 X-12.251 Y13.169 E0.03938
G1 X-12.554 Y12.44 E0.03939
G1 X-12.768 Y11.737 E0.03666
G1 X-12.821 Y11.528 E0.01076
G1 X-12.976 Y10.754 E0.03938
G1 X-13.059 Y9.71 E0.05225
G1 X-13.068 Y8.978 E0.03652
G1 X-13.068 Y-7.84 E0.83905
G1 X-13.064 Y-8.531 E0.03447
G1 X-13.052 Y-8.921 E0.01947
G1 X-13.024 Y-9.422 E0.02503
G1 X-12.94 Y-10.207 E0.03939
G1 X-12.777 Y-10.98 E0.03941
G1 X-12.537 Y-11.732 E0.03938
G1 X-12.222 Y-12.457 E0.03944
G1 X-11.697 Y-13.357 E0.05198
G1 X-11.628 Y-13.459 E0.00614
G1 X-11.153 Y-14.09 E0.0394
G1 X-10.616 Y-14.67 E0.03943
G1 X-10.024 Y-15.192 E0.03938
G1 X-9.382 Y-15.652 E0.0394
G1 X-8.697 Y-16.045 E0.0394
G1 X-7.975 Y-16.366 E0.03942
G1 X-7.225 Y-16.613 E0.03939
G1 X-6.454 Y-16.782 E0.03938
G1 X-5.67 Y-16.873 E0.03938
G1 X-4.75 Y-16.878 E0.0459
G1 X-4.395 Y-16.859 E0.01774
G1 X-3.61 Y-16.777 E0.03938
G1 X-2.837 Y-16.616 E0.03939
G1 X-2.084 Y-16.377 E0.03941
G1 X-1.359 Y-16.064 E0.0394
G1 X-.669 Y-15.679 E0.03942
G1 X-0.022 Y-15.226 E0.0394
G1 X0.009 Y-15.199 E0.00205
G1 X0.471 Y-15.546 E0.02883
G1 X1.147 Y-15.954 E0.03939
G1 X1.861 Y-16.292 E0.03941
G1 X2.605 Y-16.556 E0.03939
G1 X3.373 Y-16.743 E0.03944
G1 X4.155 Y-16.851 E0.03938
G1 X5.047 Y-16.878 E0.04452
G1 X5.415 Y-16.868 E0.01837
G1 X6.202 Y-16.807 E0.03938
G1 X6.979 Y-16.666 E0.0394
G1 X7.738 Y-16.448 E0.0394
G1 X8.471 Y-16.153 E0.03942
G1 X9.17 Y-15.787 E0.03936
G1 X9.829 Y-15.351 E0.03942
G1 X10.44 Y-14.851 E0.03939
G1 X10.998 Y-14.292 E0.03941
G1 X11.496 Y-13.679 E0.0394
G1 X11.93 Y-13.019 E0.03941
G1 X12.295 Y-12.319 E0.03939
G1 X12.587 Y-11.585 E0.03941
G1 X12.803 Y-10.826 E0.03937
G1 X12.91 Y-10.274 E0.02805
G1 X12.964 Y-9.928 E0.01747
G1 X13.056 Y-8.848 E0.05408
G1 X13.066 Y-8.171 E0.03378
G1 X13.069 Y-6.751 E0.07084
G1 F3600 X12.669 Y-6.751
G1 F1800 X12.668 Y9.241 E0.79784
G1 X12.658 Y9.631 E0.01946
G1 X12.631 Y10.142 E0.02553
G1 X12.55 Y10.907 E0.03838
G1 X12.391 Y11.66 E0.0384
G1 X12.154 Y12.392 E0.03839
G1 X11.71 Y13.346 E0.0525
G1 X11.67 Y13.418 E0.00411
G1 X11.262 Y14.07 E0.03837
G1 X10.788 Y14.676 E0.03838
G1 X10.255 Y15.23 E0.03835
G1 X9.666 Y15.725 E0.03838
G1 X9.029 Y16.157 E0.0384
G1 X8.351 Y16.52 E0.03837
G1 X7.639 Y16.811 E0.03837
G1 X6.901 Y17.026 E0.03835
G1 X6.144 Y17.164 E0.03839
G1 X5.015 Y17.222 E0.0564
G1 X4.617 Y17.212 E0.01986
G1 X3.85 Y17.152 E0.03838
G1 X3.094 Y17.014 E0.03834
G1 X2.356 Y16.798 E0.03836
G1 X1.644 Y16.506 E0.03839
G1 X0.966 Y16.142 E0.03839
G1 X0.33 Y15.709 E0.03839
G1 X0.00 Y15.43 E0.02156
G1 X-.405 Y15.765 E0.02622
G1 X-1.046 Y16.191 E0.0384
G1 X-1.727 Y16.549 E0.03838
G1 X-2.442 Y16.833 E0.03838
G1 X-3.182 Y17.042 E0.03836
G1 X-3.94 Y17.173 E0.03838
G1 X-4.913 Y17.224 E0.04861
G1 X-5.302 Y17.219 E0.01941
G1 X-6.07 Y17.17 E0.03839
G1 X-6.828 Y17.04 E0.03837
G1 X-7.569 Y16.833 E0.03838
G1 X-8.284 Y16.55 E0.03836
G1 X-8.966 Y16.194 E0.03838
G1 X-9.607 Y15.77 E0.03834
G1 X-10.201 Y15.281 E0.03838
G1 X-10.741 Y14.733 E0.03838
G1 X-11.221 Y14.132 E0.03837
G1 X-11.636 Y13.485 E0.03835
G1 X-11.982 Y12.797 E0.03842
G1 X-12.254 Y12.078 E0.03835
G1 X-12.433 Y11.43 E0.03354
G1 X-12.583 Y10.676 E0.03835
G1 X-12.659 Y9.705 E0.04859
G1 X-12.668 Y8.978 E0.03627
G1 X-12.668 Y-7.838 E0.83895
G1 X-12.664 Y-8.529 E0.03447
G1 X-12.652 Y-8.899 E0.01847
G1 X-12.624 Y-9.4 E0.02503
G1 X-12.542 Y-10.165 E0.03838
G1 X-12.38 Y-10.917 E0.03838
G1 X-12.141 Y-11.648 E0.03837
G1 X-11.828 Y-12.35 E0.03835
G1 X-11.365 Y-13.133 E0.04538
G1 X-11.296 Y-13.235 E0.00614
G1 X-10.833 Y-13.849 E0.03837
G1 X-10.308 Y-14.412 E0.03841
G1 X-9.728 Y-14.916 E0.03833
G1 X-9.098 Y-15.358 E0.03839
G1 X-8.426 Y-15.733 E0.03839
G1 X-7.719 Y-16.035 E0.03836
G1 X-6.984 Y-16.262 E0.03838
G1 X-6.23 Y-16.412 E0.03835
G1 X-5.464 Y-16.483 E0.03838
G1 X-4.772 Y-16.478 E0.03452
G1 X-4.417 Y-16.459 E0.01774
G1 X-3.652 Y-16.378 E0.03838
G1 X-2.899 Y-16.219 E0.0384
G1 X-2.168 Y-15.981 E0.03835
G1 X-1.464 Y-15.67 E0.0384
G1 X-.798 Y-15.286 E0.03835
G1 X-.174 Y-14.836 E0.03838
G1 X0.005 Y-14.676 E0.01198
G1 X0.158 Y-14.815 E0.01031
G1 X0.778 Y-15.27 E0.03837
G1 X1.443 Y-15.658 E0.03841
G1 X2.144 Y-15.974 E0.03836
G1 X2.874 Y-16.216 E0.03837
G1 X3.625 Y-16.381 E0.03836
G1 X4.389 Y-16.468 E0.03836
G1 X5.036 Y-16.478 E0.03228
G1 X5.404 Y-16.468 E0.01837
G1 X6.171 Y-16.407 E0.03839
G1 X6.927 Y-16.267 E0.03836
G1 X7.665 Y-16.05 E0.03838
G1 X8.376 Y-15.756 E0.03838
G1 X9.053 Y-15.391 E0.03837
G1 X9.688 Y-14.957 E0.03837
G1 X10.275 Y-14.46 E0.03837
G1 X10.807 Y-13.904 E0.03839
G1 X11.278 Y-13.297 E0.03833
G1 X11.684 Y-12.643 E0.0384
G1 X12.02 Y-11.951 E0.03838
G1 X12.282 Y-11.228 E0.03837
G1 X12.514 Y-10.212 E0.05199
G1 X12.568 Y-9.866 E0.01747
G1 X12.656 Y-8.842 E0.05128
G1 X12.666 Y-8.17 E0.03353
G1 X12.669 Y-6.751 E0.07079
G1 F3600 X12.269 Y-6.751
G1 F1800 X12.268 Y9.241 E0.79784
G1 X12.258 Y9.61 E0.01842
G1 X12.231 Y10.121 E0.02553
G1 X12.152 Y10.865 E0.03733
G1 X11.994 Y11.596 E0.03731
G1 X11.758 Y12.306 E0.03733
G1 X11.36 Y13.152 E0.04664
G1 X11.32 Y13.224 E0.00411
G1 X10.922 Y13.857 E0.0373
G1 X10.459 Y14.445 E0.03734
G1 X9.936 Y14.979 E0.03729
G1 X9.359 Y15.455 E0.03732
G1 X8.734 Y15.867 E0.03735
G1 X8.069 Y16.209 E0.03731
G1 X7.372 Y16.479 E0.03729
G1 X6.649 Y16.673 E0.03735
G1 X5.91 Y16.788 E0.03731
G1 X5.025 Y16.822 E0.04419
G1 X4.627 Y16.812 E0.01986
G1 X3.881 Y16.753 E0.03733
G1 X3.146 Y16.615 E0.03731
G1 X2.43 Y16.399 E0.03731
G1 X1.741 Y16.109 E0.0373
G1 X1.086 Y15.746 E0.03736
G1 X0.475 Y15.315 E0.0373
G1 X-0.004 Y14.896 E0.03175
G1 X-.144 Y15.036 E0.00988
G1 X-.727 Y15.505 E0.03733
G1 X-1.356 Y15.909 E0.0373
G1 X-2.025 Y16.244 E0.03733
G1 X-2.726 Y16.505 E0.03732
G1 X-3.451 Y16.69 E0.03733
G1 X-4.191 Y16.797 E0.0373
G1 X-4.908 Y16.824 E0.0358
G1 X-5.297 Y16.819 E0.01941
G1 X-6.043 Y16.77 E0.0373
G1 X-6.78 Y16.641 E0.03733
G1 X-7.499 Y16.434 E0.03733
G1 X-8.192 Y16.152 E0.03733
G1 X-8.851 Y15.797 E0.03734
G1 X-9.468 Y15.374 E0.03732
G1 X-10.036 Y14.888 E0.0373
G1 X-10.549 Y14.343 E0.03734
G1 X-11.001 Y13.748 E0.03728
G1 X-11.387 Y13.107 E0.03733
G1 X-11.703 Y12.428 E0.03736
G1 X-11.992 Y11.541 E0.04654
G1 X-12.045 Y11.332 E0.01076
G1 X-12.19 Y10.598 E0.03733
G1 X-12.259 Y9.699 E0.04498
G1 X-12.268 Y8.978 E0.03597
G1 X-12.268 Y-7.836 E0.83885
G1 X-12.264 Y-8.527 E0.03447
G1 X-12.253 Y-8.877 E0.01747
G1 X-12.225 Y-9.378 E0.02503
G1 X-12.144 Y-10.121 E0.03729
G1 X-11.983 Y-10.852 E0.03734
G1 X-11.745 Y-11.561 E0.03731
G1 X-11.434 Y-12.241 E0.03731
G1 X-11.034 Y-12.909 E0.03884
G1 X-10.965 Y-13.011 E0.00614
G1 X-10.513 Y-13.607 E0.03732
G1 X-10.001 Y-14.152 E0.03731
G1 X-9.433 Y-14.639 E0.03733
G1 X-8.816 Y-15.063 E0.03735
G1 X-8.158 Y-15.418 E0.0373
G1 X-7.465 Y-15.701 E0.03735
G1 X-6.747 Y-15.908 E0.03728
G1 X-6.01 Y-16.038 E0.03734
G1 X-5.263 Y-16.088 E0.03735
G1 X-4.438 Y-16.06 E0.04118
G1 X-3.694 Y-15.98 E0.03733
G1 X-2.963 Y-15.821 E0.03732
G1 X-2.253 Y-15.586 E0.03731
G1 X-1.572 Y-15.275 E0.03735
G1 X-.929 Y-14.894 E0.03729
G1 X-.329 Y-14.446 E0.03736
G1 X0.003 Y-14.138 E0.02259
G1 X0.474 Y-14.557 E0.03145
G1 X1.084 Y-14.991 E0.03735
G1 X1.736 Y-15.358 E0.03733
G1 X2.423 Y-15.652 E0.03728
G1 X3.138 Y-15.872 E0.03732
G1 X3.873 Y-16.015 E0.03736
G1 X4.618 Y-16.078 E0.0373
G1 X5.393 Y-16.068 E0.03867
G1 X6.139 Y-16.008 E0.03734
G1 X6.874 Y-15.869 E0.03732
G1 X7.59 Y-15.652 E0.03733
G1 X8.278 Y-15.359 E0.03731
G1 X8.932 Y-14.995 E0.03734
G1 X9.543 Y-14.564 E0.0373
G1 X10.104 Y-14.069 E0.03733
G1 X10.609 Y-13.518 E0.03729
G1 X11.053 Y-12.915 E0.03736
G1 X11.43 Y-12.269 E0.03732
G1 X11.735 Y-11.586 E0.03732
G1 X11.967 Y-10.875 E0.03731
G1 X12.119 Y-10.15 E0.03696
G1 X12.173 Y-9.804 E0.01747
G1 X12.256 Y-8.835 E0.04852
G1 X12.266 Y-8.169 E0.03323
G1 X12.269 Y-6.751 E0.07074
G1 F3600 X11.869 Y-6.751
G1 F1800 X11.868 Y9.241 E0.79784
G1 X11.859 Y9.589 E0.01737
G1 X11.832 Y10.1 E0.02553
G1 X11.754 Y10.822 E0.03623
G1 X11.597 Y11.532 E0.03628
G1 X11.363 Y12.219 E0.03621
G1 X11.01 Y12.957 E0.04081
G1 X10.97 Y13.029 E0.00411
G1 X10.583 Y13.644 E0.03625
G1 X10.131 Y14.212 E0.03622
G1 X9.619 Y14.727 E0.03623
G1 X9.053 Y15.183 E0.03626
G1 X8.441 Y15.574 E0.03623
G1 X7.79 Y15.895 E0.03621
G1 X7.107 Y16.143 E0.03625
G1 X6.401 Y16.314 E0.03624
G1 X5.68 Y16.407 E0.03627
G1 X5.035 Y16.422 E0.03219
G1 X4.637 Y16.412 E0.01986
G1 X3.913 Y16.354 E0.03624
G1 X3.2 Y16.216 E0.03623
G1 X2.506 Y16.001 E0.03625
G1 X1.84 Y15.712 E0.03622
G1 X1.21 Y15.35 E0.03625
G1 X0.623 Y14.922 E0.03624
G1 X0.087 Y14.432 E0.03623
G1 X0.00 Y14.332 E0.00661
G1 X-.474 Y14.794 E0.03302
G1 X-1.046 Y15.241 E0.03622
G1 X-1.664 Y15.623 E0.03625
G1 X-2.321 Y15.934 E0.03626
G1 X-3.007 Y16.172 E0.03623
G1 X-3.715 Y16.332 E0.03621
G1 X-4.437 Y16.414 E0.03625
G1 X-5.292 Y16.419 E0.04266
G1 X-6.017 Y16.37 E0.03625
G1 X-6.731 Y16.242 E0.03619
G1 X-7.428 Y16.035 E0.03627
G1 X-8.097 Y15.753 E0.03622
G1 X-8.732 Y15.4 E0.03625
G1 X-9.324 Y14.979 E0.03624
G1 X-9.866 Y14.495 E0.03625
G1 X-10.351 Y13.955 E0.03621
G1 X-10.774 Y13.365 E0.03622
G1 X-11.13 Y12.731 E0.03628
G1 X-11.414 Y12.063 E0.03621
G1 X-11.605 Y11.442 E0.03241
G1 X-11.658 Y11.233 E0.01076
G1 X-11.797 Y10.521 E0.03619
G1 X-11.859 Y9.694 E0.04137
G1 X-11.868 Y8.978 E0.03572
G1 X-11.868 Y-7.833 E0.8387
G1 X-11.864 Y-8.524 E0.03447
G1 X-11.854 Y-8.854 E0.01647
G1 X-11.826 Y-9.355 E0.02503
G1 X-11.745 Y-10.077 E0.03625
G1 X-11.586 Y-10.786 E0.03625
G1 X-11.35 Y-11.473 E0.03624
G1 X-11.04 Y-12.13 E0.03624
G1 X-10.703 Y-12.685 E0.03239
G1 X-10.634 Y-12.787 E0.00614
G1 X-10.194 Y-13.365 E0.03624
G1 X-9.694 Y-13.892 E0.03624
G1 X-9.139 Y-14.36 E0.03622
G1 X-8.535 Y-14.765 E0.03628
G1 X-7.891 Y-15.101 E0.03624
G1 X-7.214 Y-15.363 E0.03622
G1 X-6.512 Y-15.55 E0.03624
G1 X-5.794 Y-15.659 E0.03623
G1 X-4.814 Y-15.68 E0.0489
G1 X-4.459 Y-15.661 E0.01774
G1 X-3.737 Y-15.582 E0.03624
G1 X-3.028 Y-15.424 E0.03624
G1 X-2.341 Y-15.19 E0.03621
G1 X-1.683 Y-14.881 E0.03627
G1 X-1.063 Y-14.502 E0.03625
G1 X-.489 Y-14.057 E0.03623
G1 X0.012 Y-13.572 E0.03479
G1 X0.241 Y-13.82 E0.01684
G1 X0.79 Y-14.296 E0.03625
G1 X1.387 Y-14.709 E0.03622
G1 X2.027 Y-15.054 E0.03627
G1 X2.7 Y-15.326 E0.03621
G1 X3.399 Y-15.523 E0.03623
G1 X4.116 Y-15.642 E0.03626
G1 X5.014 Y-15.679 E0.04484
G1 X5.382 Y-15.669 E0.01837
G1 X6.106 Y-15.609 E0.03624
G1 X6.819 Y-15.47 E0.03624
G1 X7.513 Y-15.254 E0.03626
G1 X8.178 Y-14.962 E0.03623
G1 X8.807 Y-14.6 E0.03621
G1 X9.393 Y-14.17 E0.03626
G1 X9.928 Y-13.679 E0.03623
G1 X10.406 Y-13.132 E0.03624
G1 X10.821 Y-12.536 E0.03623
G1 X11.167 Y-11.897 E0.03625
G1 X11.442 Y-11.225 E0.03622
G1 X11.641 Y-10.526 E0.03626
G1 X11.778 Y-9.743 E0.03966
G1 X11.856 Y-8.829 E0.04577
G1 X11.866 Y-8.168 E0.03298
G1 X11.869 Y-6.751 E0.07069
G1 F3600 X11.469 Y-6.751
G1 F1800 X11.468 Y9.241 E0.79784
G1 X11.459 Y9.568 E0.01632
G1 X11.432 Y10.079 E0.02553
G1 X11.355 Y10.779 E0.03513
G1 X11.2 Y11.465 E0.03509
G1 X10.967 Y12.13 E0.03515
G1 X10.661 Y12.763 E0.03508
G1 X10.621 Y12.835 E0.00411
G1 X10.245 Y13.43 E0.03512
G1 X9.803 Y13.978 E0.03512
G1 X9.303 Y14.473 E0.0351
G1 X8.749 Y14.908 E0.03514
G1 X8.15 Y15.278 E0.03513
G1 X7.513 Y15.577 E0.03511
G1 X6.845 Y15.802 E0.03517
G1 X6.157 Y15.95 E0.03511
G1 X5.457 Y16.019 E0.03509
G1 X4.647 Y16.012 E0.04041
G1 X3.946 Y15.954 E0.03509
G1 X3.255 Y15.818 E0.03514
G1 X2.584 Y15.603 E0.03515
G1 X1.942 Y15.315 E0.0351
G1 X1.337 Y14.955 E0.03512
G1 X0.777 Y14.529 E0.0351
G1 X0.268 Y14.042 E0.03515
G1 X-0.003 Y13.716 E0.02115
G1 X-.293 Y14.064 E0.0226
G1 X-.803 Y14.549 E0.03511
G1 X-1.364 Y14.974 E0.03511
G1 X-1.97 Y15.332 E0.03512
G1 X-2.613 Y15.62 E0.03515
G1 X-3.284 Y15.832 E0.03511
G1 X-3.975 Y15.967 E0.03513
G1 X-4.898 Y16.024 E0.04614
G1 X-5.287 Y16.019 E0.01941
G1 X-5.989 Y15.97 E0.03511
G1 X-6.681 Y15.842 E0.03511
G1 X-7.354 Y15.636 E0.03511
G1 X-8 Y15.355 E0.03515
G1 X-8.609 Y15.003 E0.03509
G1 X-9.175 Y14.584 E0.03513
G1 X-9.689 Y14.103 E0.03512
G1 X-10.146 Y13.568 E0.0351
G1 X-10.539 Y12.984 E0.03512
G1 X-10.863 Y12.359 E0.03512
G1 X-11.115 Y11.701 E0.03515
G1 X-11.27 Y11.135 E0.02928
G1 X-11.404 Y10.444 E0.03512
G1 X-11.46 Y9.689 E0.03777
G1 X-11.468 Y9.056 E0.03158
G1 X-11.468 Y-7.831 E0.8425
G1 X-11.464 Y-8.522 E0.03447
G1 X-11.454 Y-8.832 E0.01547
G1 X-11.426 Y-9.333 E0.02503
G1 X-11.347 Y-10.032 E0.0351
G1 X-11.189 Y-10.719 E0.03517
G1 X-10.955 Y-11.382 E0.03508
G1 X-10.646 Y-12.015 E0.03514
G1 X-10.371 Y-12.461 E0.02614
G1 X-10.302 Y-12.563 E0.00614
G1 X-9.875 Y-13.123 E0.03513
G1 X-9.388 Y-13.63 E0.03507
G1 X-8.846 Y-14.08 E0.03515
G1 X-8.256 Y-14.465 E0.03515
G1 X-7.627 Y-14.78 E0.0351
G1 X-6.966 Y-15.022 E0.03512
G1 X-6.282 Y-15.188 E0.03512
G1 X-5.583 Y-15.275 E0.03514
G1 X-4.836 Y-15.28 E0.03727
G1 X-4.481 Y-15.261 E0.01774
G1 X-3.781 Y-15.184 E0.03513
G1 X-3.095 Y-15.027 E0.03511
G1 X-2.43 Y-14.794 E0.03515
G1 X-1.797 Y-14.487 E0.0351
G1 X-1.202 Y-14.111 E0.03512
G1 X-.654 Y-13.669 E0.03512
G1 X-.159 Y-13.168 E0.03514
G1 X0.005 Y-12.959 E0.01325
G1 X0.084 Y-13.065 E0.0066
G1 X0.567 Y-13.578 E0.03515
G1 X1.104 Y-14.033 E0.03511
G1 X1.689 Y-14.424 E0.0351
G1 X2.315 Y-14.746 E0.03512
G1 X2.974 Y-14.995 E0.03515
G1 X3.656 Y-15.168 E0.0351
G1 X4.354 Y-15.262 E0.03514
G1 X5.003 Y-15.279 E0.03239
G1 X5.371 Y-15.269 E0.01837
G1 X6.073 Y-15.21 E0.03515
G1 X6.763 Y-15.071 E0.03512
G1 X7.433 Y-14.856 E0.03511
G1 X8.075 Y-14.566 E0.03515
G1 X8.679 Y-14.205 E0.03511
G1 X9.239 Y-13.778 E0.03513
G1 X9.746 Y-13.29 E0.03511
G1 X10.195 Y-12.748 E0.03511
G1 X10.58 Y-12.158 E0.03515
G1 X10.895 Y-11.528 E0.03514
G1 X11.137 Y-10.867 E0.03512
G1 X11.329 Y-10.027 E0.04299
G1 X11.383 Y-9.681 E0.01747
G1 X11.456 Y-8.823 E0.04296
G1 X11.466 Y-8.167 E0.03273
G1 X11.469 Y-6.751 E0.07064
G1 F3600 X11.069 Y-6.751
G1 F1800 X11.068 Y9.241 E0.79784
G1 X11.06 Y9.547 E0.01527
G1 X11.033 Y10.058 E0.02553
G1 X10.957 Y10.735 E0.03399
G1 X10.803 Y11.398 E0.03396
G1 X10.571 Y12.038 E0.03396
G1 X10.311 Y12.569 E0.0295
G1 X10.271 Y12.641 E0.00411
G1 X9.906 Y13.215 E0.03394
G1 X9.476 Y13.744 E0.03401
G1 X8.987 Y14.218 E0.03398
G1 X8.446 Y14.631 E0.03396
G1 X7.861 Y14.978 E0.03393
G1 X7.238 Y15.254 E0.034
G1 X6.588 Y15.456 E0.03396
G1 X5.918 Y15.579 E0.03399
G1 X5.055 Y15.622 E0.04311
G1 X4.657 Y15.612 E0.01986
G1 X3.979 Y15.555 E0.03394
G1 X3.312 Y15.419 E0.03396
