;FLAVOR:Marlin
;TIME:2065
;Filament used: 0.253777m
;Layer height: 0.1
;MINX:66.962
;MINY:83.352
;MINZ:0.3
;MAXX:138.023
;MAXY:121.648
;MAXZ:4.5
;Generated with Cura_SteamEngine 4.7.1
M140 S60
M105
M190 S60
M104 S200
M105
M109 S200
M82 ;absolute extrusion mode
G21 ;metric values
G90 ;absolute positioning
M82 ;set extruder to absolute mode
M107 ;start with the fan off
G28 X0 Y0 ;move X/Y to min endstops
G28 Z0 ;move Z to min endstops
G1 Z15.0 F9000 ;move the platform down 15mm
G92 E0 ;zero the extruded length
G1 F200 E6 ;extrude 6 mm of feed stock
G92 E0 ;zero the extruded length again
G1 Y50 F9000
;Put printing message on LCD screen
M117 Printing...
G92 E0
G92 E0
G1 F1500 E-6.5
;LAYER_COUNT:43
;LAYER:0
M107
G0 F3600 X70.322 Y85.497 Z0.3
;TYPE:SKIRT
G1 F1500 E0
G1 F1800 X70.943 Y85.008 E0.01487
G1 X71.61 Y84.586 E0.02972
G1 X72.388 Y84.201 E0.04604
G1 X72.81 Y84.021 E0.05467
G1 X73.551 Y83.749 E0.06952
G1 X74.316 Y83.552 E0.08438
G1 X75.121 Y83.432 E0.09969
G1 X75.577 Y83.388 E0.10831
G1 X76.326 Y83.352 E0.12241
G1 X79.116 Y83.352 E0.1749
G1 X79.905 Y83.392 E0.18976
G1 X80.758 Y83.527 E0.206
G1 X81.357 Y83.656 E0.21753
G1 X82.12 Y83.861 E0.23239
G1 X82.858 Y84.142 E0.24724
G1 X83.563 Y84.496 E0.26208
G1 X84.147 Y84.86 E0.27503
G1 X84.316 Y84.749 E0.27883
G1 X84.998 Y84.351 E0.29368
G1 X85.717 Y84.024 E0.30854
G1 X86.539 Y83.752 E0.32483
G1 X86.978 Y83.633 E0.33338
G1 X87.75 Y83.465 E0.34825
G1 X88.745 Y83.366 E0.36705
G1 X89.275 Y83.352 E0.37703
G1 X92.053 Y83.352 E0.42928
G1 X92.842 Y83.392 E0.44414
G1 X93.758 Y83.527 E0.46156
G1 X94.531 Y83.693 E0.47643
G1 X95.282 Y83.936 E0.49128
G1 X95.379 Y83.979 E0.49328
G1 X95.954 Y83.925 E0.50414
G1 X96.546 Y83.903 E0.51528
G1 X97.978 Y83.903 E0.54222
G1 X98.767 Y83.943 E0.55708
G1 X99.612 Y84.067 E0.57315
G1 X100.12 Y84.177 E0.58292
G1 X100.836 Y84.025 E0.59669
G1 X101.433 Y83.954 E0.608
G1 X101.741 Y83.929 E0.61381
G1 X102.372 Y83.903 E0.62569
G1 X104.186 Y83.903 E0.65982
G1 X104.985 Y83.944 E0.67486
G1 X105.675 Y83.903 E0.68787
G1 X107.651 Y83.903 E0.72504
G1 X108.44 Y83.943 E0.7399
G1 X109.287 Y84.067 E0.756
G1 X110.059 Y84.235 E0.77086
G1 X110.81 Y84.479 E0.78571
G1 X111.585 Y84.825 E0.80168
G1 X111.634 Y84.849 E0.80271
G1 X112.416 Y84.517 E0.81869
G1 X112.77 Y84.389 E0.82577
G1 X113.525 Y84.158 E0.84062
G1 X114.3 Y84.005 E0.85548
G1 X114.853 Y83.945 E0.86594
G1 X115.14 Y83.924 E0.87136
G1 X115.709 Y83.903 E0.88207
G1 X117.484 Y83.903 E0.91545
G1 X118.273 Y83.943 E0.93032
G1 X118.656 Y83.994 E0.93758
G1 X119.054 Y83.923 E0.94519
G1 X119.568 Y83.849 E0.95496
G1 X120.004 Y83.798 E0.96321
G1 X120.568 Y83.749 E0.97386
G1 X120.923 Y83.727 E0.98055
G1 X121.484 Y83.704 E0.99112
G1 X122.114 Y83.696 E1.00297
G1 X122.363 Y83.699 E1.00765
G1 X122.95 Y83.716 E1.0187
G1 X123.529 Y83.753 E1.02961
G1 X124.085 Y83.804 E1.04011
G1 X124.76 Y83.892 E1.05292
G1 X125.286 Y83.98 E1.06295
G1 X125.985 Y84.124 E1.07637
G1 X126.484 Y84.248 E1.08605
G1 X127.011 Y84.399 E1.09636
G1 X127.584 Y84.585 E1.10769
G1 X128.261 Y84.84 E1.1213
G1 X128.809 Y85.076 E1.13252
G1 X129.457 Y85.391 E1.14608
G1 X129.978 Y85.675 E1.15724
G1 X130.617 Y86.065 E1.17132
G1 X131.106 Y86.396 E1.18243
G1 X131.783 Y86.91 E1.19842
G1 X132.234 Y87.293 E1.20955
G1 X132.902 Y87.932 E1.22693
G1 X133.302 Y88.363 E1.238
G1 X133.923 Y89.123 E1.25646
G1 X134.273 Y89.611 E1.26775
G1 X134.798 Y90.451 E1.28639
G1 X135.088 Y90.988 E1.29787
G1 X135.483 Y91.837 E1.31548
G1 X135.707 Y92.406 E1.32698
G1 X135.993 Y93.28 E1.34428
G1 X136.151 Y93.881 E1.35597
G1 X136.32 Y94.699 E1.37168
G1 X136.415 Y95.328 E1.38365
G1 X136.476 Y95.847 E1.39348
G1 X136.508 Y96.294 E1.40191
G1 X136.53 Y96.815 E1.41172
G1 X136.532 Y97.424 E1.42317
G1 X136.509 Y98.065 E1.43524
G1 X136.424 Y98.965 E1.45224
G1 X136.334 Y99.553 E1.46343
G1 X136.125 Y100.51 E1.48186
G1 X136.018 Y100.885 E1.48919
G1 X136.252 Y101.262 E1.49754
G1 X136.545 Y101.848 E1.50986
G1 X137.254 Y103.431 E1.54249
G1 X137.54 Y104.167 E1.55735
G1 X137.763 Y104.949 E1.57264
G1 X137.93 Y105.721 E1.5875
G1 X138.018 Y106.506 E1.60236
G1 X138.023 Y107.376 E1.61872
G1 X138.004 Y107.752 E1.62581
G1 X137.924 Y108.537 E1.64065
G1 X137.766 Y109.311 E1.65551
G1 X137.505 Y110.129 E1.67166
G1 X137.372 Y110.479 E1.6787
G1 X137.055 Y111.202 E1.69355
G1 X136.666 Y111.889 E1.7084
G1 X136.136 Y112.625 E1.72546
G1 X135.894 Y112.923 E1.73268
G1 X135.366 Y113.51 E1.74754
G1 X134.781 Y114.041 E1.7624
G1 X133.891 Y114.671 E1.78291
G1 X133.437 Y114.947 E1.7929
G1 X132.612 Y115.383 E1.81046
G1 X132.141 Y115.597 E1.82019
G1 X131.741 Y115.766 E1.82835
G1 X131.255 Y115.955 E1.83816
G1 X130.823 Y116.108 E1.84678
G1 X130.327 Y116.268 E1.85659
G1 X129.875 Y116.399 E1.86544
G1 X129.358 Y116.532 E1.87548
G1 X128.814 Y116.652 E1.88596
G1 X128.249 Y116.755 E1.89676
G1 X127.732 Y116.831 E1.90659
G1 X127.143 Y116.898 E1.91774
G1 X126.677 Y116.937 E1.92654
G1 X126.059 Y116.97 E1.93818
G1 X125.609 Y116.981 E1.94665
G1 X124.919 Y116.978 E1.95963
G1 X124.225 Y116.944 E1.9727
G1 X123.468 Y116.873 E1.987
G1 X122.654 Y116.753 E2.00248
G1 X121.915 Y116.604 E2.01666
G1 X121.123 Y116.401 E2.03204
G1 X120.412 Y116.178 E2.04606
G1 X119.585 Y115.865 E2.06269
G1 X119.524 Y115.898 E2.06399
G1 X118.798 Y116.207 E2.07884
G1 X118.044 Y116.441 E2.09369
G1 X117.472 Y116.565 E2.1047
G1 X116.941 Y116.659 E2.11484
G1 X116.157 Y116.757 E2.1297
G1 X115.581 Y116.778 E2.14054
G1 X113.686 Y116.778 E2.17619
G1 X112.897 Y116.738 E2.19105
G1 X112.052 Y116.614 E2.20712
G1 X111.28 Y116.447 E2.22197
G1 X110.529 Y116.203 E2.23683
G1 X110.465 Y116.174 E2.23815
G1 X110.23 Y116.262 E2.24287
G1 X109.477 Y116.501 E2.25773
G1 X108.704 Y116.661 E2.27258
G1 X108.066 Y116.734 E2.28466
G1 X107.733 Y116.758 E2.29094
G1 X107.172 Y116.778 E2.3015
G1 X104.41 Y116.778 E2.35345
G1 X103.621 Y116.738 E2.36831
G1 X102.776 Y116.614 E2.38438
G1 X102.004 Y116.447 E2.39923
G1 X101.253 Y116.203 E2.41409
G1 X100.475 Y115.856 E2.43011
G1 X100.352 Y115.793 E2.43271
G1 X100.206 Y115.863 E2.43576
G1 X100.107 Y116.118 E2.4409
G1 X99.714 Y116.878 E2.457
G1 X99.482 Y117.272 E2.4656
G1 X99.048 Y117.931 E2.48044
G1 X98.549 Y118.543 E2.4953
G1 X97.922 Y119.162 E2.51187
G1 X97.573 Y119.47 E2.52062
G1 X96.955 Y119.962 E2.53548
G1 X96.291 Y120.389 E2.55033
G1 X95.487 Y120.79 E2.56723
G1 X95.065 Y120.971 E2.57587
G1 X94.324 Y121.246 E2.59074
G1 X93.56 Y121.443 E2.60558
G1 X92.748 Y121.566 E2.62103
G1 X92.287 Y121.611 E2.62974
G1 X91.529 Y121.648 E2.64402
G1 X88.752 Y121.648 E2.69625
G1 X87.963 Y121.608 E2.71111
G1 X87.045 Y121.473 E2.72857
G1 X86.273 Y121.307 E2.74342
G1 X85.522 Y121.064 E2.75827
G1 X84.734 Y120.713 E2.7745
G1 X84.38 Y120.531 E2.78198
G1 X84.117 Y120.682 E2.78769
G1 X83.396 Y121.003 E2.80253
G1 X82.537 Y121.279 E2.81951
G1 X82.096 Y121.393 E2.82807
G1 X81.323 Y121.551 E2.84292
G1 X80.37 Y121.638 E2.86092
G1 X79.903 Y121.648 E2.8697
G1 X77.125 Y121.648 E2.92196
G1 X76.336 Y121.608 E2.93682
G1 X75.42 Y121.473 E2.95424
G1 X74.647 Y121.307 E2.96911
G1 X73.896 Y121.064 E2.98396
G1 X73.113 Y120.716 E3.00007
G1 X72.703 Y120.506 E3.00874
G1 X72.019 Y120.111 E3.0236
G1 X71.379 Y119.649 E3.03844
G1 X70.726 Y119.062 E3.05496
G1 X70.407 Y118.741 E3.06347
G1 X69.88 Y118.154 E3.07831
G1 X69.414 Y117.516 E3.09317
G1 X68.991 Y116.785 E3.10906
G1 X68.782 Y116.375 E3.11772
G1 X68.459 Y115.655 E3.13256
G1 X68.211 Y114.905 E3.14742
G1 X68.029 Y114.069 E3.16351
G1 X67.956 Y113.614 E3.17218
G1 X67.871 Y112.829 E3.18704
G1 X67.865 Y112.039 E3.2019
G1 X67.956 Y111.148 E3.21874
G1 X68.029 Y110.691 E3.22745
G1 X68.193 Y109.918 E3.24231
G1 X68.434 Y109.166 E3.25717
G1 X68.649 Y108.652 E3.26765
G1 X68.793 Y108.34 E3.27411
G1 X69.232 Y107.521 E3.29159
G1 X71.919 Y103.155 E3.38803
G1 X68.391 Y97.572 E3.51226
G1 X68.004 Y96.883 E3.52712
G1 X67.641 Y96.072 E3.54383
G1 X67.365 Y95.332 E3.55869
G1 X67.166 Y94.568 E3.57354
G1 X67.037 Y93.697 E3.5901
G1 X66.995 Y93.239 E3.59876
G1 X66.962 Y92.45 E3.61361
G1 X67.01 Y91.662 E3.62846
G1 X67.155 Y90.803 E3.64485
G1 X67.257 Y90.353 E3.65353
G1 X67.47 Y89.592 E3.66839
G1 X67.759 Y88.858 E3.68323
G1 X68.146 Y88.114 E3.69901
G1 X68.379 Y87.719 E3.70763
G1 X68.814 Y87.06 E3.72249
G1 X69.313 Y86.448 E3.73734
G1 X69.971 Y85.803 E3.75467
G1 X70.322 Y85.497 E3.76343
G0 F3600 X70.585 Y85.798
G1 F1800 X71.19 Y85.323 E3.7779
G1 X71.842 Y84.914 E3.79238
G1 X72.545 Y84.569 E3.80711
G1 X72.967 Y84.389 E3.81574
G1 X73.689 Y84.125 E3.8302
G1 X74.435 Y83.937 E3.84467
G1 X75.159 Y83.83 E3.85844
G1 X75.615 Y83.786 E3.86705
G1 X76.326 Y83.752 E3.88044
G1 X79.116 Y83.752 E3.93292
G1 X79.884 Y83.792 E3.94739
G1 X80.674 Y83.918 E3.96244
G1 X81.273 Y84.047 E3.97396
G1 X82.015 Y84.248 E3.98843
G1 X82.733 Y84.524 E4.00289
G1 X83.418 Y84.874 E4.01736
G1 X84.138 Y85.331 E4.03341
G1 X84.535 Y85.084 E4.0422
G1 X85.2 Y84.697 E4.05667
G1 X85.901 Y84.382 E4.07113
G1 X86.644 Y84.138 E4.08584
G1 X87.083 Y84.019 E4.0944
G1 X87.835 Y83.856 E4.10887
G1 X88.759 Y83.766 E4.12633
G1 X89.275 Y83.752 E4.13604
G1 X92.053 Y83.752 E4.1883
G1 X92.821 Y83.792 E4.20277
G1 X93.694 Y83.922 E4.21937
G1 X94.446 Y84.084 E4.23384
G1 X95.177 Y84.324 E4.24831
G1 X95.318 Y84.387 E4.25122
G1 X95.985 Y84.324 E4.26382
G1 X96.546 Y84.303 E4.27438
G1 X97.978 Y84.303 E4.30132
G1 X98.746 Y84.343 E4.31578
G1 X99.547 Y84.462 E4.33101
G1 X100.129 Y84.588 E4.34222
G1 X100.185 Y84.57 E4.34332
G1 X100.939 Y84.414 E4.35781
G1 X101.465 Y84.352 E4.36777
G1 X101.773 Y84.327 E4.37358
G1 X102.372 Y84.303 E4.38486
G1 X104.186 Y84.303 E4.41898
G1 X104.954 Y84.343 E4.43345
G1 X104.97 Y84.345 E4.43375
G1 X105.675 Y84.303 E4.44703
G1 X107.651 Y84.303 E4.4842
G1 X108.419 Y84.343 E4.49867
G1 X109.223 Y84.462 E4.51396
G1 X109.974 Y84.626 E4.52842
G1 X110.704 Y84.867 E4.54288
G1 X111.402 Y85.181 E4.55728
G1 X111.64 Y85.303 E4.56231
G1 X111.846 Y85.19 E4.56673
G1 X112.552 Y84.893 E4.58113
G1 X112.906 Y84.765 E4.58822
G1 X113.642 Y84.541 E4.60269
G1 X114.397 Y84.395 E4.61715
G1 X115.169 Y84.323 E4.63174
G1 X115.709 Y84.303 E4.6419
G1 X117.484 Y84.303 E4.67529
G1 X118.252 Y84.343 E4.68976
G1 X118.664 Y84.399 E4.69758
G1 X119.111 Y84.319 E4.70612
G1 X119.625 Y84.245 E4.71589
G1 X120.039 Y84.197 E4.72373
G1 X120.603 Y84.148 E4.73438
G1 X120.94 Y84.126 E4.74073
G1 X121.501 Y84.103 E4.75129
G1 X122.115 Y84.096 E4.76284
G1 X122.351 Y84.099 E4.76728
G1 X122.938 Y84.116 E4.77833
G1 X123.493 Y84.151 E4.78879
G1 X124.049 Y84.202 E4.79929
G1 X124.694 Y84.286 E4.81153
G1 X125.22 Y84.374 E4.82156
G1 X125.889 Y84.512 E4.83441
G1 X126.388 Y84.636 E4.84408
G1 X126.888 Y84.78 E4.85387
G1 X127.461 Y84.966 E4.8652
G1 X128.103 Y85.207 E4.8781
G1 X128.651 Y85.443 E4.88932
G1 X129.266 Y85.743 E4.90219
G1 X129.787 Y86.027 E4.91335
G1 X130.393 Y86.396 E4.9267
G1 X130.882 Y86.727 E4.93781
G1 X131.524 Y87.214 E4.95297
G1 X131.975 Y87.597 E4.9641
G1 X132.609 Y88.204 E4.98061
G1 X133.009 Y88.635 E4.99167
G1 X133.598 Y89.356 E5.00918
G1 X133.948 Y89.844 E5.02048
G1 X134.446 Y90.641 E5.03815
G1 X134.736 Y91.178 E5.04963
G1 X135.111 Y91.983 E5.06634
G1 X135.335 Y92.552 E5.07784
G1 X135.606 Y93.382 E5.09427
G1 X135.764 Y93.983 E5.10595
G1 X135.924 Y94.759 E5.12086
G1 X136.019 Y95.388 E5.13282
G1 X136.078 Y95.887 E5.14228
G1 X136.108 Y96.311 E5.15027
G1 X136.13 Y96.832 E5.16008
G1 X136.132 Y97.409 E5.17094
G1 X136.109 Y98.05 E5.183
G1 X136.029 Y98.905 E5.19915
G1 X135.939 Y99.493 E5.21034
G1 X135.741 Y100.401 E5.22782
G1 X135.586 Y100.946 E5.23848
G1 X135.912 Y101.473 E5.25014
G1 X136.18 Y102.011 E5.26145
G1 X136.889 Y103.594 E5.29407
G1 X137.166 Y104.312 E5.30855
G1 X137.377 Y105.053 E5.32304
G1 X137.539 Y105.805 E5.33751
G1 X137.622 Y106.57 E5.35199
G1 X137.624 Y107.355 E5.36675
G1 X137.605 Y107.731 E5.37383
G1 X137.526 Y108.497 E5.38832
G1 X137.368 Y109.249 E5.40277
G1 X137.131 Y109.987 E5.41735
G1 X136.998 Y110.337 E5.4244
G1 X136.688 Y111.04 E5.43885
G1 X136.307 Y111.708 E5.45332
G1 X135.825 Y112.373 E5.46877
G1 X135.583 Y112.671 E5.47599
G1 X135.068 Y113.242 E5.49045
G1 X134.496 Y113.757 E5.50493
G1 X133.683 Y114.329 E5.52363
G1 X133.229 Y114.605 E5.53362
G1 X132.446 Y115.019 E5.55028
G1 X131.975 Y115.233 E5.56001
G1 X131.596 Y115.393 E5.56775
G1 X131.11 Y115.582 E5.57756
G1 X130.7 Y115.728 E5.58575
G1 X130.204 Y115.888 E5.59555
G1 X129.776 Y116.012 E5.60393
G1 X129.259 Y116.145 E5.61397
G1 X128.742 Y116.258 E5.62393
G1 X128.177 Y116.361 E5.63473
G1 X127.686 Y116.434 E5.64407
G1 X127.097 Y116.501 E5.65522
G1 X126.656 Y116.537 E5.66354
G1 X126.038 Y116.57 E5.67519
G1 X125.611 Y116.581 E5.68322
G1 X124.921 Y116.578 E5.6962
G1 X124.262 Y116.546 E5.70861
G1 X123.505 Y116.475 E5.72291
G1 X122.733 Y116.361 E5.73759
G1 X121.994 Y116.212 E5.75177
G1 X121.242 Y116.019 E5.76638
G1 X120.531 Y115.796 E5.78039
G1 X119.738 Y115.496 E5.79634
G1 X119.565 Y115.419 E5.7999
G1 X119.331 Y115.547 E5.80492
G1 X118.622 Y115.845 E5.81939
G1 X117.886 Y116.068 E5.83385
G1 X117.402 Y116.171 E5.84316
G1 X116.871 Y116.265 E5.85331
G1 X116.108 Y116.359 E5.86777
G1 X115.581 Y116.378 E5.87769
G1 X113.686 Y116.378 E5.91333
G1 X112.918 Y116.338 E5.9278
G1 X112.117 Y116.219 E5.94303
G1 X111.365 Y116.056 E5.95751
G1 X110.635 Y115.815 E5.97197
G1 X110.444 Y115.756 E5.97573
G1 X110.09 Y115.888 E5.98283
G1 X109.357 Y116.119 E5.99729
G1 X108.603 Y116.272 E6.01176
G1 X108.037 Y116.335 E6.02247
G1 X107.704 Y116.359 E6.02875
G1 X107.172 Y116.378 E6.03877
G1 X104.41 Y116.378 E6.09072
G1 X103.642 Y116.338 E6.10519
G1 X102.841 Y116.219 E6.12042
G1 X102.089 Y116.056 E6.1349
G1 X101.359 Y115.815 E6.14936
G1 X100.658 Y115.5 E6.16381
G1 X100.347 Y115.34 E6.17039
G1 X99.891 Y115.572 E6.18002
G1 X99.726 Y115.99 E6.18847
G1 X99.37 Y116.675 E6.20299
G1 X99.138 Y117.069 E6.21159
G1 X98.713 Y117.71 E6.22606
G1 X98.225 Y118.305 E6.24053
G1 X97.658 Y118.862 E6.25548
G1 X97.309 Y119.17 E6.26424
G1 X96.706 Y119.649 E6.27873
G1 X96.057 Y120.062 E6.2932
G1 X95.329 Y120.423 E6.30848
G1 X94.907 Y120.604 E6.31712
G1 X94.185 Y120.87 E6.33159
G1 X93.44 Y121.06 E6.34605
G1 X92.709 Y121.168 E6.35995
G1 X92.248 Y121.213 E6.36867
G1 X91.529 Y121.248 E6.38221
G1 X88.752 Y121.248 E6.43445
G1 X87.984 Y121.208 E6.44891
G1 X87.109 Y121.078 E6.46555
G1 X86.357 Y120.915 E6.48003
G1 X85.627 Y120.675 E6.49448
G1 X84.917 Y120.357 E6.50911
G1 X84.377 Y120.071 E6.52061
G1 X83.918 Y120.334 E6.53056
G1 X83.214 Y120.644 E6.54503
G1 X82.437 Y120.891 E6.56037
G1 X81.996 Y121.005 E6.56893
G1 X81.242 Y121.159 E6.58341
G1 X80.359 Y121.238 E6.60009
G1 X79.903 Y121.248 E6.60867
G1 X77.125 Y121.248 E6.66092
G1 X76.357 Y121.208 E6.67539
G1 X75.484 Y121.078 E6.69199
G1 X74.732 Y120.916 E6.70646
G1 X74.001 Y120.676 E6.72093
G1 X73.296 Y120.36 E6.73547
G1 X72.886 Y120.15 E6.74413
G1 X72.22 Y119.765 E6.7586
G1 X71.598 Y119.312 E6.77308
G1 X71.01 Y118.78 E6.78799
G1 X70.691 Y118.459 E6.7965
G1 X70.178 Y117.886 E6.81097
G1 X69.727 Y117.263 E6.82544
G1 X69.347 Y116.604 E6.83975
G1 X69.138 Y116.194 E6.8484
G1 X68.825 Y115.491 E6.86288
G1 X68.586 Y114.76 E6.87735
G1 X68.424 Y114.005 E6.89187
G1 X68.351 Y113.55 E6.90054
G1 X68.269 Y112.786 E6.91499
G1 X68.267 Y112.016 E6.92948
G1 X68.351 Y111.211 E6.9447
G1 X68.424 Y110.754 E6.95341
G1 X68.584 Y110.002 E6.96787
G1 X68.822 Y109.27 E6.98235
G1 X69.156 Y108.508 E6.998
G1 X69.573 Y107.731 E7.01459
G1 X72.39 Y103.152 E7.11571
G1 X68.729 Y97.358 E7.24464
G1 X68.353 Y96.687 E7.2591
G1 X68.008 Y95.914 E7.27503
G1 X67.741 Y95.192 E7.28951
G1 X67.55 Y94.447 E7.30398
G1 X67.435 Y93.661 E7.31892
G1 X67.393 Y93.203 E7.32757
G1 X67.363 Y92.434 E7.34205
G1 X67.412 Y91.667 E7.3565
G1 X67.545 Y90.891 E7.37131
G1 X67.647 Y90.441 E7.37999
G1 X67.856 Y89.701 E7.39446
G1 X68.14 Y88.986 E7.40893
G1 X68.49 Y88.317 E7.42313
G1 X68.723 Y87.922 E7.43176
G1 X69.148 Y87.281 E7.44622
G1 X69.637 Y86.687 E7.4607
G1 X70.234 Y86.104 E7.47639
G1 X70.585 Y85.798 E7.48515
G0 F3600 X70.848 Y86.1
G1 F1800 X71.437 Y85.639 E7.49922
G1 X72.073 Y85.244 E7.5133
G1 X72.702 Y84.937 E7.52647
G1 X73.124 Y84.757 E7.5351
G1 X73.826 Y84.501 E7.54916
G1 X74.553 Y84.321 E7.56324
G1 X75.198 Y84.228 E7.5755
G1 X75.654 Y84.184 E7.58412
G1 X76.326 Y84.152 E7.59678
G1 X79.116 Y84.152 E7.64926
G1 X79.863 Y84.192 E7.66333
G1 X80.59 Y84.309 E7.67718
G1 X81.189 Y84.438 E7.68871
