;START_OF_HEADER
;HEADER_VERSION:0.1
;FLAVOR:Griffin
;GENERATOR.NAME:Cura_SteamEngine
;GENERATOR.VERSION:4.7.1
;GENERATOR.BUILD_DATE:2020-09-02
;TARGET_MACHINE.NAME:Ultimaker S5
;EXTRUDER_TRAIN.0.INITIAL_TEMPERATURE:200
;EXTRUDER_TRAIN.0.MATERIAL.VOLUME_USED:1429
;EXTRUDER_TRAIN.0.MATERIAL.GUID:506c9f0d-e3aa-4bd4-b2d2-23e2425b1aa9
;EXTRUDER_TRAIN.0.NOZZLE.DIAMETER:0.4
;EXTRUDER_TRAIN.0.NOZZLE.NAME:AA 0.4
;BUILD_PLATE.TYPE:glass
;BUILD_PLATE.INITIAL_TEMPERATURE:60
;BUILD_VOLUME.TEMPERATURE:28
;PRINT.TIME:2772
;PRINT.GROUPS:1
;PRINT.SIZE.MIN.X:130.333
;PRINT.SIZE.MIN.Y:101.722
;PRINT.SIZE.MIN.Z:0.2
;PRINT.SIZE.MAX.X:199.655
;PRINT.SIZE.MAX.Y:138.278
;PRINT.SIZE.MAX.Z:6.5
;END_OF_HEADER
;Generated with Cura_SteamEngine 4.7.1
T0
M82 ;absolute extrusion mode

G92 E0
M109 S200
G280 S1
G0 Z20.001
G1 F1500 E-6.5
;LAYER_COUNT:44
;LAYER:0
M107
M204 S625
M205 X10 Y10
G1 F600 Z2.2
G0 F2571.4 X198.385 Y128.995 Z2.2
M204 S500
M205 X5 Y5
;TYPE:SKIRT
G1 F600 Z0.2
G1 F1500 E0
G1 F1200 X197.721 Y129.872 E0.01448
G1 X197.222 Y130.424 E0.02428
G1 X196.666 Y130.919 E0.03408
G1 X195.938 Y131.428 E0.04578
G1 X195.482 Y131.705 E0.05281
G1 X194.578 Y132.167 E0.06617
G1 X193.623 Y132.57 E0.07982
G1 X192.855 Y132.842 E0.09055
G1 X191.842 Y133.135 E0.10444
G1 X191.04 Y133.316 E0.11526
G1 X190.182 Y133.457 E0.12671
G1 X189.527 Y133.533 E0.13539
G1 X188.613 Y133.595 E0.14746
G1 X187.957 Y133.608 E0.1561
G1 X186.885 Y133.579 E0.17022
G1 X186.036 Y133.504 E0.18144
G1 X184.46 Y133.222 E0.20252
G1 X183.008 Y132.789 E0.22247
G1 X182.045 Y132.394 E0.23618
G1 X181.498 Y132.671 E0.24425
G1 X180.811 Y132.957 E0.25405
G1 X180.097 Y133.167 E0.26385
G1 X179.028 Y133.346 E0.27812
G1 X178.102 Y133.408 E0.29034
G1 X176.187 Y133.408 E0.31556
G1 X175.066 Y133.317 E0.33037
G1 X173.967 Y133.096 E0.34513
G1 X172.975 Y132.73 E0.35905
G1 X172.427 Y132.946 E0.3668
G1 X171.717 Y133.168 E0.3766
G1 X170.576 Y133.36 E0.39184
G1 X169.703 Y133.408 E0.40335
G1 X166.911 Y133.408 E0.44011
G1 X165.79 Y133.317 E0.45492
G1 X164.691 Y133.096 E0.46968
G1 X163.985 Y132.859 E0.47949
G1 X163.053 Y132.418 E0.49306
G1 X162.859 Y132.306 E0.49601
G1 X162.027 Y132.718 E0.50824
G1 X161.778 Y133.339 E0.51705
G1 X161.233 Y134.33 E0.53194
G1 X160.821 Y134.95 E0.54174
G1 X160.345 Y135.523 E0.55155
G1 X159.498 Y136.318 E0.56685
G1 X158.914 Y136.78 E0.57665
G1 X158.284 Y137.176 E0.58645
G1 X157.242 Y137.664 E0.6016
G1 X156.544 Y137.922 E0.6114
G1 X155.822 Y138.104 E0.6212
G1 X154.781 Y138.241 E0.63503
G1 X154.061 Y138.278 E0.64452
G1 X151.254 Y138.278 E0.68148
G1 X150.142 Y138.188 E0.69617
G1 X148.959 Y137.955 E0.71205
G1 X148.253 Y137.72 E0.72185
G1 X147.242 Y137.239 E0.73659
G1 X146.877 Y137.028 E0.74214
G1 X146.194 Y137.42 E0.75251
G1 X145.512 Y137.718 E0.76231
G1 X144.395 Y138.047 E0.77764
G1 X143.665 Y138.196 E0.78745
G1 X142.665 Y138.274 E0.80066
G1 X142.435 Y138.278 E0.80369
G1 X139.627 Y138.278 E0.84066
G1 X138.517 Y138.189 E0.85532
G1 X137.334 Y137.956 E0.8712
G1 X136.628 Y137.72 E0.881
G1 X135.619 Y137.242 E0.8957
G1 X134.974 Y136.87 E0.90551
G1 X134.374 Y136.43 E0.91531
G1 X133.525 Y135.628 E0.93068
G1 X133.029 Y135.073 E0.94049
G1 X132.596 Y134.467 E0.95029
G1 X132.057 Y133.48 E0.9651
G1 X131.755 Y132.8 E0.9749
G1 X131.528 Y132.091 E0.9847
G1 X131.316 Y130.976 E0.99964
G1 X131.237 Y130.236 E1.00944
G1 X131.239 Y129.491 E1.01925
G1 X131.388 Y128.328 E1.03469
G1 X131.544 Y127.6 E1.0445
G1 X131.939 Y126.517 E1.05967
G1 X132.473 Y125.477 E1.07507
G1 X135.444 Y120.648 E1.14972
G1 X131.627 Y114.607 E1.24382
G1 X131.121 Y113.648 E1.25809
G1 X130.682 Y112.529 E1.27392
G1 X130.501 Y111.807 E1.28372
G1 X130.361 Y110.66 E1.29894
G1 X130.333 Y109.916 E1.30874
G1 X130.385 Y109.174 E1.31854
G1 X130.605 Y108.045 E1.33368
G1 X130.809 Y107.329 E1.34348
G1 X131.088 Y106.639 E1.35328
G1 X131.628 Y105.661 E1.36799
G1 X132.04 Y105.041 E1.3778
G1 X132.516 Y104.469 E1.38759
G1 X133.394 Y103.652 E1.40339
G1 X133.981 Y103.194 E1.41319
G1 X134.613 Y102.802 E1.42298
G1 X135.631 Y102.329 E1.43776
G1 X136.329 Y102.073 E1.44755
G1 X137.052 Y101.892 E1.45737
G1 X138.082 Y101.759 E1.47104
G1 X138.794 Y101.722 E1.48043
G1 X141.614 Y101.722 E1.51756
G1 X142.357 Y101.762 E1.52736
G1 X143.672 Y102.006 E1.54497
G1 X144.39 Y102.202 E1.55477
G1 X145.083 Y102.473 E1.56457
G1 X145.983 Y102.966 E1.57808
G1 X146.646 Y103.418 E1.58865
G1 X147.283 Y102.983 E1.5988
G1 X147.926 Y102.609 E1.6086
G1 X148.607 Y102.307 E1.61841
G1 X149.695 Y101.975 E1.63338
G1 X150.422 Y101.818 E1.64318
G1 X151.466 Y101.728 E1.65698
G1 X151.743 Y101.722 E1.66062
G1 X154.551 Y101.722 E1.6976
G1 X155.661 Y101.811 E1.71226
G1 X156.844 Y102.044 E1.72814
G1 X157.783 Y102.385 E1.74129
G1 X158.448 Y102.297 E1.75012
G1 X159.03 Y102.273 E1.75779
G1 X160.477 Y102.273 E1.77685
G1 X161.598 Y102.364 E1.79166
G1 X162.652 Y102.575 E1.80581
G1 X163.556 Y102.372 E1.81801
G1 X164.851 Y102.273 E1.83511
G1 X166.685 Y102.273 E1.85926
G1 X167.456 Y102.317 E1.86943
G1 X168.153 Y102.273 E1.87862
G1 X170.15 Y102.273 E1.90492
G1 X171.256 Y102.362 E1.91953
G1 X172.355 Y102.58 E1.93428
G1 X173.061 Y102.815 E1.94408
G1 X174.021 Y103.27 E1.95807
G1 X174.14 Y103.339 E1.95988
G1 X174.582 Y103.098 E1.96651
G1 X175.57 Y102.706 E1.98051
G1 X176.283 Y102.491 E1.99031
G1 X177.356 Y102.318 E2.00462
G1 X178.19 Y102.273 E2.01562
G1 X179.983 Y102.273 E2.03923
G1 X181.104 Y102.364 E2.05404
G1 X181.88 Y102.258 E2.06435
G1 X182.96 Y102.135 E2.07866
G1 X183.546 Y102.093 E2.0864
G1 X184.419 Y102.068 E2.0979
G1 X185.037 Y102.078 E2.10604
G1 X186.29 Y102.154 E2.12257
G1 X187.743 Y102.358 E2.14189
G1 X188.522 Y102.535 E2.15241
G1 X189.599 Y102.846 E2.16717
G1 X190.467 Y103.161 E2.17933
G1 X191.768 Y103.774 E2.19826
G1 X192.884 Y104.452 E2.21546
G1 X193.966 Y105.277 E2.23337
G1 X194.413 Y105.677 E2.24127
G1 X195.024 Y106.296 E2.25272
G1 X195.421 Y106.753 E2.26069
G1 X195.959 Y107.459 E2.27238
G1 X196.293 Y107.961 E2.28032
G1 X196.726 Y108.71 E2.29171
G1 X197.315 Y110 E2.31039
G1 X197.744 Y111.331 E2.3288
G1 X198.007 Y112.613 E2.34603
G1 X198.143 Y113.969 E2.36398
G1 X198.162 Y114.834 E2.37537
G1 X198.112 Y115.837 E2.38859
G1 X198.002 Y116.726 E2.40039
G1 X197.763 Y117.862 E2.41567
G1 X197.571 Y118.502 E2.42447
G1 X197.981 Y119.165 E2.43474
G1 X198.254 Y119.708 E2.44274
G1 X198.961 Y121.288 E2.46553
G1 X199.325 Y122.313 E2.47985
G1 X199.579 Y123.404 E2.4946
G1 X199.655 Y124.144 E2.5044
G1 X199.635 Y125.208 E2.51841
G1 X199.558 Y125.948 E2.52821
G1 X199.401 Y126.676 E2.53801
G1 X199.059 Y127.67 E2.55185
G1 X198.758 Y128.35 E2.56165
G1 X198.385 Y128.995 E2.57146
M204 S625
M205 X10 Y10
G0 F2571.4 X198.009 Y128.802
M204 S500
M205 X5 Y5
G1 F1200 X197.395 Y129.607 E2.58479
G1 X196.91 Y130.141 E2.59429
G1 X196.369 Y130.618 E2.60378
G1 X195.264 Y131.346 E2.62121
G1 X194.415 Y131.78 E2.63376
G1 X193.46 Y132.183 E2.64741
G1 X192.738 Y132.439 E2.6575
G1 X191.725 Y132.732 E2.67138
G1 X190.972 Y132.902 E2.68155
G1 X190.114 Y133.043 E2.693
G1 X189.499 Y133.114 E2.70115
G1 X188.585 Y133.176 E2.71321
G1 X187.968 Y133.189 E2.72134
G1 X186.896 Y133.16 E2.73546
G1 X185.279 Y132.965 E2.7569
G1 X183.848 Y132.624 E2.77627
G1 X182.46 Y132.124 E2.7957
G1 X182.031 Y131.925 E2.80193
G1 X181.316 Y132.292 E2.81251
G1 X180.65 Y132.568 E2.822
G1 X179.957 Y132.769 E2.8315
G1 X178.972 Y132.93 E2.84465
G1 X178.102 Y132.988 E2.85613
G1 X176.187 Y132.988 E2.88134
G1 X175.134 Y132.902 E2.89525
G1 X174.057 Y132.685 E2.90972
G1 X173.375 Y132.452 E2.91921
G1 X172.98 Y132.272 E2.92493
G1 X172.28 Y132.553 E2.93486
G1 X171.592 Y132.767 E2.94434
G1 X170.541 Y132.941 E2.95837
G1 X169.703 Y132.988 E2.96942
G1 X166.911 Y132.988 E3.00619
G1 X165.858 Y132.902 E3.0201
G1 X164.781 Y132.685 E3.03456
G1 X164.099 Y132.452 E3.04405
G1 X163.244 Y132.044 E3.05653
G1 X162.858 Y131.819 E3.06241
G1 X162.16 Y132.209 E3.07294
G1 X161.686 Y132.408 E3.07971
G1 X161.379 Y133.202 E3.09092
G1 X160.871 Y134.117 E3.1047
G1 X160.471 Y134.718 E3.1142
G1 X160.007 Y135.27 E3.1237
G1 X159.22 Y136.003 E3.13786
G1 X158.653 Y136.449 E3.14736
G1 X158.041 Y136.83 E3.15685
G1 X157.075 Y137.279 E3.17088
G1 X156.398 Y137.528 E3.18038
G1 X155.698 Y137.7 E3.18987
G1 X154.737 Y137.823 E3.20263
G1 X154.061 Y137.858 E3.21154
G1 X151.254 Y137.858 E3.2485
G1 X150.209 Y137.774 E3.2623
G1 X149.049 Y137.544 E3.27788
G1 X148.366 Y137.312 E3.28737
G1 X147.432 Y136.865 E3.30101
G1 X146.866 Y136.535 E3.30963
G1 X145.986 Y137.055 E3.32309
G1 X145.323 Y137.34 E3.3326
G1 X144.289 Y137.64 E3.34677
G1 X143.582 Y137.783 E3.35627
G1 X142.651 Y137.854 E3.36857
G1 X142.435 Y137.858 E3.37141
G1 X139.627 Y137.858 E3.40838
G1 X138.584 Y137.774 E3.42216
G1 X137.424 Y137.545 E3.43773
G1 X136.74 Y137.313 E3.44724
G1 X135.809 Y136.868 E3.46083
G1 X135.185 Y136.506 E3.47033
G1 X134.605 Y136.077 E3.47983
G1 X133.822 Y135.332 E3.49406
G1 X133.343 Y134.793 E3.50355
G1 X132.926 Y134.204 E3.51306
G1 X132.431 Y133.29 E3.52674
G1 X132.14 Y132.63 E3.53624
G1 X131.923 Y131.942 E3.54574
G1 X131.73 Y130.909 E3.55958
G1 X131.656 Y130.192 E3.56907
G1 X131.661 Y129.47 E3.57857
G1 X131.802 Y128.394 E3.59286
G1 X131.956 Y127.689 E3.60237
G1 X132.32 Y126.693 E3.61633
G1 X132.831 Y125.697 E3.63107
G1 X135.94 Y120.645 E3.70918
G1 X131.982 Y114.382 E3.80673
G1 X131.507 Y113.481 E3.82014
G1 X131.077 Y112.384 E3.83566
G1 X130.905 Y111.684 E3.84515
G1 X130.779 Y110.621 E3.85924
G1 X130.753 Y109.901 E3.86873
G1 X130.807 Y109.181 E3.87824
G1 X131.015 Y108.138 E3.89224
G1 X131.213 Y107.444 E3.90175
G1 X131.487 Y106.777 E3.91124
G1 X131.99 Y105.874 E3.92485
G1 X132.39 Y105.274 E3.93435
G1 X132.855 Y104.722 E3.94385
G1 X133.67 Y103.969 E3.95846
G1 X134.239 Y103.526 E3.96796
G1 X134.854 Y103.149 E3.97745
G1 X135.797 Y102.715 E3.99112
G1 X136.474 Y102.468 E4.00061
G1 X137.175 Y102.296 E4.01012
G1 X138.125 Y102.176 E4.02272
G1 X138.794 Y102.142 E4.03154
G1 X141.614 Y102.142 E4.06868
G1 X142.334 Y102.182 E4.07817
G1 X143.584 Y102.417 E4.09492
G1 X144.279 Y102.608 E4.10441
G1 X144.95 Y102.874 E4.11391
G1 X145.755 Y103.319 E4.12603
G1 X146.644 Y103.936 E4.14027
G1 X147.513 Y103.334 E4.15419
G1 X148.137 Y102.973 E4.16369
G1 X148.798 Y102.683 E4.17319
G1 X149.805 Y102.38 E4.18704
G1 X150.511 Y102.229 E4.19654
G1 X151.483 Y102.147 E4.20939
G1 X151.743 Y102.142 E4.21281
G1 X154.551 Y102.142 E4.24979
G1 X155.594 Y102.226 E4.26356
G1 X156.754 Y102.455 E4.27913
G1 X157.726 Y102.818 E4.2928
G1 X158.483 Y102.716 E4.30285
G1 X159.03 Y102.693 E4.31006
G1 X160.477 Y102.693 E4.32912
G1 X161.53 Y102.779 E4.34303
G1 X162.607 Y102.996 E4.35749
G1 X162.659 Y103.014 E4.35822
G1 X162.953 Y102.921 E4.36228
G1 X163.979 Y102.745 E4.37599
G1 X164.851 Y102.693 E4.38749
G1 X166.685 Y102.693 E4.41164
G1 X167.333 Y102.745 E4.4202
G1 X168.153 Y102.693 E4.43102
G1 X170.15 Y102.693 E4.45731
G1 X171.189 Y102.777 E4.47104
G1 X172.265 Y102.991 E4.48548
G1 X172.948 Y103.222 E4.49498
G1 X173.829 Y103.644 E4.50784
G1 X174.135 Y103.823 E4.51251
G1 X174.803 Y103.459 E4.52252
G1 X175.713 Y103.101 E4.5354
G1 X176.404 Y102.894 E4.5449
G1 X177.39 Y102.737 E4.55804
G1 X178.19 Y102.693 E4.56859
G1 X179.983 Y102.693 E4.5922
G1 X181.036 Y102.779 E4.60611
G1 X181.191 Y102.802 E4.60818
G1 X181.927 Y102.675 E4.61801
G1 X183.007 Y102.552 E4.63233
G1 X183.558 Y102.513 E4.6396
G1 X184.431 Y102.488 E4.6511
G1 X185.011 Y102.497 E4.65874
G1 X186.264 Y102.573 E4.67527
G1 X187.674 Y102.772 E4.69402
G1 X188.405 Y102.939 E4.70389
G1 X189.482 Y103.25 E4.71865
G1 X190.298 Y103.545 E4.73007
G1 X191.56 Y104.139 E4.74844
G1 X192.64 Y104.794 E4.76507
G1 X193.686 Y105.59 E4.78238
G1 X194.707 Y106.572 E4.80103
G1 X195.104 Y107.029 E4.809
G1 X195.609 Y107.692 E4.81998
G1 X196.35 Y108.897 E4.8386
G1 X196.919 Y110.142 E4.85663
G1 X197.335 Y111.427 E4.87441
G1 X197.591 Y112.667 E4.89109
G1 X197.723 Y113.978 E4.90844
G1 X197.742 Y114.843 E4.91983
G1 X197.695 Y115.785 E4.93225
G1 X197.585 Y116.674 E4.94404
G1 X197.361 Y117.741 E4.9584
G1 X197.108 Y118.553 E4.9696
G1 X197.614 Y119.369 E4.98224
G1 X197.87 Y119.88 E4.98977
G1 X198.577 Y121.46 E5.01256
G1 X198.92 Y122.422 E5.02601
G1 X199.167 Y123.491 E5.04045
G1 X199.237 Y124.209 E5.04995
G1 X199.216 Y125.187 E5.06283
G1 X199.139 Y125.904 E5.07233
G1 X198.984 Y126.608 E5.08182
G1 X198.666 Y127.52 E5.09454
G1 X198.373 Y128.18 E5.10405
G1 X198.009 Y128.802 E5.11353
M204 S625
M205 X10 Y10
G0 F2571.4 X197.633 Y128.608
M204 S500
M205 X5 Y5
G1 F1200 X197.069 Y129.342 E5.12572
G1 X196.599 Y129.858 E5.13491
G1 X196.073 Y130.317 E5.14411
G1 X195.046 Y130.987 E5.16025
G1 X194.252 Y131.393 E5.17199
G1 X193.297 Y131.796 E5.18564
G1 X192.621 Y132.035 E5.19508
G1 X191.608 Y132.328 E5.20897
G1 X190.904 Y132.487 E5.21847
G1 X190.046 Y132.628 E5.22992
G1 X189.47 Y132.695 E5.23756
G1 X188.556 Y132.757 E5.24962
G1 X187.979 Y132.769 E5.25722
G1 X186.907 Y132.74 E5.27134
G1 X185.341 Y132.55 E5.29211
G1 X183.956 Y132.218 E5.31086
G1 X182.613 Y131.733 E5.32967
G1 X182.01 Y131.454 E5.33842
G1 X181.134 Y131.914 E5.35144
G1 X180.489 Y132.179 E5.36063
G1 X179.818 Y132.37 E5.36981
G1 X178.916 Y132.513 E5.38184
G1 X178.102 Y132.568 E5.39258
G1 X176.187 Y132.568 E5.4178
G1 X175.202 Y132.488 E5.43081
G1 X174.149 Y132.275 E5.44495
G1 X173.49 Y132.046 E5.45414
G1 X172.986 Y131.816 E5.46143
G1 X172.134 Y132.159 E5.47353
G1 X171.467 Y132.365 E5.48272
G1 X170.507 Y132.522 E5.49553
G1 X169.703 Y132.568 E5.50613
G1 X166.911 Y132.568 E5.5429
G1 X165.926 Y132.488 E5.55591
G1 X164.873 Y132.275 E5.57005
G1 X164.214 Y132.046 E5.57924
G1 X163.435 Y131.67 E5.59063
G1 X162.839 Y131.321 E5.59973
G1 X162.554 Y131.519 E5.60429
G1 X161.939 Y131.849 E5.61348
G1 X161.339 Y132.091 E5.622
G1 X161.246 Y132.419 E5.62649
G1 X160.979 Y133.064 E5.63568
G1 X160.509 Y133.904 E5.64836
G1 X160.121 Y134.484 E5.65755
G1 X159.669 Y135.016 E5.66674
G1 X158.942 Y135.688 E5.67978
G1 X158.393 Y136.119 E5.68897
G1 X157.799 Y136.484 E5.69815
G1 X156.909 Y136.893 E5.71104
G1 X156.253 Y137.133 E5.72024
G1 X155.575 Y137.296 E5.72942
G1 X154.693 Y137.405 E5.74112
G1 X154.061 Y137.438 E5.74946
G1 X151.254 Y137.438 E5.78642
G1 X150.276 Y137.359 E5.79934
G1 X149.14 Y137.134 E5.81459
G1 X148.481 Y136.906 E5.82377
G1 X147.623 Y136.491 E5.83632
G1 X146.871 Y136.026 E5.84796
G1 X145.778 Y136.689 E5.86479
G1 X145.136 Y136.961 E5.87397
G1 X144.183 Y137.234 E5.88703
G1 X143.499 Y137.371 E5.89621
G1 X142.637 Y137.435 E5.90759
G1 X142.435 Y137.438 E5.91025
G1 X139.627 Y137.438 E5.94723
G1 X138.651 Y137.359 E5.96012
G1 X137.514 Y137.134 E5.97538
G1 X136.855 Y136.906 E5.98457
G1 X136 Y136.493 E5.99707
G1 X135.397 Y136.142 E6.00626
G1 X134.838 Y135.724 E6.01545
G1 X134.12 Y135.036 E6.02854
G1 X133.658 Y134.514 E6.03772
G1 X133.258 Y133.942 E6.04691
G1 X132.805 Y133.099 E6.05951
G1 X132.525 Y132.46 E6.0687
G1 X132.319 Y131.793 E6.07789
G1 X132.145 Y130.843 E6.09061
G1 X132.074 Y130.149 E6.09979
G1 X132.083 Y129.451 E6.10898
G1 X132.217 Y128.46 E6.12215
G1 X132.367 Y127.779 E6.13133
G1 X132.702 Y126.869 E6.1441
G1 X133.188 Y125.917 E6.15818
G1 X136.434 Y120.642 E6.23973
G1 X132.337 Y114.158 E6.34072
G1 X131.892 Y113.315 E6.35328
G1 X131.472 Y112.24 E6.36847
G1 X131.31 Y111.561 E6.37766
G1 X131.197 Y110.583 E6.39063
G1 X131.174 Y109.886 E6.39981
G1 X131.23 Y109.19 E6.409
G1 X131.425 Y108.231 E6.42189
G1 X131.618 Y107.56 E6.43108
G1 X131.886 Y106.916 E6.44027
G1 X132.352 Y106.088 E6.45278
G1 X132.74 Y105.508 E6.46197
G1 X133.192 Y104.977 E6.47115
G1 X133.946 Y104.286 E6.48462
G1 X134.497 Y103.858 E6.4938
G1 X135.094 Y103.497 E6.50299
G1 X135.963 Y103.101 E6.51556
G1 X136.618 Y102.863 E6.52474
G1 X137.297 Y102.701 E6.53393
G1 X138.168 Y102.594 E6.54549
G1 X138.794 Y102.562 E6.55374
G1 X141.614 Y102.562 E6.59087
G1 X142.311 Y102.602 E6.60007
G1 X143.495 Y102.827 E6.61593
G1 X144.168 Y103.013 E6.62513
G1 X144.815 Y103.275 E6.63432
G1 X145.91 Y103.92 E6.65105
G1 X146.647 Y104.494 E6.66335
G1 X147.358 Y103.937 E6.67525
G1 X148.347 Y103.337 E6.69048
G1 X148.988 Y103.061 E6.69967
G1 X149.916 Y102.786 E6.71241
G1 X150.598 Y102.641 E6.72159
G1 X151.5 Y102.567 E6.73351
G1 X151.743 Y102.562 E6.73671
G1 X154.551 Y102.562 E6.77368
G1 X155.527 Y102.641 E6.78658
G1 X156.664 Y102.866 E6.80184
G1 X157.664 Y103.251 E6.81595
G1 X158.518 Y103.135 E6.8273
