;FLAVOR:Marlin
;TIME:2536
;Filament used: 1.2727m
;Layer height: 0.2
;MINX:29.049
;MINY:29.049
;MINZ:0.3
;MAXX:70.95
;MAXY:70.95
;MAXZ:29.9
;Generated with Cura_SteamEngine 4.7.1
M104 S200
M105
M109 S200
M82 ;absolute extrusion mode
G28 ;Home
G1 Z15.0 F6000 ;Move the platform down 15mm
;Prime the extruder
G92 E0
G1 F200 E3
G92 E0
G92 E0
G92 E0
G1 F1500 E-6.5
;LAYER_COUNT:149
;LAYER:0
M107
G0 F3600 X31.472 Y31.198 Z0.3
;TYPE:SKIRT
G1 F1500 E0
G1 F1800 X32.071 Y30.684 E0.01485
G1 X32.719 Y30.232 E0.02971
G1 X33.409 Y29.848 E0.04456
G1 X34.135 Y29.536 E0.05943
G1 X34.888 Y29.3 E0.07427
G1 X35.661 Y29.14 E0.08912
G1 X36.447 Y29.059 E0.10398
G1 X36.849 Y29.049 E0.11155
G1 X63.15 Y29.05 E0.60628
G1 X63.939 Y29.09 E0.62114
G1 X64.72 Y29.21 E0.63601
G1 X65.484 Y29.407 E0.65085
G1 X66.225 Y29.682 E0.66572
G1 X66.934 Y30.029 E0.68056
G1 X67.604 Y30.447 E0.69542
G1 X68.229 Y30.93 E0.71028
G1 X68.801 Y31.474 E0.72513
G1 X69.316 Y32.073 E0.73999
G1 X69.767 Y32.721 E0.75484
G1 X70.151 Y33.411 E0.76969
G1 X70.463 Y34.136 E0.78454
G1 X70.7 Y34.89 E0.7994
G1 X70.859 Y35.663 E0.81425
G1 X70.94 Y36.449 E0.82911
G1 X70.95 Y36.85 E0.83666
G1 X70.95 Y63.15 E1.33138
G1 X70.91 Y63.939 E1.34624
G1 X70.791 Y64.719 E1.36108
G1 X70.593 Y65.484 E1.37594
G1 X70.319 Y66.224 E1.39079
G1 X69.971 Y66.933 E1.40564
G1 X69.553 Y67.604 E1.42051
G1 X69.07 Y68.228 E1.43536
G1 X68.527 Y68.801 E1.45021
G1 X67.928 Y69.316 E1.46507
G1 X67.28 Y69.767 E1.47992
G1 X66.589 Y70.151 E1.49479
G1 X65.864 Y70.463 E1.50963
G1 X65.111 Y70.7 E1.52448
G1 X64.337 Y70.859 E1.53935
G1 X63.552 Y70.94 E1.55419
G1 X63.15 Y70.95 E1.56176
G1 X36.85 Y70.95 E2.05647
G1 X36.061 Y70.91 E2.07133
G1 X35.281 Y70.791 E2.08618
G1 X34.516 Y70.593 E2.10104
G1 X33.776 Y70.319 E2.11588
G1 X33.067 Y69.971 E2.13074
G1 X32.396 Y69.553 E2.14561
G1 X31.772 Y69.07 E2.16045
G1 X31.199 Y68.527 E2.1753
G1 X30.684 Y67.928 E2.19016
G1 X30.233 Y67.28 E2.20501
G1 X29.849 Y66.589 E2.21988
G1 X29.537 Y65.864 E2.23473
G1 X29.3 Y65.111 E2.24958
G1 X29.141 Y64.337 E2.26444
G1 X29.06 Y63.552 E2.27929
G1 X29.05 Y63.15 E2.28685
G1 X29.049 Y36.849 E2.78159
G1 X29.089 Y36.061 E2.79643
G1 X29.208 Y35.28 E2.81129
G1 X29.406 Y34.516 E2.82614
G1 X29.68 Y33.775 E2.841
G1 X30.028 Y33.066 E2.85585
G1 X30.445 Y32.396 E2.8707
G1 X30.928 Y31.771 E2.88556
G1 X31.472 Y31.198 E2.90042
G0 F3600 X31.865 Y31.379
G1 F1800 X32.46 Y30.891 E2.91489
G1 X33.102 Y30.468 E2.92936
G1 X33.784 Y30.113 E2.94382
G1 X34.5 Y29.832 E2.95829
G1 X35.241 Y29.626 E2.97276
G1 X36 Y29.498 E2.98723
G1 X36.849 Y29.449 E3.00323
G1 X63.15 Y29.45 E3.49797
G1 X63.918 Y29.49 E3.51243
G1 X64.678 Y29.61 E3.52691
G1 X65.422 Y29.807 E3.54138
G1 X66.14 Y30.081 E3.55584
G1 X66.827 Y30.428 E3.57032
G1 X67.473 Y30.844 E3.58477
G1 X68.073 Y31.326 E3.59925
G1 X68.62 Y31.866 E3.61371
G1 X69.108 Y32.461 E3.62818
G1 X69.531 Y33.103 E3.64264
G1 X69.886 Y33.786 E3.65712
G1 X70.168 Y34.502 E3.6716
G1 X70.373 Y35.243 E3.68606
G1 X70.501 Y36.001 E3.70052
G1 X70.55 Y36.85 E3.71652
G1 X70.55 Y63.15 E4.21124
G1 X70.51 Y63.918 E4.2257
G1 X70.391 Y64.678 E4.24017
G1 X70.193 Y65.421 E4.25464
G1 X69.919 Y66.14 E4.26911
G1 X69.572 Y66.826 E4.28357
G1 X69.156 Y67.473 E4.29804
G1 X68.675 Y68.073 E4.3125
G1 X68.134 Y68.62 E4.32698
G1 X67.539 Y69.108 E4.34145
G1 X66.897 Y69.531 E4.35591
G1 X66.214 Y69.886 E4.37039
G1 X65.499 Y70.167 E4.38484
G1 X64.757 Y70.373 E4.39933
G1 X63.999 Y70.501 E4.41379
G1 X63.15 Y70.55 E4.42979
G1 X36.85 Y70.55 E4.9245
G1 X36.082 Y70.51 E4.93897
G1 X35.322 Y70.391 E4.95344
G1 X34.579 Y70.193 E4.9679
G1 X33.86 Y69.919 E4.98238
G1 X33.174 Y69.572 E4.99684
G1 X32.527 Y69.156 E5.01131
G1 X31.927 Y68.675 E5.02577
G1 X31.38 Y68.134 E5.04024
G1 X30.892 Y67.539 E5.05472
G1 X30.469 Y66.897 E5.06918
G1 X30.114 Y66.214 E5.08366
G1 X29.833 Y65.499 E5.09811
G1 X29.627 Y64.757 E5.1126
G1 X29.499 Y63.999 E5.12706
G1 X29.45 Y63.15 E5.14305
G1 X29.449 Y36.849 E5.63779
G1 X29.489 Y36.081 E5.65226
G1 X29.608 Y35.321 E5.66673
G1 X29.806 Y34.578 E5.68119
G1 X30.08 Y33.859 E5.69566
G1 X30.427 Y33.173 E5.71013
G1 X30.843 Y32.526 E5.72459
G1 X31.324 Y31.926 E5.73906
G1 X31.865 Y31.379 E5.75353
G0 F3600 X32.257 Y31.566
G1 F1800 X32.847 Y31.106 E5.7676
G1 X33.483 Y30.712 E5.78168
G1 X34.157 Y30.387 E5.79575
G1 X34.862 Y30.137 E5.80982
G1 X35.59 Y29.963 E5.8239
G1 X36.332 Y29.868 E5.83797
G1 X36.849 Y29.849 E5.84771
G1 X63.15 Y29.85 E6.34244
G1 X63.897 Y29.89 E6.35651
G1 X64.636 Y30.009 E6.37059
G1 X65.357 Y30.207 E6.38466
G1 X66.053 Y30.481 E6.39873
G1 X66.717 Y30.827 E6.41281
G1 X67.339 Y31.242 E6.42688
G1 X67.914 Y31.721 E6.44096
G1 X68.434 Y32.258 E6.45502
G1 X68.894 Y32.849 E6.4691
G1 X69.288 Y33.484 E6.48316
G1 X69.612 Y34.158 E6.49723
G1 X69.862 Y34.863 E6.5113
G1 X70.036 Y35.591 E6.52538
G1 X70.131 Y36.333 E6.53945
G1 X70.15 Y36.85 E6.54918
G1 X70.15 Y63.15 E7.0439
G1 X70.11 Y63.897 E7.05797
G1 X69.991 Y64.635 E7.07203
G1 X69.793 Y65.357 E7.08612
G1 X69.52 Y66.053 E7.10018
G1 X69.173 Y66.716 E7.11426
G1 X68.758 Y67.339 E7.12834
G1 X68.279 Y67.913 E7.1424
G1 X67.742 Y68.434 E7.15647
G1 X67.152 Y68.893 E7.17053
G1 X66.516 Y69.288 E7.18462
G1 X65.842 Y69.612 E7.19869
G1 X65.137 Y69.862 E7.21276
G1 X64.409 Y70.036 E7.22684
G1 X63.667 Y70.131 E7.24091
G1 X63.15 Y70.15 E7.25064
G1 X36.85 Y70.15 E7.74536
G1 X36.103 Y70.11 E7.75943
G1 X35.365 Y69.991 E7.77349
G1 X34.643 Y69.793 E7.78757
G1 X33.947 Y69.52 E7.80164
G1 X33.284 Y69.173 E7.81571
G1 X32.661 Y68.758 E7.82979
G1 X32.087 Y68.279 E7.84386
G1 X31.566 Y67.742 E7.85793
G1 X31.107 Y67.152 E7.87199
G1 X30.712 Y66.516 E7.88607
G1 X30.388 Y65.842 E7.90014
G1 X30.138 Y65.137 E7.91421
G1 X29.964 Y64.409 E7.92829
G1 X29.869 Y63.667 E7.94236
G1 X29.85 Y63.15 E7.95209
G1 X29.849 Y36.849 E8.44683
G1 X29.889 Y36.102 E8.4609
G1 X30.008 Y35.364 E8.47496
G1 X30.206 Y34.642 E8.48905
G1 X30.479 Y33.946 E8.50311
G1 X30.826 Y33.283 E8.51719
G1 X31.24 Y32.66 E8.53126
G1 X31.719 Y32.086 E8.54532
G1 X32.257 Y31.566 E8.55939
G0 F3600 X32.114 Y32.251
G1 F1800 X32.648 Y31.759 E8.57305
G1 X33.233 Y31.328 E8.58672
G1 X33.862 Y30.964 E8.60039
G1 X34.526 Y30.671 E8.61404
G1 X35.219 Y30.453 E8.62771
G1 X35.932 Y30.313 E8.64138
G1 X36.849 Y30.249 E8.65867
G1 X63.15 Y30.25 E9.1534
G1 X63.876 Y30.29 E9.16708
G1 X64.592 Y30.409 E9.18073
G1 X65.291 Y30.607 E9.1944
G1 X65.964 Y30.88 E9.20806
G1 X66.603 Y31.225 E9.22172
G1 X67.2 Y31.639 E9.23539
G1 X67.748 Y32.116 E9.24905
G1 X68.241 Y32.649 E9.26271
G1 X68.672 Y33.234 E9.27638
G1 X69.035 Y33.863 E9.29004
G1 X69.328 Y34.528 E9.30371
G1 X69.546 Y35.221 E9.31737
G1 X69.686 Y35.933 E9.33102
G1 X69.75 Y36.85 E9.34832
G1 X69.75 Y63.15 E9.84303
G1 X69.71 Y63.875 E9.85669
G1 X69.591 Y64.592 E9.87036
G1 X69.393 Y65.291 E9.88403
G1 X69.12 Y65.964 E9.89769
G1 X68.775 Y66.603 E9.91135
G1 X68.361 Y67.2 E9.92502
G1 X67.885 Y67.748 E9.93867
G1 X67.351 Y68.241 E9.95234
G1 X66.766 Y68.671 E9.966
G1 X66.137 Y69.035 E9.97967
G1 X65.472 Y69.328 E9.99334
G1 X64.779 Y69.546 E10.007
G1 X64.067 Y69.686 E10.02065
G1 X63.15 Y69.75 E10.03794
G1 X36.85 Y69.75 E10.53266
G1 X36.125 Y69.71 E10.54632
G1 X35.408 Y69.591 E10.55999
G1 X34.709 Y69.393 E10.57366
G1 X34.036 Y69.12 E10.58732
G1 X33.397 Y68.775 E10.60098
G1 X32.8 Y68.361 E10.61465
G1 X32.252 Y67.885 E10.6283
G1 X31.759 Y67.351 E10.64197
G1 X31.329 Y66.766 E10.65563
G1 X30.965 Y66.137 E10.6693
G1 X30.672 Y65.472 E10.68297
G1 X30.454 Y64.779 E10.69663
G1 X30.314 Y64.067 E10.71028
G1 X30.25 Y63.15 E10.72757
G1 X30.249 Y36.849 E11.22231
G1 X30.289 Y36.124 E11.23597
G1 X30.408 Y35.408 E11.24962
G1 X30.606 Y34.708 E11.26331
G1 X30.879 Y34.035 E11.27697
G1 X31.224 Y33.396 E11.29063
G1 X31.638 Y32.799 E11.30429
G1 X32.114 Y32.251 E11.31795
G0 F3600 X32.508 Y32.422
G1 F1800 X33.038 Y31.959 E11.33118
G1 X33.617 Y31.558 E11.34443
G1 X34.238 Y31.226 E11.35768
G1 X34.892 Y30.966 E11.37092
G1 X35.571 Y30.782 E11.38415
G1 X36.267 Y30.676 E11.39739
G1 X36.849 Y30.649 E11.40835
G1 X63.15 Y30.65 E11.90309
G1 X63.853 Y30.69 E11.91633
G1 X64.547 Y30.809 E11.92958
G1 X65.223 Y31.007 E11.94283
G1 X65.872 Y31.279 E11.95607
G1 X66.486 Y31.624 E11.96932
G1 X67.057 Y32.036 E11.98256
G1 X67.577 Y32.51 E11.9958
G1 X68.041 Y33.039 E12.00903
G1 X68.441 Y33.618 E12.02227
G1 X68.773 Y34.239 E12.03552
G1 X69.033 Y34.893 E12.04875
G1 X69.217 Y35.573 E12.062
G1 X69.323 Y36.269 E12.07525
G1 X69.35 Y36.85 E12.08619
G1 X69.35 Y63.15 E12.58091
G1 X69.31 Y63.853 E12.59415
G1 X69.191 Y64.547 E12.6074
G1 X68.993 Y65.222 E12.62063
G1 X68.721 Y65.871 E12.63387
G1 X68.376 Y66.485 E12.64711
G1 X67.965 Y67.056 E12.66035
G1 X67.491 Y67.577 E12.6736
G1 X66.961 Y68.041 E12.68685
G1 X66.382 Y68.441 E12.70008
G1 X65.761 Y68.773 E12.71333
G1 X65.107 Y69.033 E12.72657
G1 X64.427 Y69.217 E12.73982
G1 X63.731 Y69.323 E12.75306
G1 X63.15 Y69.35 E12.764
G1 X36.85 Y69.35 E13.25872
G1 X36.147 Y69.31 E13.27197
G1 X35.453 Y69.191 E13.28521
G1 X34.778 Y68.993 E13.29844
G1 X34.129 Y68.721 E13.31168
G1 X33.515 Y68.376 E13.32493
G1 X32.944 Y67.965 E13.33816
G1 X32.423 Y67.491 E13.35141
G1 X31.959 Y66.961 E13.36466
G1 X31.559 Y66.382 E13.3779
G1 X31.227 Y65.761 E13.39115
G1 X30.967 Y65.107 E13.40439
G1 X30.783 Y64.427 E13.41764
G1 X30.677 Y63.731 E13.43088
G1 X30.65 Y63.15 E13.44182
G1 X30.649 Y36.849 E13.93656
G1 X30.689 Y36.146 E13.9498
G1 X30.808 Y35.453 E13.96303
G1 X31.006 Y34.777 E13.97628
G1 X31.278 Y34.128 E13.98952
G1 X31.623 Y33.514 E14.00276
G1 X32.034 Y32.943 E14.016
G1 X32.508 Y32.422 E14.02925
G0 F3600 X32.901 Y32.6
G1 F1800 X33.427 Y32.166 E14.04207
G1 X33.999 Y31.798 E14.05487
G1 X34.611 Y31.498 E14.06769
G1 X35.253 Y31.273 E14.08049
G1 X35.917 Y31.124 E14.09329
G1 X36.849 Y31.049 E14.11087
G1 X63.15 Y31.05 E14.60561
G1 X63.83 Y31.09 E14.61842
G1 X64.5 Y31.209 E14.63122
G1 X65.152 Y31.406 E14.64404
G1 X65.776 Y31.679 E14.65685
G1 X66.364 Y32.022 E14.66965
G1 X66.908 Y32.432 E14.68247
G1 X67.4 Y32.903 E14.69528
G1 X67.833 Y33.428 E14.70808
G1 X68.202 Y34 E14.72088
G1 X68.501 Y34.612 E14.7337
G1 X68.726 Y35.254 E14.74649
G1 X68.875 Y35.919 E14.75931
G1 X68.95 Y36.85 E14.77688
G1 X68.95 Y63.15 E15.2716
G1 X68.91 Y63.83 E15.28441
G1 X68.791 Y64.5 E15.29721
G1 X68.594 Y65.152 E15.31003
G1 X68.322 Y65.776 E15.32283
G1 X67.978 Y66.364 E15.33564
G1 X67.568 Y66.908 E15.34846
G1 X67.097 Y67.399 E15.36126
G1 X66.572 Y67.833 E15.37407
G1 X66 Y68.202 E15.38687
G1 X65.388 Y68.501 E15.39969
G1 X64.746 Y68.726 E15.41248
G1 X64.081 Y68.875 E15.4253
G1 X63.15 Y68.95 E15.44287
G1 X36.85 Y68.95 E15.93759
G1 X36.17 Y68.91 E15.9504
G1 X35.5 Y68.791 E15.9632
G1 X34.848 Y68.594 E15.97601
G1 X34.224 Y68.322 E15.98882
G1 X33.636 Y67.978 E16.00163
G1 X33.092 Y67.568 E16.01445
G1 X32.601 Y67.097 E16.02725
G1 X32.167 Y66.572 E16.04006
G1 X31.798 Y66 E16.05286
G1 X31.499 Y65.388 E16.06568
G1 X31.274 Y64.746 E16.07847
G1 X31.125 Y64.081 E16.09129
G1 X31.05 Y63.15 E16.10886
G1 X31.049 Y36.849 E16.6036
G1 X31.089 Y36.17 E16.61639
G1 X31.208 Y35.499 E16.62921
G1 X31.405 Y34.847 E16.64202
G1 X31.677 Y34.223 E16.65483
G1 X32.021 Y33.635 E16.66764
G1 X32.431 Y33.092 E16.68044
G1 X32.901 Y32.6 E16.69324
G0 F3600 X33.294 Y32.785
G1 F1800 X33.814 Y32.383 E16.7056
G1 X34.378 Y32.047 E16.71795
G1 X34.98 Y31.783 E16.73032
G1 X35.609 Y31.593 E16.74268
G1 X36.256 Y31.482 E16.75503
G1 X36.849 Y31.449 E16.7662
G1 X63.15 Y31.45 E17.26093
G1 X63.806 Y31.49 E17.2733
G1 X64.452 Y31.609 E17.28565
G1 X65.079 Y31.806 E17.29801
G1 X65.677 Y32.078 E17.31037
G1 X66.238 Y32.42 E17.32273
G1 X66.753 Y32.828 E17.33509
G1 X67.215 Y33.295 E17.34745
G1 X67.616 Y33.815 E17.3598
G1 X67.952 Y34.38 E17.37216
G1 X68.216 Y34.981 E17.38451
G1 X68.406 Y35.61 E17.39687
G1 X68.517 Y36.258 E17.40924
G1 X68.55 Y36.85 E17.42039
G1 X68.55 Y63.15 E17.91511
G1 X68.51 Y63.806 E17.92747
G1 X68.391 Y64.452 E17.93983
G1 X68.194 Y65.079 E17.95219
G1 X67.922 Y65.677 E17.96455
G1 X67.58 Y66.238 E17.97691
G1 X67.172 Y66.753 E17.98927
G1 X66.705 Y67.215 E18.00162
G1 X66.185 Y67.616 E18.01398
G1 X65.621 Y67.952 E18.02633
G1 X65.019 Y68.216 E18.03869
G1 X64.39 Y68.406 E18.05105
G1 X63.743 Y68.517 E18.0634
G1 X63.15 Y68.55 E18.07457
G1 X36.85 Y68.55 E18.56929
G1 X36.194 Y68.51 E18.58165
G1 X35.548 Y68.391 E18.59401
G1 X34.921 Y68.194 E18.60637
G1 X34.323 Y67.922 E18.61873
G1 X33.762 Y67.58 E18.63109
G1 X33.247 Y67.172 E18.64345
G1 X32.785 Y66.705 E18.6558
G1 X32.384 Y66.185 E18.66815
G1 X32.048 Y65.621 E18.6805
G1 X31.784 Y65.019 E18.69287
G1 X31.594 Y64.39 E18.70523
G1 X31.483 Y63.743 E18.71758
G1 X31.45 Y63.15 E18.72875
G1 X31.449 Y36.849 E19.22348
G1 X31.489 Y36.193 E19.23585
G1 X31.608 Y35.547 E19.2482
G1 X31.805 Y34.921 E19.26055
G1 X32.077 Y34.322 E19.27292
G1 X32.419 Y33.762 E19.28527
G1 X32.826 Y33.246 E19.29763
G1 X33.294 Y32.785 E19.30999
G0 F3600 X33.221 Y33.408
G1 F1800 X33.685 Y32.978 E19.32189
G1 X34.198 Y32.609 E19.33377
G1 X34.755 Y32.309 E19.34567
G1 X35.344 Y32.081 E19.35755
G1 X35.958 Y31.929 E19.36945
G1 X36.849 Y31.849 E19.38628
G1 X63.15 Y31.85 E19.88102
G1 X63.781 Y31.89 E19.89291
G1 X64.402 Y32.009 E19.9048
G1 X65.003 Y32.206 E19.9167
G1 X65.574 Y32.477 E19.92859
G1 X66.106 Y32.818 E19.94048
G1 X66.591 Y33.223 E19.95236
G1 X67.022 Y33.686 E19.96426
G1 X67.39 Y34.2 E19.97615
G1 X67.69 Y34.756 E19.98803
G1 X67.918 Y35.345 E19.99992
G1 X68.07 Y35.959 E20.01181
G1 X68.15 Y36.85 E20.02864
G1 X68.15 Y63.15 E20.52336
G1 X68.11 Y63.781 E20.53525
G1 X67.991 Y64.402 E20.54715
G1 X67.794 Y65.002 E20.55903
G1 X67.523 Y65.574 E20.57093
G1 X67.183 Y66.106 E20.58281
G1 X66.777 Y66.591 E20.59471
G1 X66.314 Y67.021 E20.60659
G1 X65.8 Y67.39 E20.61849
G1 X65.244 Y67.69 E20.63038
G1 X64.655 Y67.918 E20.64226
G1 X64.041 Y68.07 E20.65416
G1 X63.15 Y68.15 E20.67098
G1 X36.85 Y68.15 E21.1657
G1 X36.219 Y68.11 E21.1776
G1 X35.598 Y67.991 E21.18949
G1 X34.998 Y67.794 E21.20137
G1 X34.426 Y67.523 E21.21327
G1 X33.894 Y67.183 E21.22515
G1 X33.409 Y66.777 E21.23705
G1 X32.979 Y66.314 E21.24893
G1 X32.61 Y65.8 E21.26084
G1 X32.31 Y65.244 E21.27272
G1 X32.082 Y64.655 E21.2846
G1 X31.93 Y64.041 E21.2965
G1 X31.85 Y63.15 E21.31333
G1 X31.849 Y36.849 E21.80806
G1 X31.889 Y36.218 E21.81996
G1 X32.008 Y35.598 E21.83183
G1 X32.205 Y34.997 E21.84373
G1 X32.476 Y34.426 E21.85562
G1 X32.816 Y33.893 E21.86751
G1 X33.221 Y33.408 E21.8794
G0 F3600 X33.616 Y33.577
G1 F1800 X34.074 Y33.18 E21.8908
G1 X34.581 Y32.847 E21.90221
G1 X35.127 Y32.584 E21.91361
G1 X35.703 Y32.394 E21.92502
G1 X36.299 Y32.282 E21.93642
G1 X36.849 Y32.249 E21.94679
G1 X63.15 Y32.25 E22.44152
G1 X63.755 Y32.29 E22.45293
G1 X64.35 Y32.409 E22.46434
G1 X64.923 Y32.606 E22.47574
G1 X65.466 Y32.876 E22.48715
G1 X65.969 Y33.215 E22.49856
G1 X66.422 Y33.617 E22.50995
G1 X66.819 Y34.075 E22.52135
G1 X67.152 Y34.582 E22.53276
G1 X67.416 Y35.128 E22.54417
G1 X67.605 Y35.704 E22.55557
G1 X67.717 Y36.3 E22.56698
G1 X67.75 Y36.85 E22.57735
G1 X67.75 Y63.15 E23.07206
G1 X67.71 Y63.755 E23.08347
G1 X67.591 Y64.349 E23.09486
G1 X67.395 Y64.923 E23.10627
G1 X67.124 Y65.466 E23.11769
G1 X66.785 Y65.969 E23.1291
G1 X66.383 Y66.422 E23.14049
G1 X65.925 Y66.819 E23.15189
G1 X65.418 Y67.152 E23.1633
G1 X64.872 Y67.416 E23.17471
G1 X64.296 Y67.605 E23.18611
G1 X63.7 Y67.717 E23.19752
G1 X63.15 Y67.75 E23.20789
G1 X36.85 Y67.75 E23.7026
G1 X36.245 Y67.71 E23.71401
G1 X35.651 Y67.591 E23.7254
G1 X35.077 Y67.395 E23.73681
G1 X34.534 Y67.124 E23.74823
G1 X34.031 Y66.785 E23.75964
G1 X33.578 Y66.383 E23.77103
G1 X33.181 Y65.925 E23.78243
G1 X32.848 Y65.418 E23.79384
G1 X32.584 Y64.872 E23.80525
G1 X32.395 Y64.296 E23.81665
G1 X32.283 Y63.7 E23.82806
G1 X32.25 Y63.15 E23.83843
G1 X32.249 Y36.849 E24.33316
G1 X32.289 Y36.244 E24.34457
G1 X32.408 Y35.65 E24.35596
G1 X32.604 Y35.076 E24.36737
G1 X32.874 Y34.533 E24.37878
G1 X33.214 Y34.031 E24.39019
G1 X33.616 Y33.577 E24.40159
G0 F3600 X34.009 Y33.755
G1 F1800 X34.462 Y33.393 E24.4125
G1 X34.96 Y33.098 E24.42339
G1 X35.494 Y32.874 E24.43428
G1 X36.054 Y32.725 E24.44518
G1 X36.849 Y32.649 E24.4602
G1 X63.15 Y32.65 E24.95494
G1 X63.728 Y32.69 E24.96584
G1 X64.295 Y32.809 E24.97674
G1 X64.84 Y33.005 E24.98763
G1 X65.353 Y33.274 E24.99853
G1 X65.824 Y33.611 E25.00942
G1 X66.244 Y34.01 E25.02032
G1 X66.606 Y34.463 E25.03123
